luts/phantom/Bleach V-Log Legacy.cube
TITLE "Generated by Resolve"
LUT_3D_SIZE 5
0.0339818 0.0472114 0.0354009
0.0668956 0.0522164 0.0369421
0.214191 0.0551156 0.0471656
0.544579 0.0600748 0.0843671
0.654551 0.063508 0.124239
0.0445106 0.0881514 0.0502174
0.0793469 0.0927291 0.0487984
0.329564 0.0621042 0.048188
0.615122 0.0545663 0.0894331
0.647654 0.0636454 0.107195
0.0254215 0.342794 0.0935073
0.0244144 0.358953 0.0667124
0.451087 0.467247 0.0546426
0.898375 0.546044 0.247745
0.922866 0.574548 0.261738
0.115099 0.734005 0.426963
0.116533 0.735317 0.394781
0.274235 0.740032 0.295628
0.83624 0.838941 0.434211
0.930022 0.864683 0.521813
0.126772 0.7682 0.527092
0.128801 0.769039 0.489647
0.31284 0.775753 0.406943
0.861967 0.897353 0.661311
0.940627 0.922362 0.70106
0.0342107 0.0492256 0.047776
0.0686198 0.0534371 0.0540169
0.253162 0.0608225 0.0751965
0.580682 0.0613718 0.113924
0.684672 0.0663615 0.164141
0.044007 0.0874647 0.0696269
0.0793774 0.0915236 0.0789654
0.356863 0.0716411 0.0755016
0.644984 0.0631418 0.128878
0.672892 0.0648051 0.149874
0.0218967 0.348562 0.137926
0.0230259 0.361685 0.107607
0.470054 0.481788 0.0812085
0.905989 0.536675 0.262333
0.92726 0.558846 0.278065
0.11165 0.728832 0.453696
0.113817 0.729183 0.422889
0.235554 0.734279 0.294728
0.832715 0.834455 0.431006
0.930983 0.859861 0.520943
0.125566 0.767727 0.559976
0.126635 0.7682 0.530175
0.270191 0.771634 0.408423
0.858747 0.898024 0.673716
0.942458 0.92462 0.714626
0.0326085 0.0606851 0.117128
0.092134 0.0579232 0.14049
0.313359 0.066804 0.194446
0.654658 0.0753033 0.258152
0.77644 0.0901045 0.366629
0.0312047 0.0894636 0.187396
0.0394751 0.0790723 0.228367
0.44773 0.071046 0.276341
0.751385 0.08542 0.331563
0.78381 0.0936599 0.400534
0.0187228 0.342763 0.296803
0.0182956 0.355215 0.307774
0.537026 0.523064 0.500298
0.904753 0.54023 0.518944
0.925811 0.553628 0.54873
0.105699 0.715969 0.54876
0.105699 0.712718 0.532586
0.227512 0.721325 0.466804
0.862348 0.849454 0.646342
0.953216 0.878996 0.707317
0.125597 0.767758 0.638163
0.125216 0.767605 0.617243
0.169589 0.771817 0.572274
0.88867 0.924498 0.813733
0.962737 0.944884 0.851545
0.0193484 0.0767071 0.28307
0.0501259 0.0759899 0.337011
0.387259 0.0735943 0.456428
0.74229 0.116304 0.566827
0.850233 0.141649 0.662043
0.0140383 0.102998 0.374273
0.0136568 0.104616 0.40734
0.469886 0.0926986 0.571984
0.831128 0.137377 0.645045
0.874586 0.175692 0.706203
0.00944533 0.330419 0.501686
0.00970474 0.336141 0.526574
0.382559 0.470405 0.725536
0.933745 0.551766 0.790249
0.954345 0.56849 0.804898
0.104753 0.704479 0.652766
0.103456 0.699199 0.64773
0.184497 0.697337 0.649302
0.881453 0.857466 0.825345
0.961883 0.867948 0.838331
0.128634 0.771176 0.714961
0.128756 0.77026 0.69926
0.136522 0.776822 0.679286
0.90547 0.932509 0.871839
0.962615 0.945556 0.891203
0.0134432 0.114397 0.448783
0.0155642 0.125063 0.505211
0.245426 0.139452 0.653361
0.890806 0.291814 0.800504
0.958511 0.457069 0.882383
0.0138705 0.152407 0.562951
0.0140536 0.165789 0.588952
0.293156 0.217395 0.737774
0.952697 0.404669 0.871168
0.957214 0.471641 0.884596
0.0128176 0.355108 0.623468
0.0132143 0.364981 0.642267
0.225208 0.465782 0.748455
0.943587 0.608423 0.885161
0.962158 0.635172 0.888792
0.0663615 0.707454 0.70721
0.0605173 0.698924 0.705058
0.113466 0.685802 0.718791
0.859831 0.848508 0.877424
0.960937 0.870237 0.881529
0.114107 0.774365 0.748943
0.119966 0.773114 0.741283
0.1308 0.774487 0.727291
0.887144 0.92723 0.885664
0.962631 0.944961 0.90425
