luts/phantom/Bleach V-Log Legacy.cube
TITLE "Generated by Resolve"
LUT_3D_SIZE 9
0.0339818 0.0472114 0.0354009
0.0339818 0.0472114 0.0354009
0.0668956 0.0522164 0.0369421
0.111528 0.0525063 0.0395361
0.214191 0.0551156 0.0471656
0.374273 0.0573129 0.0598154
0.544579 0.0600748 0.0843671
0.65124 0.0638437 0.118547
0.654551 0.063508 0.124239
0.0339818 0.0472114 0.0354009
0.0341192 0.0473182 0.0354467
0.0664378 0.0548714 0.0382544
0.142138 0.0525216 0.0420539
0.283619 0.0547646 0.0481575
0.450431 0.0534524 0.0600595
0.603159 0.0591745 0.0920729
0.650416 0.0643626 0.112413
0.651499 0.0641337 0.115557
0.0445106 0.0881514 0.0502174
0.043473 0.0913405 0.0485542
0.0793469 0.0927291 0.0487984
0.187778 0.0835279 0.0500191
0.329564 0.0621042 0.048188
0.480964 0.0533455 0.0612497
0.615122 0.0545663 0.0894331
0.646403 0.0632181 0.105287
0.647654 0.0636454 0.107195
0.0475471 0.186419 0.0694896
0.043122 0.198703 0.059617
0.0482338 0.20032 0.0464179
0.20238 0.219242 0.0446784
0.495552 0.187121 0.0682231
0.636927 0.163165 0.0993362
0.730556 0.108324 0.0892653
0.736904 0.0864881 0.0835279
0.751965 0.109972 0.0935073
0.0254215 0.342794 0.0935073
0.0246433 0.354681 0.0846113
0.0244144 0.358953 0.0667124
0.083772 0.374411 0.0343023
0.451087 0.467247 0.0546426
0.731014 0.537957 0.155673
0.898375 0.546044 0.247745
0.921614 0.550851 0.258045
0.922866 0.574548 0.261738
0.0459907 0.551186 0.206561
0.0523384 0.566003 0.211337
0.0549935 0.567758 0.182635
0.0572061 0.572351 0.152468
0.413275 0.659373 0.178225
0.693675 0.700114 0.191806
0.86363 0.736538 0.274174
0.917601 0.76109 0.32784
0.917144 0.770062 0.33579
0.115099 0.734005 0.426963
0.115587 0.736538 0.422751
0.116533 0.735317 0.394781
0.120562 0.735225 0.34464
0.274235 0.740032 0.295628
0.673548 0.79762 0.399985
0.83624 0.838941 0.434211
0.926467 0.860273 0.510613
0.930022 0.864683 0.521813
0.127077 0.768292 0.520958
0.127459 0.768429 0.513329
0.128664 0.768948 0.491859
0.131502 0.770336 0.451057
0.270909 0.769421 0.38436
0.688396 0.836805 0.558877
0.847761 0.890669 0.636179
0.922057 0.911177 0.656474
0.938872 0.91754 0.679347
0.126772 0.7682 0.527092
0.127291 0.768353 0.51667
0.128801 0.769039 0.489647
0.13164 0.770382 0.45066
0.31284 0.775753 0.406943
0.717281 0.848264 0.586511
0.861967 0.897353 0.661311
0.920989 0.914733 0.676875
0.940627 0.922362 0.70106
0.0339818 0.0472114 0.0354009
0.0339818 0.0472114 0.0354009
0.0676585 0.0521553 0.0445869
0.118181 0.0559091 0.0502785
0.232898 0.059556 0.0567025
0.39942 0.0602731 0.0731823
0.560327 0.0601663 0.0962387
0.658091 0.0634928 0.130739
0.665125 0.0639658 0.138445
0.0339818 0.0472114 0.0354009
0.0339818 0.0472114 0.0354009
0.0703593 0.0520333 0.0375982
0.149905 0.0544442 0.0463569
0.298451 0.0578775 0.0547799
0.475151 0.0589151 0.0734112
0.617823 0.062974 0.106233
0.654307 0.0635538 0.123369
0.655421 0.0633402 0.127474
0.0453498 0.0876173 0.0565042
0.0455787 0.0909285 0.05243
0.0794842 0.0926375 0.0500038
0.192462 0.0804913 0.0500954
0.333028 0.061387 0.0485237
0.49221 0.0546883 0.0671092
0.629343 0.0632792 0.104982
0.651698 0.0640726 0.116289
0.65272 0.0638743 0.118837
0.047715 0.190005 0.0840772
0.0463722 0.201999 0.0744793
0.0416724 0.203861 0.0517128
0.206516 0.222538 0.0442359
0.504341 0.188861 0.0688487
0.642191 0.164889 0.100938
0.732418 0.105608 0.0878309
0.737835 0.0903487 0.0861677
0.750286 0.10753 0.0923323
0.0239414 0.347463 0.10753
0.0237888 0.359976 0.100313
0.0253758 0.361639 0.073991
0.0704051 0.376028 0.0345006
0.458793 0.474891 0.0567941
0.737316 0.54435 0.159014
0.900542 0.549599 0.248737
0.921904 0.554421 0.258656
0.923247 0.575051 0.262303
0.047364 0.555901 0.221866
0.0541848 0.571038 0.227802
0.0563058 0.57258 0.200717
0.0589609 0.577234 0.155734
0.408011 0.661799 0.179461
0.695903 0.70251 0.193942
0.866255 0.738354 0.276844
0.917632 0.760937 0.327718
0.916915 0.769558 0.335027
0.113771 0.73344 0.43624
0.114488 0.735958 0.432532
0.115938 0.734447 0.403769
0.120226 0.73521 0.348455
0.255741 0.738918 0.295048
0.67245 0.797955 0.401389
0.836271 0.838972 0.434287
0.926024 0.859205 0.507393
0.929564 0.863111 0.517937
0.12668 0.768215 0.529046
0.127047 0.768277 0.521721
0.128115 0.768658 0.501854
0.131228 0.770214 0.454582
0.239155 0.767239 0.378241
0.677714 0.833234 0.551095
0.844709 0.889479 0.633982
0.920272 0.909789 0.651438
0.938308 0.91577 0.672419
0.126329 0.768109 0.537713
0.126741 0.7682 0.527626
0.128008 0.768627 0.503761
0.131502 0.770321 0.451148
0.289937 0.772885 0.399237
0.697963 0.841367 0.574426
0.858701 0.896651 0.66157
0.917205 0.913558 0.673747
0.940627 0.922362 0.70106
0.0342107 0.0492256 0.047776
0.0419776 0.0491951 0.0465705
0.0686198 0.0534371 0.0540169
0.124987 0.057847 0.0634165
0.253162 0.0608225 0.0751965
0.425055 0.0600137 0.088716
0.580682 0.0613718 0.113924
0.673289 0.0648051 0.150912
0.684672 0.0663615 0.164141
0.0358892 0.0528267 0.0475776
0.0344091 0.0502785 0.0529335
0.0757458 0.0542306 0.0581826
0.164889 0.0590524 0.0646067
0.324895 0.0611429 0.0775311
0.498817 0.0588083 0.0924239
0.63711 0.063508 0.129473
0.672572 0.0647898 0.149187
0.680308 0.0656901 0.158679
0.044007 0.0874647 0.0696269
0.04477 0.090898 0.0731975
0.0793774 0.0915236 0.0789654
0.200381 0.0871748 0.0768139
0.356863 0.0716411 0.0755016
0.51603 0.0581674 0.0903639
0.644984 0.0631418 0.128878
0.667552 0.0643473 0.142763
0.672892 0.0648051 0.149874
0.0468452 0.191058 0.10837
0.0461433 0.203662 0.106294
0.0468147 0.204135 0.0853437
0.217182 0.227131 0.0873121
0.514366 0.190066 0.097673
0.643915 0.14876 0.111833
0.732937 0.090135 0.105226
0.74342 0.0847791 0.113832
0.751293 0.0911421 0.118608
0.0218967 0.348562 0.137926
0.0211337 0.361486 0.134524
0.0230259 0.361685 0.107607
0.053254 0.374884 0.0607614
0.470054 0.481788 0.0812085
0.747036 0.543526 0.183169
0.905989 0.536675 0.262333
0.926726 0.536889 0.269688
0.92726 0.558846 0.278065
0.0452888 0.552895 0.245426
0.0520638 0.568154 0.25362
0.0530404 0.568444 0.231174
0.0571145 0.570031 0.163226
0.378073 0.657313 0.186481
0.694789 0.700114 0.204562
0.866941 0.735149 0.289265
0.921035 0.757 0.342855
0.921736 0.765469 0.363149
0.11165 0.728832 0.453696
0.112108 0.730983 0.450401
0.113817 0.729183 0.422889
0.116976 0.729107 0.365957
0.235554 0.734279 0.294728
0.665293 0.794141 0.398001
0.832715 0.834455 0.431006
0.925246 0.854688 0.505119
0.930983 0.859861 0.520943
0.125917 0.767926 0.547158
0.126223 0.768078 0.540612
0.126925 0.768246 0.523873
0.129274 0.769284 0.48159
0.212177 0.768139 0.388495
0.657252 0.82739 0.540795
0.837095 0.886488 0.629236
0.916197 0.906813 0.643214
0.938369 0.912184 0.662104
0.125566 0.767727 0.559976
0.125811 0.767849 0.550561
0.126635 0.7682 0.530175
0.129259 0.769268 0.481727
0.270191 0.771634 0.408423
0.671138 0.834775 0.569802
0.858747 0.898024 0.673716
0.913283 0.913497 0.68069
0.942458 0.92462 0.714626
0.0344091 0.0536812 0.0716564
0.0441901 0.0531472 0.0716869
0.0827039 0.0548104 0.0738231
0.138857 0.0589914 0.0931106
0.278996 0.0632334 0.109667
0.463142 0.061265 0.123537
0.612558 0.0654459 0.155932
0.714122 0.0712291 0.20679
0.729595 0.0745251 0.23505
0.0349737 0.0593576 0.0800336
0.0333867 0.0576028 0.0919661
0.0910811 0.0561685 0.106386
0.192187 0.0614328 0.12192
0.365301 0.0644083 0.132464
0.539269 0.0626535 0.144701
0.682277 0.0700694 0.190768
0.722896 0.0731365 0.222431
0.73434 0.0755932 0.245274
0.0406653 0.0913252 0.106706
0.0387732 0.0917067 0.121157
0.0650187 0.0875715 0.137118
0.21825 0.0816815 0.147646
0.394675 0.0675669 0.136889
0.559884 0.0631418 0.148287
0.695491 0.0703746 0.194888
0.721279 0.0726482 0.219242
0.731472 0.0748608 0.23946
0.0417945 0.189166 0.158541
0.0403601 0.200275 0.168612
0.0404212 0.20029 0.169467
0.222507 0.229114 0.215763
0.516121 0.206134 0.187762
0.663813 0.185595 0.190036
0.762921 0.125673 0.199222
0.771588 0.10808 0.20853
0.785245 0.12221 0.230137
0.019028 0.350149 0.203449
0.0184634 0.362951 0.206271
0.0187228 0.364187 0.191394
0.0679332 0.390036 0.167102
0.519081 0.513008 0.23798
0.77554 0.546242 0.3131
0.9075 0.542489 0.373541
0.927275 0.541085 0.395193
0.927642 0.561044 0.418051
0.0441138 0.551995 0.297032
0.0496223 0.56585 0.306752
0.0495003 0.565164 0.289479
0.0498207 0.562997 0.241917
0.330816 0.659434 0.289662
0.714092 0.709804 0.333776
0.891691 0.739788 0.455268
0.941131 0.752483 0.516442
0.942596 0.76083 0.531624
0.108522 0.723354 0.493843
0.109133 0.724987 0.49163
0.109529 0.722103 0.46894
0.11162 0.71989 0.418753
0.23978 0.729534 0.3552
0.667765 0.796872 0.49247
0.841901 0.839292 0.532036
0.936889 0.861921 0.59379
0.943984 0.86978 0.612039
0.125292 0.76759 0.578408
0.125399 0.767666 0.573251
0.125566 0.767727 0.559701
0.126619 0.768185 0.530602
0.190143 0.767437 0.460075
0.639704 0.831098 0.591257
0.85742 0.898009 0.686503
0.923766 0.912169 0.68954
0.947784 0.918547 0.713344
0.12517 0.767483 0.594995
0.125185 0.767468 0.586847
0.12546 0.767727 0.570703
0.126345 0.768109 0.537591
0.216632 0.769787 0.48452
0.653071 0.84123 0.627192
0.879866 0.912764 0.744793
0.926696 0.925963 0.754665
0.955184 0.936233 0.788952
0.0326085 0.0606851 0.117128
0.0433509 0.0594797 0.123018
0.092134 0.0579232 0.14049
0.176684 0.0610056 0.15021
0.313359 0.066804 0.194446
0.51165 0.0676432 0.221454
0.654658 0.0753033 0.258152
0.76318 0.0839704 0.31957
0.77644 0.0901045 0.366629
0.03093 0.0658885 0.150317
0.0292668 0.0653239 0.172183
0.0670939 0.0616007 0.203922
0.242084 0.0637369 0.223087
0.414603 0.0696727 0.256001
0.586282 0.0751049 0.277668
0.729915 0.0839857 0.319448
0.774762 0.0891585 0.360571
0.78265 0.0923323 0.400137
0.0312047 0.0894636 0.187396
0.0281682 0.0874189 0.209903
0.0394751 0.0790723 0.228367
0.245212 0.0679942 0.262226
0.44773 0.071046 0.276341
0.608713 0.0774243 0.291707
0.751385 0.08542 0.331563
0.776287 0.090135 0.366262
0.78381 0.0936599 0.400534
0.0243229 0.182971 0.249577
0.021912 0.189456 0.26746
0.0207065 0.181338 0.280522
0.17145 0.201892 0.367041
0.542596 0.188571 0.392691
0.691402 0.173053 0.377447
0.787701 0.12221 0.357717
0.803479 0.113817 0.377859
0.814176 0.122728 0.416999
0.0187228 0.342763 0.296803
0.0182956 0.354833 0.306783
0.0182956 0.355215 0.307774
0.0481422 0.372915 0.325628
0.537026 0.523064 0.500298
0.771862 0.537591 0.509789
0.904753 0.54023 0.518944
0.923293 0.538628 0.531151
0.925811 0.553628 0.54873
0.0439612 0.548272 0.38175
0.0489967 0.560372 0.395712
0.0480201 0.558938 0.382467
0.0456397 0.554742 0.351202
0.37229 0.672007 0.48423
0.731044 0.718166 0.554971
0.901061 0.73727 0.604028
0.947448 0.747646 0.620432
0.94847 0.755428 0.632044
0.105699 0.715969 0.54876
0.106279 0.717311 0.548196
0.105699 0.712718 0.532586
0.104891 0.707637 0.500008
0.227512 0.721325 0.466804
0.667826 0.803906 0.606256
0.862348 0.849454 0.646342
0.942306 0.871107 0.688731
0.953216 0.878996 0.707317
0.125246 0.767605 0.618021
0.12517 0.767559 0.613764
0.125124 0.767544 0.603265
0.123934 0.765301 0.581445
0.167071 0.762097 0.542382
0.672648 0.846891 0.662638
0.87451 0.907988 0.756024
0.934356 0.919448 0.757702
0.956847 0.92639 0.783459
0.125597 0.767758 0.638163
0.125414 0.767681 0.630808
0.125216 0.767605 0.617243
0.125154 0.767498 0.594064
0.169589 0.771817 0.572274
0.676875 0.859342 0.692515
0.88867 0.924498 0.813733
0.947234 0.940185 0.836606
0.962737 0.944884 0.851545
0.0271153 0.0674754 0.196796
0.0359197 0.066865 0.211719
0.0706035 0.0630808 0.241688
0.177508 0.0618753 0.285466
0.371298 0.0712291 0.29865
0.550423 0.079469 0.351293
0.694789 0.0888685 0.413108
0.797238 0.0974136 0.487419
0.805737 0.100893 0.533471
0.0224765 0.0735637 0.254139
0.020264 0.0754559 0.274479
0.0460975 0.0729686 0.307805
0.183658 0.0657054 0.377096
0.47805 0.0762493 0.379644
0.62298 0.0928817 0.442832
0.762295 0.0943465 0.492195
0.805554 0.100816 0.532708
0.811307 0.103838 0.560586
0.0196994 0.0876173 0.282628
0.0174105 0.0856947 0.300725
0.0204318 0.0803388 0.316014
0.148363 0.0695659 0.406027
0.503746 0.0791791 0.42063
0.648173 0.098146 0.474968
0.784787 0.0975967 0.512749
0.808057 0.101884 0.542565
0.812161 0.104051 0.565377
0.0174411 0.168795 0.348394
0.0167239 0.173068 0.367956
0.0160678 0.163302 0.380484
0.103182 0.169635 0.479316
0.557977 0.159686 0.546792
0.705089 0.174166 0.556771
0.808362 0.130419 0.547799
0.828229 0.126329 0.563088
0.836088 0.131853 0.584726
0.00933852 0.335515 0.396811
0.00874342 0.346166 0.412879
0.00852979 0.342702 0.423743
0.0163729 0.337545 0.454994
0.483665 0.499779 0.650553
0.793713 0.531609 0.681544
0.923186 0.528481 0.674342
0.942748 0.526406 0.68188
0.944228 0.543145 0.694972
0.0448768 0.541787 0.484108
0.0497597 0.553552 0.496925
0.0486915 0.550256 0.493797
0.0466163 0.543694 0.48835
0.333822 0.658579 0.618372
0.736797 0.718547 0.696925
0.896025 0.726329 0.705486
0.950988 0.730343 0.709239
0.952117 0.73785 0.718791
0.104921 0.709163 0.604364
0.105516 0.709957 0.604761
0.104036 0.704616 0.594659
0.101991 0.697337 0.577279
0.200061 0.708003 0.571572
0.702281 0.818769 0.709209
0.879652 0.85774 0.746334
0.942168 0.87335 0.770031
0.955444 0.879606 0.779431
0.125978 0.768093 0.659556
0.125551 0.767422 0.655421
0.124132 0.76527 0.646647
0.121096 0.761456 0.629725
0.151858 0.756664 0.606943
0.680354 0.853223 0.72369
0.878386 0.910964 0.813184
0.942016 0.922423 0.820111
0.962127 0.929625 0.839109
0.127382 0.76907 0.679866
0.126787 0.768688 0.673014
0.126192 0.768322 0.66212
0.125765 0.767865 0.643824
0.149493 0.775296 0.635431
0.638529 0.85359 0.726589
0.902373 0.931807 0.85359
0.953429 0.944335 0.872099
0.962631 0.946105 0.877882
0.0193484 0.0767071 0.28307
0.0242008 0.0771191 0.303807
0.0501259 0.0759899 0.337011
0.116701 0.0715953 0.397055
0.387259 0.0735943 0.456428
0.594247 0.0977951 0.489693
0.74229 0.116304 0.566827
0.823941 0.112215 0.607874
0.850233 0.141649 0.662043
0.0133211 0.0883345 0.341848
0.0137179 0.0939651 0.362493
0.0255436 0.0937819 0.39527
0.121111 0.0843214 0.484886
0.471397 0.0847944 0.537331
0.66807 0.124147 0.568963
0.80975 0.131273 0.626429
0.848264 0.13933 0.658152
0.869947 0.169497 0.698192
0.0140383 0.102998 0.374273
0.0138094 0.104295 0.394339
0.0136568 0.104616 0.40734
0.099733 0.0970932 0.506142
0.469886 0.0926986 0.571984
0.700099 0.137697 0.601724
0.831128 0.137377 0.645045
0.85655 0.150042 0.673732
0.874586 0.175692 0.706203
0.0149691 0.161425 0.439277
0.0147707 0.166857 0.459876
0.0144656 0.161074 0.473548
0.055314 0.165225 0.531563
0.438727 0.157275 0.64303
0.739254 0.195789 0.651072
0.850004 0.177111 0.673991
0.874617 0.179629 0.691127
0.884031 0.195209 0.709773
0.00944533 0.330419 0.501686
0.00857557 0.341497 0.515145
0.00970474 0.336141 0.526574
0.0141909 0.327688 0.551202
0.382559 0.470405 0.725536
0.82916 0.537026 0.789029
0.933745 0.551766 0.790249
0.952453 0.551934 0.794156
0.954345 0.56849 0.804898
0.0239719 0.54403 0.555047
0.026276 0.55494 0.566125
0.0230411 0.549508 0.565698
0.0147402 0.537469 0.567849
0.27042 0.629389 0.680613
0.716472 0.709834 0.787396
0.902419 0.724239 0.797803
0.956619 0.726604 0.798611
0.958633 0.734737 0.806851
0.104753 0.704479 0.652766
0.104936 0.704967 0.653346
0.103456 0.699199 0.64773
0.101335 0.69073 0.639918
0.184497 0.697337 0.649302
0.691859 0.815839 0.777462
0.881453 0.857466 0.825345
0.94435 0.865034 0.83331
0.961883 0.867948 0.838331
0.126375 0.766629 0.694011
0.12578 0.765438 0.690791
0.123934 0.762875 0.68394
0.119631 0.756222 0.671656
0.143984 0.751675 0.661357
0.658671 0.845899 0.763195
0.892805 0.913283 0.853574
0.944869 0.922744 0.861006
0.962036 0.928069 0.869688
0.128634 0.771176 0.714961
0.128862 0.770809 0.708919
0.128756 0.77026 0.69926
0.127764 0.769329 0.68484
0.136522 0.776822 0.679286
0.569955 0.833204 0.736873
0.90547 0.932509 0.871839
0.952041 0.943343 0.885908
0.962615 0.945556 0.891203
0.0137789 0.0925154 0.357412
0.0152438 0.0962844 0.381506
0.0308995 0.098146 0.424552
0.0898909 0.0969558 0.49482
0.297047 0.0968643 0.580011
0.637598 0.122164 0.602197
0.804898 0.178759 0.678691
0.899565 0.218326 0.749035
0.93875 0.303914 0.817731
0.0135195 0.111467 0.436866
0.013077 0.117006 0.459236
0.0135805 0.11986 0.480262
0.0887312 0.122103 0.560098
0.361288 0.125231 0.647837
0.718273 0.164858 0.677134
0.886625 0.237461 0.75378
0.933913 0.290639 0.808606
0.951782 0.348455 0.845594
0.0133974 0.123217 0.473152
0.0130465 0.127016 0.495872
0.0131991 0.129564 0.506905
0.061265 0.135973 0.571527
0.353017 0.14255 0.673823
0.747097 0.189075 0.710613
0.912261 0.266758 0.784176
0.940749 0.309773 0.821912
0.953017 0.353262 0.84773
0.0141756 0.170916 0.517342
0.0141604 0.179995 0.536751
0.0142214 0.178088 0.552316
0.0205997 0.182574 0.579629
0.317342 0.199313 0.704005
0.757046 0.22504 0.742687
0.92491 0.3028 0.804578
0.939742 0.30753 0.817685
0.951354 0.350011 0.840558
0.01149 0.337987 0.574639
0.011017 0.349828 0.585641
0.0120546 0.345495 0.596597
0.0134737 0.338796 0.618402
0.297597 0.458213 0.749264
0.770474 0.545815 0.860304
0.943542 0.581888 0.850248
0.959121 0.590417 0.854582
0.960815 0.603922 0.860578
0.0135348 0.553231 0.608743
0.0154574 0.561669 0.6168
0.014435 0.554971 0.618616
0.0130159 0.542092 0.62501
0.226032 0.608179 0.714992
0.685481 0.700099 0.833402
0.920455 0.729641 0.860517
0.961807 0.740642 0.863386
0.961944 0.748455 0.867918
0.0805524 0.704448 0.684672
0.0797589 0.704372 0.685344
0.0753338 0.697673 0.681529
0.0674907 0.687922 0.679408
0.151415 0.690929 0.692714
0.668544 0.799649 0.81117
0.873289 0.85301 0.85893
0.941894 0.864073 0.859953
0.95967 0.867216 0.862562
0.125383 0.767391 0.719554
0.124651 0.765438 0.716487
0.123003 0.762676 0.710903
0.116548 0.752087 0.70135
0.138949 0.747463 0.698589
0.630777 0.832425 0.787686
0.890517 0.911727 0.873014
0.944381 0.922042 0.882139
0.960983 0.925597 0.885557
0.123095 0.772534 0.736873
0.12575 0.772091 0.732677
0.127855 0.77174 0.725109
0.12874 0.771115 0.713832
0.133852 0.775509 0.707668
0.525154 0.819364 0.751125
0.897734 0.930251 0.880583
0.952453 0.942123 0.894682
0.9626 0.945205 0.899489
0.0134432 0.114397 0.448783
0.0133974 0.120775 0.474586
0.0155642 0.125063 0.505211
0.0592813 0.131899 0.563348
0.245426 0.139452 0.653361
0.629618 0.169879 0.716442
0.890806 0.291814 0.800504
0.95935 0.389319 0.864958
0.958511 0.457069 0.882383
0.0131685 0.137453 0.53109
0.0133364 0.145617 0.551644
0.0137026 0.153903 0.56788
0.0499123 0.165896 0.618082
0.298878 0.190677 0.716823
0.716548 0.251102 0.79678
0.946288 0.375586 0.858869
0.960357 0.443839 0.880919
0.954894 0.487373 0.88658
0.0138705 0.152407 0.562951
0.0141909 0.161334 0.581445
0.0140536 0.165789 0.588952
0.0218814 0.184024 0.626078
0.293156 0.217395 0.737774
0.740322 0.297841 0.831876
0.952697 0.404669 0.871168
0.960342 0.45211 0.882979
0.957214 0.471641 0.884596
0.0146181 0.196536 0.584497
0.0148928 0.208972 0.600259
0.0154574 0.213245 0.615732
0.0157473 0.220142 0.63331
0.261204 0.260594 0.742733
0.729122 0.326543 0.84622
0.953994 0.421088 0.874052
0.961273 0.435248 0.878126
0.957519 0.47863 0.881041
0.0128176 0.355108 0.623468
0.0124361 0.366339 0.631373
0.0132143 0.364981 0.642267
0.0145266 0.363668 0.661418
0.225208 0.465782 0.748455
0.685603 0.565942 0.877897
0.943587 0.608423 0.885161
0.96231 0.624704 0.885847
0.962158 0.635172 0.888792
0.0183719 0.566094 0.647547
0.0199741 0.571664 0.653834
0.0191958 0.56434 0.656291
0.0179904 0.550072 0.665766
0.186633 0.597055 0.732311
0.644205 0.693416 0.85069
0.903136 0.737301 0.892378
0.961837 0.756252 0.892836
0.961776 0.763439 0.894209
0.0663615 0.707454 0.70721
0.0652171 0.705913 0.707164
0.0605173 0.698924 0.705058
0.0505989 0.687053 0.70428
0.113466 0.685802 0.718791
0.632639 0.780911 0.823774
0.859831 0.848508 0.877424
0.945525 0.860929 0.882933
0.960937 0.870237 0.881529
0.118029 0.769223 0.736141
0.117556 0.766903 0.733654
0.114763 0.762051 0.728893
0.104479 0.750332 0.722164
0.115602 0.744961 0.723171
0.595285 0.816327 0.797604
0.881025 0.908217 0.88278
0.942016 0.920287 0.892485
0.960876 0.925582 0.895476
0.114107 0.774365 0.748943
0.115877 0.773999 0.746929
0.119966 0.773114 0.741283
0.1252 0.772015 0.732754
0.1308 0.774487 0.727291
0.486259 0.80911 0.763104
0.887144 0.92723 0.885664
0.951156 0.941009 0.89958
0.962631 0.944961 0.90425
