luts/phantom/Bleach V-Log Legacy.cube
TITLE "Generated by Resolve"
LUT_3D_SIZE 33
0.0339818 0.0472114 0.0354009
0.0339818 0.0472114 0.0354009
0.0339818 0.0472114 0.0354009
0.0339818 0.0472114 0.0354009
0.0339818 0.0472114 0.0354009
0.0420539 0.0489052 0.0367285
0.047837 0.0505379 0.0371099
0.0568093 0.0518502 0.0367132
0.0668956 0.0522164 0.0369421
0.0761578 0.0527199 0.0377508
0.0856184 0.0528725 0.0383154
0.0972915 0.0528725 0.0389868
0.111528 0.0525063 0.0395361
0.129152 0.0518654 0.0406043
0.152438 0.0523537 0.0426795
0.180957 0.0537575 0.0452583
0.214191 0.0551156 0.0471656
0.251316 0.0557565 0.0492256
0.290227 0.0564889 0.0516976
0.331258 0.0569009 0.055436
0.374273 0.0573129 0.0598154
0.420035 0.0571908 0.064332
0.464942 0.0575418 0.0694438
0.506706 0.0585489 0.0761425
0.544579 0.0600748 0.0843671
0.579995 0.061677 0.0934615
0.616022 0.0629129 0.104326
0.639918 0.063859 0.112764
0.65124 0.0638437 0.118547
0.65333 0.0637522 0.120348
0.653819 0.0636454 0.121843
0.6542 0.0635843 0.123018
0.654551 0.063508 0.124239
0.0339818 0.0472114 0.0354009
0.0339818 0.0472114 0.0354009
0.0339818 0.0472114 0.0354009
0.0339818 0.0472114 0.0354009
0.0360571 0.0476081 0.0357061
0.0431983 0.049134 0.0369573
0.0497749 0.0510414 0.0367895
0.0607919 0.0517586 0.0366064
0.070573 0.0523384 0.0371862
0.0813306 0.052903 0.0381476
0.0934768 0.0530251 0.0388495
0.107988 0.0525978 0.039292
0.126268 0.0519722 0.0406043
0.149966 0.052491 0.0428779
0.178836 0.0539559 0.0455482
0.212573 0.0551614 0.0472572
0.250401 0.055848 0.0493019
0.290181 0.0564889 0.0516976
0.332067 0.0568856 0.0554513
0.374838 0.0572061 0.059678
0.420768 0.0571603 0.06421
0.465614 0.057435 0.0692454
0.507103 0.0584421 0.0758526
0.544533 0.0597391 0.0838026
0.578637 0.0611582 0.0925002
0.614771 0.0627451 0.103395
0.638788 0.0639048 0.112154
0.650355 0.06392 0.117678
0.652964 0.0638285 0.119249
0.653391 0.0637369 0.120546
0.653727 0.0636606 0.121691
0.654063 0.0635996 0.122637
0.654337 0.0635386 0.123552
0.0339818 0.0472114 0.0354009
0.0339818 0.0472114 0.0354009
0.0339818 0.0472114 0.0354009
0.0339818 0.0472114 0.0354009
0.0364538 0.0476081 0.0357519
0.0433814 0.0491951 0.0370031
0.0510414 0.051194 0.0365911
0.062211 0.0516518 0.0364996
0.0725719 0.0524758 0.0373693
0.0843214 0.0529335 0.0382696
0.0985733 0.0529946 0.0390478
0.116182 0.0523079 0.0398718
0.138293 0.0521706 0.0418097
0.164538 0.0527657 0.0435187
0.19588 0.0539254 0.0456092
0.231891 0.0548257 0.0476387
0.271885 0.055436 0.0491798
0.313039 0.0558938 0.0521859
0.354681 0.0561685 0.0558938
0.398322 0.0561227 0.0598001
0.443992 0.0562295 0.0648508
0.487297 0.056733 0.0704967
0.525963 0.0581979 0.0776837
0.561257 0.0594492 0.0860761
0.596231 0.0610971 0.0955673
0.629801 0.0637675 0.106752
0.643107 0.0638895 0.112428
0.651942 0.0640269 0.116991
0.652308 0.0639506 0.118074
0.652644 0.0638895 0.11873
0.652964 0.0638285 0.119295
0.653269 0.0637522 0.120165
0.653559 0.0637064 0.121065
0.0339818 0.0472114 0.0354009
0.0339818 0.0472114 0.0354009
0.0339818 0.0472114 0.0354009
0.0339818 0.0472114 0.0354009
0.0339818 0.0472114 0.0354009
0.0418555 0.0492561 0.0368658
0.0491493 0.0513771 0.037232
0.0591897 0.0522927 0.0368353
0.0710155 0.0529488 0.037644
0.0840162 0.053315 0.0383764
0.0996262 0.0531472 0.0391546
0.11783 0.05243 0.040116
0.141207 0.0520485 0.0418097
0.169055 0.0526131 0.0432288
0.20174 0.0536202 0.0449989
0.239017 0.0544442 0.0468147
0.279011 0.0547494 0.0479744
0.319341 0.0550393 0.0510262
0.359731 0.0549935 0.0539101
0.402686 0.0546883 0.0572519
0.447898 0.0545357 0.0618448
0.491997 0.0548562 0.0682078
0.529976 0.0560006 0.0753796
0.564141 0.0572671 0.0830854
0.600214 0.0603494 0.0937972
0.630106 0.063859 0.104921
0.644144 0.0640726 0.11078
0.651041 0.0642405 0.114168
0.651392 0.0641642 0.115251
0.651682 0.0640879 0.116197
0.651957 0.0640269 0.116976
0.652201 0.0639658 0.117784
0.652491 0.0639048 0.118456
0.0339818 0.0472114 0.0354009
0.0339818 0.0472114 0.0354009
0.0339818 0.0472114 0.0354009
0.0339818 0.0472114 0.0354009
0.0341192 0.0473182 0.0354467
0.0398566 0.049958 0.0367132
0.0467231 0.0525826 0.0386969
0.0533455 0.0542611 0.0383917
0.0664378 0.0548714 0.0382544
0.0806744 0.0552987 0.0388495
0.0975662 0.0545205 0.0393683
0.117815 0.0532998 0.0407874
0.142138 0.0525216 0.0420539
0.171328 0.0528725 0.0435187
0.205325 0.0539712 0.0453803
0.244236 0.0544594 0.0468605
0.283619 0.0547646 0.0481575
0.323644 0.0547036 0.0502937
0.363378 0.0544747 0.0530556
0.406134 0.0538338 0.0561837
0.450431 0.0534524 0.0600595
0.492638 0.0530404 0.0650187
0.530877 0.0539559 0.0721447
0.56585 0.0550698 0.0802472
0.603159 0.0591745 0.0920729
0.629389 0.0623331 0.101747
0.645167 0.0636454 0.108888
0.650004 0.0644236 0.111559
0.650416 0.0643626 0.112413
0.650736 0.0643015 0.113222
0.651026 0.0642405 0.114153
0.65127 0.0641794 0.114885
0.651499 0.0641337 0.115557
0.0361181 0.052903 0.0382544
0.0368505 0.0552071 0.0392157
0.0370031 0.0564279 0.0394141
0.0370489 0.0559091 0.0389105
0.0389868 0.0545663 0.038529
0.0416266 0.0539712 0.0387274
0.0470741 0.0563668 0.040177
0.052842 0.058381 0.0409705
0.063035 0.0598764 0.039765
0.0796826 0.0591745 0.0397498
0.0966659 0.0577859 0.0402686
0.117372 0.0559701 0.0414435
0.142779 0.054078 0.0428779
0.173434 0.0536507 0.0440986
0.209323 0.0543221 0.0456397
0.248585 0.0547189 0.0470436
0.288777 0.0548104 0.0485542
0.329656 0.0547494 0.0506447
0.370535 0.0543984 0.0535439
0.41384 0.0536812 0.0566415
0.456886 0.0530251 0.0600748
0.497139 0.0526131 0.0646983
0.535393 0.0531472 0.0715801
0.571069 0.054139 0.0795605
0.605219 0.057145 0.0896925
0.628992 0.0603494 0.098909
0.647471 0.0641642 0.10782
0.648814 0.0644541 0.109133
0.649363 0.0644846 0.109987
0.649592 0.0644694 0.110475
0.649805 0.0644388 0.110979
0.650111 0.0643931 0.111833
0.650416 0.0643626 0.112398
0.0395209 0.0634318 0.043061
0.0400092 0.0650339 0.0439002
0.0395209 0.0656596 0.043183
0.0393835 0.0652171 0.0425269
0.0419318 0.0640726 0.0422827
0.0465858 0.0632639 0.0419318
0.0521553 0.0640269 0.042649
0.0581826 0.0656901 0.0437476
0.06804 0.0671855 0.0425116
0.0858015 0.0665751 0.042771
0.10312 0.0647898 0.0425574
0.12578 0.062211 0.0435187
0.152438 0.0590524 0.0446937
0.182055 0.0562753 0.0453956
0.214405 0.0554971 0.0462196
0.255467 0.0552682 0.0471962
0.295842 0.0550698 0.0489052
0.336385 0.0548867 0.0511788
0.378378 0.0543679 0.0539254
0.421485 0.053666 0.0570687
0.464576 0.0528573 0.0606546
0.504234 0.0525063 0.0654154
0.542092 0.0528878 0.0722515
0.577356 0.0541085 0.0808576
0.610025 0.0558633 0.0898451
0.631815 0.0604562 0.0991226
0.647425 0.0641489 0.106584
0.648035 0.0645914 0.107759
0.648508 0.0645457 0.108614
0.648951 0.0644999 0.109361
0.649302 0.0644694 0.109941
0.649592 0.0644694 0.110521
0.649805 0.0644541 0.110994
0.0421759 0.0741588 0.0467231
0.0424659 0.0762951 0.0472725
0.0418555 0.0772717 0.0466926
0.0408331 0.0766766 0.0459754
0.0427863 0.0755779 0.0455329
0.0486152 0.0742962 0.0451209
0.0542153 0.0750134 0.0454566
0.0632029 0.0758068 0.0461128
0.0737316 0.0778973 0.0459907
0.0919203 0.0780652 0.0450446
0.112947 0.0767071 0.0455177
0.137911 0.0737163 0.0463569
0.167117 0.070222 0.0470283
0.200687 0.0649882 0.048127
0.234943 0.0607462 0.0475471
0.269169 0.0578012 0.0466621
0.306737 0.056199 0.0482185
0.343999 0.0553902 0.0513466
0.385443 0.0545968 0.0541543
0.429007 0.053666 0.0574197
0.47274 0.0526131 0.0612039
0.511757 0.0522164 0.0662699
0.548272 0.0521859 0.072343
0.582727 0.0530861 0.0807813
0.61294 0.0549477 0.0895857
0.634958 0.060441 0.0994583
0.646479 0.0632334 0.105394
0.647196 0.0637522 0.106218
0.647623 0.0640116 0.107073
0.648142 0.0643473 0.108003
0.648463 0.0643015 0.108614
0.648905 0.0644999 0.109316
0.649134 0.0644846 0.109682
0.0445106 0.0881514 0.0502174
0.0449226 0.0907759 0.0509957
0.0437018 0.0923629 0.0501411
0.0424353 0.0922103 0.0487984
0.043473 0.0913405 0.0485542
0.0486 0.0899367 0.0476844
0.0556497 0.090074 0.0480201
0.0646372 0.090898 0.0486458
0.0793469 0.0927291 0.0487984
0.0948653 0.0946059 0.0464942
0.122393 0.0931258 0.0466773
0.150607 0.0904097 0.0480507
0.187778 0.0835279 0.0500191
0.222507 0.0785229 0.0509651
0.259342 0.0725567 0.0518502
0.295979 0.0667124 0.0503243
0.329564 0.0621042 0.048188
0.362707 0.0583505 0.049073
0.397894 0.0563211 0.0530404
0.440986 0.0551156 0.0560616
0.480964 0.0533455 0.0612497
0.518654 0.0525216 0.0666819
0.553002 0.0521248 0.0728618
0.58703 0.0521248 0.0806439
0.615122 0.0545663 0.0894331
0.638483 0.059556 0.0992447
0.644327 0.0618906 0.102632
0.645762 0.0628367 0.104387
0.646403 0.0632181 0.105287
0.646998 0.0637369 0.105928
0.647181 0.0635233 0.106233
0.647532 0.0638132 0.106889
0.647654 0.0636454 0.107195
0.0467536 0.105013 0.0535592
0.0468147 0.108461 0.0542611
0.0457618 0.110582 0.0530709
0.0434424 0.110842 0.0513008
0.0428626 0.11017 0.0504921
0.046891 0.10956 0.0501869
0.0546426 0.109392 0.0499275
0.0639963 0.11017 0.0502632
0.078996 0.111604 0.0510414
0.0986648 0.113634 0.0493782
0.123079 0.115007 0.0462348
0.16318 0.111284 0.0476539
0.202274 0.106981 0.0508431
0.248035 0.097261 0.0535744
0.287449 0.0903944 0.0547494
0.326925 0.0835737 0.056199
0.364874 0.0760357 0.0548409
0.398718 0.0686809 0.0512398
0.430961 0.0626383 0.0502937
0.465537 0.0599374 0.0537575
0.500404 0.0577859 0.0582895
0.530999 0.0547036 0.0654154
0.563516 0.0536965 0.0721141
0.59443 0.0521553 0.0803082
0.621256 0.0552682 0.0897688
0.645167 0.0588998 0.0993362
0.645884 0.059617 0.100298
0.64538 0.059556 0.100175
0.645533 0.0595407 0.100267
0.645457 0.0594644 0.100191
0.644587 0.0595407 0.100175
0.644816 0.0602426 0.100893
0.644968 0.0619211 0.102754
0.0481575 0.12575 0.0576028
0.0485237 0.13106 0.058793
0.0473793 0.133654 0.0572976
0.0451514 0.133974 0.0541238
0.0432898 0.133852 0.0522469
0.0434119 0.133883 0.051957
0.0483253 0.133867 0.0504311
0.0599985 0.134447 0.050309
0.0760052 0.135988 0.0515297
0.0968185 0.137789 0.0528115
0.123919 0.140017 0.0485695
0.163104 0.140414 0.0455177
0.215961 0.135378 0.0488746
0.263798 0.129519 0.0541848
0.317601 0.116213 0.0578012
0.363912 0.107958 0.0601816
0.409934 0.0995346 0.0612039
0.450965 0.0899062 0.0604715
0.481331 0.0824598 0.0588235
0.50692 0.0746319 0.0558022
0.535058 0.0708476 0.0589151
0.561685 0.0633555 0.0608225
0.590143 0.0597238 0.0681926
0.620554 0.0573434 0.0770733
0.642771 0.0566567 0.086656
0.656733 0.0565347 0.093431
0.657328 0.0565805 0.0945754
0.657404 0.0567483 0.0949722
0.659953 0.057847 0.0948806
0.658518 0.0576791 0.0953231
0.659113 0.0580606 0.0953384
0.656626 0.057557 0.0951095
0.654246 0.0572213 0.0951705
0.0491798 0.153353 0.0633707
0.0487984 0.15938 0.0641642
0.0478676 0.162844 0.0623941
0.0458381 0.1635 0.0587015
0.0438239 0.163363 0.0556344
0.0431983 0.163745 0.0535744
0.0440986 0.164324 0.0525978
0.0494545 0.164233 0.0496071
0.0690471 0.166247 0.0505074
0.0915084 0.169299 0.0520485
0.117937 0.171954 0.0533303
0.158297 0.175097 0.0471809
0.216556 0.173999 0.0453193
0.27863 0.168948 0.0508431
0.334752 0.16202 0.0569162
0.401663 0.144137 0.0622568
0.459007 0.132799 0.0654612
0.50338 0.125582 0.0686961
0.534752 0.119371 0.0729686
0.561364 0.11191 0.0753338
0.584375 0.102983 0.0738842
0.606729 0.0952468 0.0717327
0.630243 0.0777752 0.0663462
0.656901 0.0722057 0.0729534
0.682033 0.0639048 0.0822156
0.691188 0.0628977 0.0866102
0.694102 0.0616312 0.088838
0.693263 0.0624704 0.0885634
0.692363 0.0637064 0.0878462
0.692561 0.0635386 0.0882429
0.692668 0.0641489 0.088304
0.694545 0.063386 0.0884565
0.695003 0.0635386 0.087953
0.0475471 0.186419 0.0694896
0.0469978 0.194095 0.0702068
0.0460517 0.198062 0.0677653
0.0446326 0.198444 0.0632944
0.043122 0.198703 0.059617
0.0419928 0.199176 0.0568856
0.0412146 0.200504 0.0540932
0.0423133 0.200778 0.0524147
0.0482338 0.20032 0.0464179
0.078645 0.205066 0.0485695
0.109178 0.209796 0.0514534
0.145922 0.214435 0.0535897
0.20238 0.219242 0.0446784
0.274281 0.218097 0.0443275
0.349248 0.212543 0.0516213
0.42031 0.206943 0.0588998
0.495552 0.187121 0.0682231
0.544289 0.177249 0.076936
0.580835 0.171847 0.0855573
0.608835 0.167681 0.0926375
0.636927 0.163165 0.0993362
0.662608 0.153307 0.103075
0.688396 0.138796 0.0994278
0.708385 0.119448 0.0899519
0.730556 0.108324 0.0892653
0.732906 0.0917678 0.082826
0.733516 0.0827192 0.0796063
0.732982 0.0803998 0.0796521
0.736904 0.0864881 0.0835279
0.740551 0.0934768 0.0877089
0.743969 0.0991684 0.0898146
0.748043 0.104555 0.0920577
0.751965 0.109972 0.0935073
0.0428168 0.224384 0.07364
0.0418555 0.232059 0.0741131
0.0408637 0.235813 0.07187
0.0406348 0.236347 0.0673686
0.0400549 0.236194 0.0630198
0.0386358 0.236988 0.061265
0.0374456 0.238315 0.0572213
0.0368811 0.239231 0.0539406
0.0391699 0.239063 0.0505074
0.049012 0.239887 0.0412757
0.0905623 0.248264 0.0446479
0.130587 0.254673 0.049134
0.180606 0.261173 0.0525826
0.253025 0.269154 0.041825
0.337102 0.269856 0.0437476
0.434195 0.263981 0.0518196
0.504158 0.264775 0.0627146
0.56759 0.256046 0.0807813
0.615457 0.25037 0.0983597
0.652064 0.243488 0.113237
0.683253 0.240543 0.124117
0.712551 0.239612 0.132326
0.745861 0.228092 0.138811
0.775174 0.216876 0.141665
0.794919 0.194675 0.136736
0.806012 0.184695 0.132631
0.807797 0.177569 0.128801
0.810132 0.181582 0.130724
0.813352 0.186007 0.133852
0.815732 0.190234 0.136278
0.820233 0.197696 0.140597
0.823941 0.203006 0.144244
0.829831 0.213275 0.149737
0.0366217 0.26302 0.0776532
0.0352483 0.270436 0.0778363
0.0348058 0.274479 0.0760967
0.034638 0.275074 0.0720226
0.0346075 0.274784 0.067628
0.0342412 0.275074 0.0640421
0.0331273 0.276326 0.0620584
0.0319677 0.278309 0.0563668
0.031754 0.279255 0.0548409
0.0357366 0.279103 0.0473182
0.0525673 0.280659 0.0357214
0.106981 0.292653 0.0414435
0.15903 0.30193 0.0475929
0.222965 0.313237 0.0528878
0.308888 0.324681 0.0409552
0.4103 0.325963 0.0442969
0.510567 0.326345 0.0559701
0.572854 0.338735 0.0748608
0.632197 0.343572 0.103288
0.685374 0.348669 0.134173
0.729915 0.340932 0.158785
0.769512 0.340185 0.177279
0.803983 0.342855 0.188891
0.837186 0.333608 0.196811
0.865995 0.328176 0.204135
0.882429 0.316686 0.205341
0.886687 0.317006 0.206531
0.887037 0.319097 0.207218
0.891676 0.328222 0.212238
0.894972 0.33727 0.216358
0.898833 0.347677 0.220813
0.902159 0.356359 0.225101
0.905623 0.366644 0.230091
0.0302434 0.301717 0.0835737
0.0291142 0.309483 0.0843671
0.0283665 0.313237 0.0826276
0.0285801 0.313542 0.0786145
0.0288548 0.313436 0.0742351
0.0289158 0.313695 0.0700389
0.0285801 0.314824 0.066041
0.027863 0.316594 0.0640421
0.0273442 0.318425 0.0577554
0.0273899 0.318791 0.0563363
0.0350347 0.318929 0.0452888
0.0640116 0.324132 0.0332799
0.132128 0.341405 0.04065
0.196155 0.354955 0.0498054
0.270161 0.371969 0.055436
0.370809 0.388281 0.0430915
0.484764 0.396017 0.0497902
0.574212 0.41149 0.0719005
0.633112 0.435386 0.0988174
0.689738 0.452399 0.133227
0.740795 0.464805 0.167361
0.792813 0.461097 0.199649
0.837324 0.457755 0.22327
0.873594 0.453391 0.235813
0.901183 0.44596 0.246296
0.919829 0.441459 0.252186
0.922332 0.443107 0.253132
0.922515 0.446189 0.253666
0.92256 0.451957 0.254322
0.922469 0.458457 0.254627
0.922789 0.466972 0.255009
0.922774 0.474662 0.25478
0.922484 0.482567 0.25478
0.0254215 0.342794 0.0935073
0.0243992 0.350973 0.0944991
0.024094 0.354665 0.0932631
0.0243381 0.354711 0.0891127
0.0246433 0.354681 0.0846113
0.0250553 0.35494 0.0800793
0.0253758 0.35523 0.0745708
0.0252079 0.356313 0.0702525
0.0244144 0.358953 0.0667124
0.0245823 0.3608 0.062211
0.0252537 0.360815 0.0605783
0.0400549 0.362402 0.0436408
0.083772 0.374411 0.0343023
0.168399 0.400229 0.0436866
0.241443 0.420401 0.0565499
0.326345 0.445182 0.0628367
0.451087 0.467247 0.0546426
0.55465 0.487098 0.0717479
0.629145 0.505058 0.097612
0.68098 0.523339 0.124102
0.731014 0.537957 0.155673
0.778119 0.552758 0.187854
0.82475 0.553872 0.213046
0.868528 0.553643 0.235492
0.898375 0.546044 0.247745
0.9187 0.540291 0.257252
0.921126 0.541085 0.257816
0.922301 0.544732 0.258228
0.921614 0.550851 0.258045
0.921981 0.556832 0.258915
0.921996 0.562036 0.259525
0.922118 0.568795 0.260441
0.922866 0.574548 0.261738
0.0218051 0.387381 0.105821
0.0210575 0.396826 0.107744
0.0205997 0.401328 0.106233
0.0208896 0.401679 0.1028
0.0213016 0.401404 0.0983902
0.0217899 0.40116 0.0936446
0.0224002 0.401419 0.0876173
0.0231174 0.40206 0.0809339
0.0231022 0.403861 0.0770581
0.0227359 0.406561 0.0730144
0.0231022 0.408316 0.0683909
0.0246891 0.407538 0.0637064
0.0525978 0.415152 0.043946
0.115663 0.436072 0.040177
0.226871 0.474113 0.059556
0.31577 0.503502 0.0829023
0.418616 0.527382 0.0903944
0.532708 0.544869 0.0834211
0.612222 0.561517 0.101518
0.677378 0.575814 0.126314
0.724315 0.589609 0.152285
0.771359 0.602457 0.183444
0.813809 0.614923 0.207706
0.855146 0.618738 0.229541
0.889952 0.621622 0.249454
0.908537 0.620752 0.259831
0.921004 0.620874 0.267292
0.922774 0.622766 0.268772
0.922698 0.625071 0.269398
0.922408 0.629129 0.270054
0.921889 0.632959 0.27013
0.921904 0.637446 0.271122
0.921981 0.641535 0.272145
0.0209201 0.438102 0.122988
0.0215457 0.447913 0.126787
0.0221714 0.452674 0.127123
0.0224765 0.452796 0.123522
0.0227207 0.452186 0.119097
0.0230869 0.452506 0.114336
0.0237278 0.452766 0.108125
0.0245518 0.453208 0.100832
0.0255894 0.454322 0.0931563
0.0252079 0.457404 0.0890364
0.0247959 0.459297 0.0852674
0.0257572 0.459297 0.0797742
0.030045 0.457511 0.0683909
0.0862745 0.478019 0.054139
0.191424 0.515602 0.0690166
0.325826 0.559762 0.105913
0.414389 0.57818 0.12282
0.512886 0.592126 0.121981
0.597192 0.606271 0.116808
0.664454 0.620203 0.134661
0.721218 0.631617 0.157656
0.765759 0.643183 0.18468
0.80766 0.65362 0.209995
0.844663 0.663783 0.229892
0.880034 0.669749 0.249638
0.904875 0.674525 0.26772
0.920027 0.676432 0.278691
0.919905 0.679377 0.279042
0.920027 0.681849 0.279683
0.920134 0.684428 0.28101
0.920058 0.687129 0.282521
0.920043 0.690517 0.284276
0.920058 0.693339 0.285679
0.0281682 0.491463 0.15407
0.0305791 0.502266 0.161898
0.0319371 0.506447 0.163424
0.0322271 0.506676 0.160464
0.0324559 0.506157 0.1561
0.0327001 0.505943 0.151049
0.0332494 0.506325 0.144549
0.0341039 0.507591 0.137026
0.0350042 0.508156 0.127413
0.0357977 0.509392 0.118441
0.0355688 0.511894 0.112352
0.0357519 0.513222 0.111696
0.038941 0.512474 0.101732
0.056733 0.516716 0.0830701
0.16788 0.558251 0.0917067
0.303471 0.599466 0.124514
0.426932 0.622889 0.150027
0.505547 0.631479 0.156176
0.580865 0.644694 0.156069
0.649821 0.656977 0.152834
0.708049 0.668315 0.169589
0.760418 0.677882 0.192645
0.802976 0.6878 0.218265
0.838499 0.697093 0.2392
0.871046 0.706737 0.258549
0.896086 0.714641 0.27924
0.912474 0.718303 0.293004
0.918654 0.721935 0.298985
0.918654 0.723918 0.299947
0.918715 0.726894 0.301091
0.918532 0.729442 0.301946
0.918029 0.732494 0.302403
0.918135 0.734646 0.304356
0.0459907 0.551186 0.206561
0.0508888 0.56289 0.217319
0.0527199 0.567376 0.219928
0.0525216 0.566979 0.216251
0.0523384 0.566003 0.211337
0.0526284 0.566293 0.206775
0.0532692 0.566964 0.200732
0.0541238 0.567315 0.193256
0.0549935 0.567758 0.182635
0.0562295 0.569085 0.170474
0.0569009 0.571527 0.161135
0.0569619 0.573831 0.152941
0.0572061 0.572351 0.152468
0.0673686 0.573617 0.132158
0.116625 0.589532 0.11664
0.284596 0.636378 0.150469
0.413275 0.659373 0.178225
0.515053 0.669734 0.192615
0.572717 0.677287 0.194385
0.633387 0.688624 0.193393
0.693675 0.700114 0.191806
0.746059 0.71046 0.208759
0.796597 0.719219 0.231434
0.832914 0.728405 0.253712
0.86363 0.736538 0.274174
0.888777 0.745815 0.295491
0.905684 0.754788 0.314214
0.915648 0.758389 0.323903
0.917601 0.76109 0.32784
0.917494 0.763195 0.329992
0.917708 0.765286 0.332067
0.917571 0.767529 0.333944
0.917144 0.770062 0.33579
0.0730907 0.613062 0.26891
0.0767834 0.622675 0.278126
0.078172 0.62594 0.279728
0.0782483 0.625925 0.277272
0.0782635 0.62565 0.273106
0.0782177 0.62533 0.268437
0.0786145 0.625513 0.262882
0.078996 0.626322 0.256001
0.079408 0.626917 0.246509
0.0801404 0.627756 0.234501
0.0814679 0.629389 0.219364
0.0823377 0.631662 0.208057
0.0819562 0.630167 0.203372
0.0860456 0.627848 0.198062
0.113588 0.63386 0.168414
0.228214 0.659495 0.174899
0.400732 0.690578 0.20885
0.512078 0.699687 0.224491
0.577646 0.709255 0.236881
0.62446 0.717632 0.237354
0.678737 0.728923 0.237812
0.733257 0.739849 0.240085
0.782452 0.750072 0.257984
0.827497 0.757992 0.278599
0.85771 0.765988 0.297414
0.88365 0.773617 0.316243
0.90071 0.78265 0.336233
0.915633 0.791424 0.35758
0.916701 0.79292 0.360784
0.917418 0.794308 0.363882
0.917708 0.796216 0.365972
0.918181 0.79765 0.368795
0.918364 0.799817 0.371557
0.0942397 0.665568 0.324651
0.0977188 0.673655 0.333288
0.0983139 0.676005 0.334005
0.0983597 0.675761 0.330907
0.0983902 0.675151 0.326802
0.098497 0.675105 0.322255
0.0986496 0.675059 0.31696
0.0989548 0.675273 0.310689
0.0995499 0.67599 0.302434
0.10016 0.676661 0.291295
0.100954 0.677195 0.276081
0.102251 0.677836 0.260227
0.102037 0.676829 0.253758
0.107195 0.674205 0.244938
0.127657 0.674968 0.232013
0.194965 0.685847 0.212787
0.340963 0.710338 0.234821
0.502937 0.724773 0.256001
0.57789 0.735164 0.274678
0.626902 0.74522 0.285969
0.669032 0.75404 0.287388
0.719783 0.765911 0.290837
0.770764 0.776761 0.295247
0.816617 0.786114 0.31397
0.856672 0.792706 0.335637
0.882094 0.800534 0.355962
0.899199 0.807034 0.372442
0.91133 0.813794 0.389868
0.917174 0.818555 0.399558
0.919417 0.820768 0.405249
0.919326 0.822553 0.40705
0.919646 0.823896 0.411093
0.920195 0.825284 0.415488
0.108202 0.705028 0.376104
0.110445 0.710597 0.383261
0.110658 0.711772 0.383291
0.110811 0.711482 0.380392
0.110811 0.710643 0.375769
0.110643 0.710033 0.370764
0.110948 0.710018 0.364645
0.11133 0.71014 0.35819
0.11162 0.710002 0.349416
0.112215 0.71014 0.339193
0.113359 0.710735 0.325811
0.114351 0.710964 0.310658
0.115236 0.710338 0.299153
0.119219 0.707683 0.288045
0.134981 0.706783 0.274311
0.187564 0.710994 0.26067
0.308873 0.729137 0.265614
0.457816 0.743603 0.286931
0.574746 0.756817 0.310933
0.627924 0.768261 0.332357
0.670405 0.778271 0.343542
0.709606 0.787579 0.344823
0.757977 0.799741 0.351232
0.805615 0.810193 0.357809
0.846143 0.818128 0.379217
0.88217 0.823941 0.406256
0.900511 0.830121 0.425925
0.913725 0.835279 0.443809
0.921874 0.839979 0.457145
0.924666 0.842237 0.463462
0.925093 0.843626 0.467521
0.925383 0.844862 0.470634
0.925475 0.846021 0.472496
0.115099 0.734005 0.426963
0.11545 0.737606 0.433494
0.115572 0.737942 0.432258
0.115526 0.737133 0.427695
0.115587 0.736538 0.422751
0.115694 0.735882 0.416831
0.115816 0.735668 0.41059
0.116136 0.735439 0.403769
0.116533 0.735317 0.394781
0.117052 0.735195 0.383291
0.118151 0.735393 0.370108
0.119799 0.735759 0.355032
0.120562 0.735225 0.34464
0.123537 0.732631 0.333989
0.145403 0.729671 0.307683
0.17969 0.730755 0.296941
0.274235 0.740032 0.295628
0.428336 0.759319 0.318334
0.55903 0.771313 0.343694
0.631617 0.786221 0.37499
0.673548 0.79762 0.399985
0.711589 0.807645 0.411948
0.748562 0.817563 0.414115
0.79295 0.829282 0.424796
0.83624 0.838941 0.434211
0.871061 0.845579 0.457664
0.901869 0.850477 0.482139
0.914626 0.855192 0.496071
0.926467 0.860273 0.510613
0.928954 0.861845 0.515404
0.929366 0.862867 0.517739
0.929931 0.863935 0.520607
0.930022 0.864683 0.521813
0.118715 0.755062 0.476051
0.119738 0.756161 0.47982
0.119921 0.756268 0.478386
0.119646 0.755917 0.474083
0.119463 0.755566 0.469551
0.119432 0.755245 0.464225
0.119463 0.75491 0.457603
0.119768 0.754604 0.450172
0.120333 0.754437 0.441123
0.121157 0.754314 0.430228
0.122423 0.754284 0.415946
0.123903 0.754299 0.398489
0.124712 0.753597 0.388357
0.125841 0.751736 0.37818
0.146761 0.747753 0.346227
0.188724 0.747539 0.32546
0.255863 0.751888 0.330556
0.398199 0.770123 0.351049
0.538613 0.781933 0.37525
0.630777 0.79971 0.421576
0.684184 0.814191 0.458946
0.719417 0.825528 0.482109
0.756878 0.835798 0.490135
0.788235 0.844831 0.489357
0.82887 0.855085 0.496681
0.862303 0.862089 0.502937
0.8916 0.868101 0.521294
0.912505 0.872496 0.537118
0.924239 0.876493 0.548562
0.92932 0.878431 0.555154
0.933135 0.880339 0.560098
0.933761 0.881071 0.562524
