luts/phantom/EastmanRM V-Log Legacy.cube
TITLE "Generated by Resolve"
LUT_3D_SIZE 9
0.0476692 0.0503853 0.0489052
0.0702068 0.0457465 0.041825
0.14551 0.0414588 0.0374456
0.235096 0.0370642 0.0395514
0.398642 0.0307164 0.0449836
0.51809 0.0304417 0.0611124
0.562036 0.0327459 0.078294
0.560937 0.03299 0.0814069
0.520409 0.0370031 0.117601
0.0502785 0.0580606 0.0493172
0.0514076 0.0542916 0.0477913
0.108751 0.05066 0.0424506
0.225834 0.0379034 0.040528
0.405203 0.0289769 0.0434424
0.518395 0.0277104 0.0565957
0.5608 0.0325933 0.0747387
0.55964 0.0328069 0.0779889
0.518074 0.0366369 0.112505
0.062211 0.105333 0.0545663
0.0527199 0.106447 0.0577096
0.106325 0.100969 0.0504463
0.243168 0.0717937 0.0473945
0.41062 0.0302892 0.044831
0.517006 0.0282139 0.0612802
0.548211 0.0319371 0.075227
0.551522 0.0330968 0.0776226
0.528847 0.0353857 0.0962081
0.0681315 0.203922 0.0722972
0.0525826 0.209216 0.0697795
0.0599985 0.208408 0.0597086
0.250996 0.222049 0.0579843
0.507073 0.15433 0.0663005
0.567346 0.0565652 0.0690929
0.556435 0.0349584 0.0749828
0.549355 0.0324865 0.0740368
0.527199 0.034287 0.0889906
0.0546273 0.407156 0.0915389
0.0484016 0.414557 0.101411
0.0483253 0.418921 0.0866255
0.0663157 0.421134 0.0539406
0.538643 0.505272 0.0817121
0.78677 0.454459 0.15581
0.841642 0.395727 0.186465
0.836957 0.384268 0.18172
0.827436 0.388693 0.192599
0.127047 0.633829 0.327001
0.117769 0.644831 0.353399
0.119341 0.646998 0.342702
0.121096 0.639033 0.284703
0.327901 0.650538 0.197452
0.750149 0.748104 0.282521
0.889418 0.74461 0.403021
0.888731 0.740902 0.399008
0.892638 0.741711 0.393408
0.28072 0.75938 0.533867
0.271382 0.765194 0.552666
0.269139 0.765164 0.549752
0.266331 0.761273 0.529564
0.267552 0.74551 0.456657
0.676966 0.838468 0.560952
0.876097 0.904814 0.641703
0.910124 0.898619 0.657465
0.908476 0.899901 0.662669
0.274586 0.766354 0.561059
0.282032 0.763912 0.548043
0.2813 0.762524 0.540002
0.277501 0.758236 0.517113
0.279911 0.752544 0.478828
0.643915 0.826337 0.55819
0.860395 0.914611 0.699275
0.9028 0.928008 0.754208
0.895216 0.928862 0.766552
0.268177 0.768521 0.572641
0.272587 0.766842 0.5635
0.279454 0.763531 0.544732
0.27744 0.758144 0.516518
0.284047 0.75053 0.466651
0.672374 0.837278 0.576226
0.858259 0.915175 0.707149
0.899245 0.92845 0.759594
0.892683 0.929015 0.770184
0.0475166 0.0505837 0.0508278
0.061799 0.0493324 0.0495613
0.122011 0.0482338 0.0498817
0.215732 0.0449836 0.0539406
0.37995 0.0348211 0.0625315
0.49749 0.0323491 0.0816052
0.541161 0.035523 0.103868
0.540688 0.0366369 0.109743
0.515633 0.0397498 0.134524
0.0492409 0.0559854 0.0509957
0.0487678 0.0499886 0.0484321
0.099855 0.0487373 0.0469978
0.201617 0.0437018 0.0509804
0.381506 0.0334936 0.0573587
0.502266 0.0328527 0.0799725
0.538064 0.0348211 0.0983902
0.53608 0.0352789 0.103471
0.51162 0.0382239 0.128237
0.0598917 0.104402 0.0645914
0.0524605 0.103868 0.0616007
0.0985428 0.099855 0.0533455
0.232303 0.067689 0.0498054
0.400305 0.0309758 0.0483558
0.516121 0.0311131 0.0728466
0.545159 0.0339666 0.0873426
0.545464 0.0340429 0.0887312
0.52253 0.0362097 0.108904
0.0657206 0.205463 0.0896925
0.0557565 0.208942 0.0850538
0.0555123 0.207279 0.0633555
0.250645 0.220172 0.0576181
0.505577 0.147448 0.0652934
0.564202 0.0531167 0.0683146
0.555093 0.0346227 0.0749065
0.549126 0.0323949 0.0744488
0.528344 0.0345922 0.0902724
0.0547951 0.411002 0.110918
0.048188 0.418006 0.120897
0.0484321 0.41915 0.0967727
0.0586099 0.420966 0.056733
0.540032 0.506828 0.0822156
0.789578 0.453376 0.157443
0.841581 0.397452 0.186252
0.837369 0.385901 0.181949
0.828122 0.390478 0.192935
0.128862 0.636606 0.340887
0.120104 0.647868 0.367422
0.12134 0.649882 0.357504
0.121798 0.641382 0.295735
0.310933 0.647593 0.196033
0.751003 0.749386 0.284001
0.889418 0.745342 0.40322
0.888731 0.740902 0.3991
0.891615 0.741802 0.395773
0.281254 0.761761 0.542916
0.272374 0.766079 0.557244
0.269581 0.765698 0.553384
0.265873 0.761318 0.53257
0.26688 0.747021 0.46363
0.674372 0.837583 0.560082
0.876188 0.905058 0.642069
0.910216 0.89839 0.65684
0.908583 0.899596 0.661463
0.273167 0.767391 0.567346
0.283055 0.764233 0.550988
0.282002 0.763226 0.544121
0.278248 0.759152 0.521675
0.278202 0.752575 0.481544
0.640375 0.82504 0.555611
0.85951 0.914382 0.699031
0.9028 0.928008 0.754208
0.895216 0.928862 0.766552
0.268605 0.76907 0.575845
0.274067 0.767117 0.565942
0.280171 0.764141 0.548638
0.278126 0.759045 0.521065
0.283009 0.751232 0.470512
0.667018 0.835416 0.572931
0.857404 0.914885 0.706493
0.899245 0.92845 0.759594
0.892683 0.929015 0.770184
0.0460059 0.0547189 0.0655375
0.0627756 0.0532387 0.0668345
0.126223 0.0523537 0.0588846
0.224002 0.0493935 0.0635996
0.389807 0.0365148 0.0724346
0.506081 0.0336919 0.0909285
0.546746 0.0373388 0.112474
0.54786 0.0388647 0.119585
0.524041 0.042771 0.145983
0.0489204 0.0616617 0.0608225
0.0460212 0.0556649 0.0671397
0.101289 0.0545815 0.063508
0.213428 0.0489967 0.0644388
0.395224 0.0349279 0.0685283
0.510842 0.0333562 0.0890516
0.543725 0.0364691 0.107988
0.542824 0.0372473 0.113603
0.518563 0.0406806 0.138949
0.0590219 0.104372 0.0762341
0.0518044 0.103517 0.0821393
0.0915084 0.102296 0.0822003
0.243748 0.0693523 0.0659037
0.416098 0.034638 0.0614786
0.524636 0.0323491 0.0818189
0.549142 0.0346838 0.0958419
0.550561 0.0352026 0.0979171
0.528695 0.0377508 0.119921
0.0667582 0.207401 0.10927
0.0571145 0.210803 0.11194
0.0574807 0.209216 0.0927749
0.256764 0.224796 0.0837873
0.510414 0.144991 0.076936
0.56762 0.0506142 0.0801709
0.560174 0.0354772 0.0818341
0.557198 0.0343633 0.0826429
0.5346 0.035996 0.100649
0.0556344 0.415579 0.142824
0.0488746 0.423575 0.156374
0.0482643 0.42385 0.132036
0.0529335 0.420188 0.067277
0.541833 0.508415 0.0883497
0.792126 0.44654 0.159487
0.841138 0.392966 0.186191
0.836271 0.380056 0.181857
0.827192 0.384131 0.19324
0.130007 0.639094 0.359167
0.121462 0.649836 0.38616
0.122087 0.652338 0.378393
0.120714 0.644602 0.320562
0.282902 0.642634 0.192309
0.751171 0.749157 0.283574
0.889326 0.744488 0.402609
0.887938 0.739239 0.397162
0.889235 0.741192 0.400061
0.281086 0.764309 0.553964
0.272175 0.767117 0.565286
0.269749 0.766232 0.559609
0.264622 0.761364 0.538338
0.264836 0.749126 0.474388
0.663371 0.8327 0.552422
0.875746 0.903655 0.636942
0.910918 0.895521 0.64976
0.909117 0.896391 0.654871
0.27306 0.76878 0.575753
0.276204 0.767498 0.568811
0.283223 0.764385 0.552239
0.28014 0.761227 0.532815
0.278309 0.753429 0.487251
0.624933 0.819577 0.545602
0.856565 0.913405 0.697475
0.9028 0.928008 0.754208
0.895216 0.928862 0.766552
0.269627 0.770153 0.583261
0.269383 0.769802 0.580896
0.281498 0.765408 0.557717
0.280217 0.761318 0.533272
0.281025 0.752377 0.478645
0.647166 0.827756 0.559625
0.853117 0.913481 0.703655
0.899245 0.92845 0.759594
0.892134 0.929046 0.770855
0.0438544 0.06804 0.103288
0.0546426 0.0656138 0.113832
0.124376 0.0614328 0.112367
0.24097 0.0577096 0.0942245
0.405982 0.0435035 0.0955367
0.522667 0.0388952 0.114351
0.566995 0.0450141 0.139773
0.567803 0.0473182 0.14818
0.545556 0.0526284 0.178698
0.0444953 0.07364 0.103502
0.0434882 0.0697948 0.110353
0.0920119 0.06215 0.129946
0.234516 0.0600137 0.103838
0.416037 0.0422217 0.0943008
0.530602 0.0387274 0.115785
0.565744 0.0442817 0.13814
0.566247 0.0462196 0.145708
0.543313 0.0514839 0.175174
0.0516213 0.110475 0.111513
0.0460059 0.105913 0.127291
0.0589456 0.0999161 0.142428
0.242435 0.0765698 0.117784
0.434745 0.0403754 0.0867323
0.547005 0.0376287 0.107973
0.573205 0.0421912 0.123323
0.575219 0.0432898 0.128771
0.553246 0.0474556 0.154742
0.0631266 0.205463 0.150332
0.0548257 0.208576 0.163394
0.0546578 0.207996 0.163806
0.23505 0.240635 0.212604
0.535454 0.158831 0.159731
0.612192 0.0684367 0.129854
0.580484 0.0408331 0.110735
0.580072 0.0411536 0.114122
0.557366 0.0438392 0.137209
0.0589456 0.427466 0.220493
0.0509499 0.436301 0.245533
0.0505379 0.438483 0.233341
0.0581674 0.436866 0.178225
0.550195 0.51606 0.208972
0.803845 0.439445 0.22475
0.862287 0.376516 0.247425
0.859983 0.358984 0.248585
0.851591 0.362493 0.262959
0.136858 0.641215 0.393561
0.123537 0.65272 0.427054
0.124361 0.656077 0.423667
0.121523 0.652262 0.388418
0.24831 0.644251 0.274281
0.753384 0.753597 0.360876
0.89189 0.73521 0.455024
0.892226 0.725887 0.446342
0.891814 0.727291 0.452735
0.281056 0.764904 0.566979
0.266865 0.767681 0.581308
0.268177 0.766186 0.573175
0.264912 0.762798 0.556374
0.264179 0.754025 0.503334
0.655818 0.830076 0.567025
0.877562 0.902296 0.649134
0.912963 0.895537 0.670909
0.911131 0.896071 0.677897
0.275685 0.77084 0.591501
0.27158 0.771466 0.59382
0.282811 0.768338 0.576394
0.283848 0.764981 0.555749
0.281758 0.758968 0.514061
0.611536 0.819867 0.568276
0.859281 0.915831 0.732616
0.903548 0.932204 0.788128
0.896269 0.932952 0.80145
0.275578 0.771603 0.597681
0.272084 0.772045 0.599069
0.27483 0.770748 0.590478
0.284291 0.765515 0.558892
0.283406 0.759854 0.515801
0.63238 0.827863 0.588769
0.855222 0.91606 0.745602
0.901015 0.933104 0.799588
0.894484 0.933623 0.810391
0.0413214 0.0888533 0.180362
0.0446021 0.0869612 0.198093
0.0677501 0.0805524 0.226535
0.259419 0.0645609 0.225177
0.42742 0.0624247 0.208469
0.553246 0.059144 0.206577
0.608057 0.0739147 0.226398
0.613397 0.0802472 0.241505
0.59266 0.0891432 0.277378
0.0413062 0.0943618 0.188937
0.0412604 0.0927901 0.200397
0.0489357 0.0876478 0.228351
0.242924 0.0657054 0.257069
0.440162 0.0644846 0.221347
0.564874 0.0612039 0.214481
0.611887 0.0772412 0.233845
0.614221 0.0822919 0.248676
0.592111 0.0917983 0.286168
0.0423285 0.113054 0.196033
0.0414893 0.106111 0.214557
0.0417334 0.0988174 0.226307
0.210727 0.0678874 0.288518
0.456886 0.0652476 0.228443
0.591165 0.0606394 0.203403
0.629404 0.075639 0.22002
0.631418 0.0800031 0.234043
0.60705 0.0895094 0.27335
0.0429694 0.199359 0.237339
0.042298 0.195789 0.256825
0.0422522 0.187778 0.265141
0.116182 0.195605 0.339727
0.527947 0.17908 0.355093
0.637476 0.0957961 0.236957
0.628397 0.0736858 0.213107
0.631403 0.0767681 0.221683
0.611978 0.0839857 0.25478
0.0586557 0.42565 0.326085
0.05066 0.430396 0.3523
0.0504463 0.434073 0.357778
0.0538186 0.436561 0.362997
0.527794 0.531014 0.495735
0.830991 0.43151 0.431785
0.893828 0.358999 0.432654
0.890181 0.345052 0.43679
0.8813 0.349783 0.453681
0.140566 0.642618 0.459236
0.123445 0.651591 0.48893
0.124681 0.655619 0.490318
0.123522 0.654459 0.476005
0.283436 0.66981 0.451164
0.750286 0.754803 0.53431
0.892592 0.704921 0.521523
0.89485 0.695628 0.515206
0.891112 0.699275 0.529397
0.277745 0.763531 0.591562
0.26334 0.766445 0.605951
0.261784 0.766522 0.605158
0.264118 0.764599 0.590921
0.26006 0.759365 0.558343
0.655879 0.834455 0.632105
0.877928 0.903883 0.719738
0.909102 0.905623 0.750072
0.907439 0.906111 0.756649
0.287114 0.771908 0.614298
0.275471 0.773434 0.623606
0.273533 0.773617 0.622324
0.282933 0.771389 0.602975
0.289158 0.768841 0.572839
0.648173 0.845243 0.655329
0.875944 0.925475 0.819333
0.908431 0.940764 0.857847
0.900923 0.940948 0.866957
0.27985 0.773053 0.628107
0.276219 0.773434 0.630488
0.274098 0.773663 0.628885
0.281483 0.772045 0.609461
0.291676 0.770779 0.57879
0.665904 0.853407 0.678141
0.873808 0.926513 0.830625
0.907362 0.94081 0.86096
0.901274 0.941619 0.872663
0.0418555 0.115663 0.287907
0.0419623 0.114946 0.304494
0.0431983 0.111742 0.32578
0.103319 0.0908827 0.378653
0.435386 0.0886702 0.380423
0.611139 0.119493 0.386313
0.657755 0.129244 0.380774
0.66627 0.134325 0.392996
0.646525 0.146731 0.434607
0.0417334 0.120638 0.297642
0.0417945 0.120943 0.304707
0.041886 0.119478 0.322545
0.0866712 0.105394 0.379049
0.442695 0.0949416 0.404685
0.631098 0.129335 0.408331
0.6636 0.135912 0.39823
0.666758 0.142443 0.417319
0.646372 0.153445 0.456687
0.041825 0.1299 0.297429
0.041825 0.126696 0.314931
0.041825 0.126619 0.319356
0.0640269 0.115114 0.381826
0.444358 0.101335 0.431312
0.659022 0.134035 0.41236
0.680766 0.133425 0.389548
0.681926 0.137285 0.404868
0.662089 0.15079 0.44918
0.0422827 0.182254 0.325597
0.0423133 0.17792 0.342367
0.0422675 0.172213 0.348638
0.0446021 0.169299 0.388403
0.45417 0.152712 0.508125
0.677989 0.156024 0.452598
0.685084 0.136248 0.394064
0.690196 0.13991 0.406409
0.671946 0.149996 0.440742
0.0443427 0.410513 0.411246
0.0440833 0.412573 0.434592
0.0440681 0.412619 0.441428
0.0437476 0.397543 0.446525
0.366964 0.466972 0.624903
0.829496 0.477409 0.668025
0.915389 0.408865 0.618479
0.915572 0.397116 0.617761
0.897658 0.408484 0.641398
0.133959 0.630686 0.531975
0.116869 0.6383 0.558511
0.117662 0.641321 0.563058
0.116258 0.639735 0.562219
0.241291 0.663981 0.593286
0.739422 0.755093 0.718746
0.902541 0.70457 0.679072
0.912764 0.692073 0.679484
0.909194 0.695796 0.691234
0.272068 0.757183 0.629038
0.258854 0.759884 0.642374
0.257252 0.760327 0.642908
0.253544 0.758236 0.636225
0.25069 0.753826 0.615076
0.682429 0.851881 0.734234
0.876112 0.901228 0.802228
0.906828 0.909468 0.825788
0.905394 0.909239 0.829465
0.298192 0.771099 0.650416
0.280247 0.772305 0.663203
0.278202 0.77258 0.662699
0.277684 0.772824 0.655802
0.289708 0.774212 0.634852
0.620539 0.858274 0.726329
0.885649 0.932387 0.86746
0.918898 0.946532 0.892943
0.91519 0.947997 0.900832
0.284916 0.77174 0.668574
0.28159 0.771984 0.670878
0.279515 0.772213 0.669871
0.278264 0.772564 0.661677
0.290181 0.774563 0.640833
0.64033 0.864759 0.741329
0.884794 0.933394 0.872328
0.913436 0.94638 0.897261
0.911238 0.950393 0.909468
0.042359 0.153658 0.378073
0.0423285 0.155932 0.385214
0.0423896 0.156634 0.393515
0.0485695 0.158038 0.442603
0.277989 0.141344 0.549065
0.696132 0.21973 0.631968
0.793179 0.260304 0.663798
0.819348 0.287114 0.701656
0.816571 0.311025 0.730648
0.042359 0.158495 0.38883
0.0423896 0.160372 0.393927
0.0423896 0.164324 0.399725
0.0439307 0.168688 0.44509
0.272923 0.156146 0.570825
0.725261 0.240833 0.664149
0.811399 0.28333 0.696376
0.826612 0.311131 0.731838
0.823117 0.33312 0.755795
0.0423438 0.165103 0.394598
0.0424201 0.166506 0.403189
0.0424506 0.168902 0.405768
0.0427253 0.178347 0.439597
0.261616 0.169009 0.588434
0.748302 0.261677 0.693523
0.836957 0.297047 0.715419
0.848417 0.320333 0.743954
0.838636 0.342336 0.766949
0.0427253 0.195117 0.39968
0.0427405 0.195743 0.410834
0.0426184 0.196979 0.418036
0.0426642 0.197757 0.425208
0.223362 0.209567 0.575235
0.745266 0.272419 0.710628
0.83534 0.294926 0.712612
0.847044 0.305821 0.726665
0.831891 0.323491 0.746075
0.0437476 0.399939 0.492668
0.0437324 0.40351 0.505867
0.0438697 0.403754 0.512261
0.0442054 0.394049 0.51957
0.180148 0.443702 0.654002
0.799466 0.497826 0.841764
0.927947 0.488685 0.812177
0.928176 0.479423 0.810162
0.910109 0.489494 0.819089
0.103761 0.612055 0.585931
0.0937209 0.617166 0.601862
0.094789 0.618143 0.604807
0.0865339 0.612985 0.606287
0.129412 0.631449 0.649012
0.654612 0.717052 0.803449
0.898283 0.734035 0.820066
0.911864 0.724865 0.817639
0.90721 0.729305 0.823835
0.26717 0.742885 0.659739
0.247929 0.746578 0.674846
0.247242 0.746792 0.675868
0.243854 0.743801 0.673609
0.235096 0.736889 0.667094
0.652323 0.847807 0.797223
0.869108 0.900236 0.865171
0.906401 0.902724 0.867857
0.906004 0.902113 0.8692
0.301198 0.768322 0.689219
0.284855 0.769726 0.699062
0.283894 0.769909 0.698955
0.283574 0.770413 0.695277
0.283833 0.771862 0.68484
0.495918 0.836713 0.741527
0.885237 0.935821 0.888121
0.915846 0.946578 0.902129
0.916152 0.948074 0.905852
0.289311 0.7682 0.703212
0.285054 0.768582 0.704616
0.283619 0.769039 0.704128
0.283879 0.769894 0.699046
0.283909 0.771572 0.687129
0.504616 0.838621 0.747662
0.885374 0.93901 0.894347
0.914031 0.950729 0.912688
0.912352 0.951537 0.915175
0.0432288 0.242115 0.461875
0.0433661 0.246479 0.466911
0.0435035 0.252796 0.47219
0.0436408 0.265263 0.482795
0.14818 0.320592 0.631937
0.629084 0.376867 0.818921
0.869535 0.440055 0.854078
0.871458 0.442771 0.856153
0.870695 0.443015 0.856092
0.0433814 0.24654 0.46569
0.0432593 0.247776 0.467521
0.043473 0.256641 0.474189
0.0439307 0.277745 0.490578
0.152544 0.338354 0.64387
0.66775 0.401297 0.837964
0.869932 0.443259 0.856001
0.869734 0.443336 0.855985
0.866377 0.444358 0.855985
0.043473 0.25272 0.469291
0.0435035 0.253086 0.471153
0.0435035 0.253697 0.471427
0.0437934 0.280812 0.491753
0.157748 0.3411 0.647608
0.711345 0.408713 0.848356
0.872343 0.442496 0.856199
0.872602 0.44242 0.856229
0.86833 0.443763 0.85597
0.0435798 0.262638 0.470466
0.0437018 0.272984 0.479576
0.0439307 0.277653 0.484398
0.0439307 0.277302 0.487648
0.119509 0.34255 0.631525
0.689693 0.405844 0.843915
0.873472 0.442145 0.856245
0.874983 0.441688 0.856184
0.869337 0.443442 0.85597
0.0444648 0.418616 0.5458
0.0445106 0.424964 0.553704
0.0445869 0.431022 0.560739
0.0450904 0.438437 0.571557
0.079942 0.480278 0.651041
0.547158 0.494224 0.816464
0.906065 0.562905 0.891234
0.909194 0.555123 0.889235
0.899275 0.558602 0.888518
0.0897231 0.60853 0.624262
0.0889601 0.611963 0.630579
0.0894789 0.61326 0.633051
0.0882887 0.608621 0.637217
0.097322 0.606775 0.653483
0.539391 0.68603 0.805035
0.879881 0.749859 0.891203
0.905455 0.748745 0.885756
0.903395 0.751019 0.88629
0.237003 0.732006 0.683253
0.229831 0.735027 0.691035
0.22916 0.734951 0.691722
0.222232 0.730694 0.690578
0.202029 0.718395 0.685389
0.570077 0.816815 0.804456
0.854261 0.894301 0.886168
0.909255 0.903761 0.886809
0.908141 0.9037 0.888182
0.290654 0.76408 0.7093
0.278325 0.765576 0.715618
0.278614 0.765805 0.715114
0.279789 0.76614 0.71339
0.282704 0.767849 0.709773
0.370962 0.803449 0.73785
0.869825 0.931762 0.894194
0.911116 0.947051 0.90866
0.91426 0.947738 0.909239
0.280003 0.765301 0.714672
0.278553 0.765499 0.715526
0.277852 0.765606 0.715877
0.278309 0.765713 0.715465
0.282414 0.767575 0.709789
0.395865 0.811521 0.745251
0.868269 0.934768 0.894957
0.911376 0.951644 0.916014
0.911437 0.951736 0.916075
0.0435035 0.253727 0.470726
0.043534 0.255329 0.472602
0.0437018 0.268086 0.482979
0.0440375 0.28455 0.494682
0.134493 0.339712 0.637552
0.609705 0.388022 0.82089
0.869627 0.443351 0.85597
0.870176 0.443183 0.856031
0.869673 0.443351 0.85597
0.0435035 0.253727 0.470756
0.0435035 0.253697 0.471427
0.0435492 0.26099 0.477363
0.0439155 0.283528 0.493767
0.15288 0.341299 0.646281
0.678981 0.403403 0.84094
0.869917 0.443259 0.855985
0.869703 0.443336 0.855985
0.866316 0.444373 0.855985
0.043534 0.255787 0.471366
0.0435035 0.253697 0.471427
0.0435035 0.253697 0.471427
0.0437934 0.280583 0.491569
0.15877 0.341176 0.648112
0.716609 0.409644 0.849378
0.871672 0.44271 0.856168
0.872145 0.442557 0.856184
0.868269 0.443778 0.855955
0.0442054 0.300008 0.497002
0.0441291 0.291814 0.493202
0.0438087 0.280552 0.486656
0.0437476 0.275074 0.485893
0.118166 0.340124 0.629908
0.693202 0.406363 0.844709
0.87332 0.442191 0.856245
0.874815 0.441733 0.856184
0.869307 0.443473 0.85597
0.0453956 0.449805 0.575006
0.045182 0.45272 0.578149
0.0451362 0.451133 0.577752
0.0449836 0.437675 0.571374
0.0764172 0.47715 0.647288
0.543252 0.491615 0.81532
0.907835 0.560265 0.891218
0.908522 0.554437 0.889662
0.898634 0.558419 0.888869
0.0937972 0.610483 0.639933
0.0933242 0.615228 0.646052
0.0948196 0.617334 0.648814
0.0910353 0.611505 0.646906
0.0961624 0.605707 0.654231
0.528374 0.684581 0.803601
0.870848 0.751797 0.894621
0.902052 0.750896 0.891417
0.900862 0.753368 0.891966
0.22771 0.729351 0.692058
0.221805 0.732647 0.69836
0.221088 0.732509 0.698421
0.211841 0.727443 0.69572
0.19295 0.714458 0.690349
0.523644 0.799466 0.798566
0.837247 0.886824 0.887312
0.908293 0.902403 0.892836
0.906172 0.902998 0.89514
0.287419 0.764401 0.710887
0.278202 0.765545 0.715709
0.277867 0.765606 0.715877
0.277867 0.765606 0.715877
0.278111 0.765728 0.715969
0.348837 0.79501 0.74316
0.84921 0.924147 0.892943
0.911223 0.945113 0.906935
0.915343 0.947478 0.908629
0.279713 0.765332 0.714855
0.278462 0.765515 0.715572
0.277852 0.765606 0.715877
0.277852 0.765606 0.715877
0.278065 0.765698 0.715953
0.361685 0.800504 0.74667
0.844007 0.928267 0.891569
0.909682 0.951843 0.916854
0.911025 0.951827 0.916411
