luts/phantom/Eastman V-Log Legacy.cube
TITLE "Generated by Resolve"
LUT_3D_SIZE 33
0.0449836 0.0390021 0.043183
0.0449836 0.0390021 0.0431983
0.0450294 0.0390021 0.043183
0.0509804 0.0390021 0.0444038
0.0585641 0.0390021 0.0458381
0.0685435 0.0400549 0.0474403
0.0791028 0.0409247 0.0482185
0.0910353 0.0414588 0.0489509
0.105913 0.0417945 0.0497139
0.124483 0.0413367 0.0487831
0.148028 0.0412299 0.0485695
0.176837 0.0417334 0.0477913
0.211185 0.0421912 0.0450599
0.248814 0.0426947 0.0415045
0.285573 0.0423285 0.0390021
0.320211 0.042237 0.0390021
0.350286 0.0407568 0.0390021
0.376226 0.0413519 0.0400244
0.399039 0.0433509 0.0416114
0.421546 0.0459297 0.0437934
0.444022 0.0491798 0.0460059
0.465293 0.0518196 0.0486305
0.487572 0.0535592 0.0518654
0.497292 0.053254 0.0543221
0.501152 0.0515602 0.0558328
0.501152 0.0503853 0.0560311
0.501366 0.0489967 0.0564736
0.500832 0.0480964 0.0567941
0.499733 0.047303 0.0570535
0.496635 0.0473335 0.0570687
0.491814 0.047776 0.057084
0.483177 0.0495308 0.057023
0.47396 0.0516976 0.0567788
0.0470588 0.0390021 0.0426032
0.0457465 0.0390021 0.0429999
0.0449989 0.0390021 0.043183
0.0484321 0.0390021 0.0437781
0.0557565 0.0390021 0.045243
0.0648051 0.039292 0.0466926
0.074815 0.0404517 0.0476539
0.0876478 0.0410773 0.0483558
0.102663 0.0415503 0.0492866
0.12047 0.0415656 0.0488746
0.144198 0.0415351 0.0483558
0.17261 0.0418097 0.046952
0.206928 0.0424506 0.0442664
0.245014 0.043061 0.0408179
0.282185 0.0430152 0.0390021
0.316472 0.0433814 0.0390021
0.346487 0.0423438 0.0390021
0.37348 0.0418555 0.0390021
0.396963 0.0425574 0.0399939
0.41883 0.0453803 0.0421302
0.440986 0.0488289 0.0446021
0.462638 0.0524147 0.0473945
0.486137 0.0556191 0.0514839
0.495995 0.0551766 0.053315
0.499763 0.0539712 0.0546426
0.500175 0.0531167 0.0553902
0.50045 0.0518502 0.0557717
0.500023 0.0509957 0.0559548
0.499123 0.0501411 0.0561227
0.496056 0.0500191 0.0562448
0.491508 0.0506752 0.0564736
0.482521 0.0526131 0.0560464
0.473136 0.0547494 0.0556802
0.0470588 0.0390021 0.0426032
0.0457465 0.0390021 0.0429999
0.0449836 0.0390021 0.043183
0.0459297 0.0390021 0.0434119
0.052903 0.0390021 0.045304
0.0603952 0.0397803 0.0466621
0.0701915 0.0411841 0.0478523
0.0829938 0.0420844 0.0486152
0.0992294 0.042298 0.0495613
0.118105 0.0419623 0.0493019
0.14226 0.0417334 0.0484169
0.170642 0.0420691 0.0469673
0.206195 0.0426337 0.0440681
0.244892 0.0433204 0.0406195
0.282399 0.0431983 0.0390021
0.316289 0.0437629 0.0390021
0.345937 0.0432288 0.0390021
0.372091 0.04271 0.0390021
0.394903 0.0431067 0.0390021
0.417746 0.0454719 0.0411841
0.439338 0.0483406 0.043595
0.46186 0.0528115 0.0462806
0.485832 0.0577249 0.0512245
0.495369 0.057084 0.0526589
0.498573 0.0560616 0.0537575
0.498695 0.0550546 0.0539712
0.499199 0.0541085 0.054612
0.499229 0.0534676 0.0552529
0.498436 0.0527199 0.0555428
0.495552 0.0527352 0.0554513
0.490791 0.053315 0.0554208
0.482048 0.0551766 0.0551766
0.472511 0.0573587 0.0547494
0.0478676 0.0390021 0.0434577
0.0464485 0.0390021 0.0438392
0.0458534 0.0390021 0.0439918
0.0462959 0.0390021 0.0438239
0.0508125 0.0390021 0.0452888
0.0570993 0.0412757 0.0469368
0.065095 0.0427253 0.0479896
0.0773632 0.0435645 0.0492256
0.0944533 0.0439002 0.0501717
0.114183 0.043183 0.0502632
0.138842 0.0434119 0.0494392
0.16878 0.0427863 0.0472877
0.205524 0.0431067 0.0441291
0.245151 0.0436408 0.040589
0.282841 0.0433661 0.0390021
0.317372 0.0437781 0.0390021
0.346777 0.0435798 0.0390021
0.372229 0.0431525 0.0390021
0.394949 0.043595 0.0390021
0.416403 0.0457618 0.0402991
0.438483 0.0481575 0.0427253
0.461418 0.0528573 0.045243
0.48336 0.0573739 0.0495613
0.494667 0.0583047 0.0520638
0.497871 0.0582284 0.0532387
0.498009 0.0571603 0.0534524
0.498177 0.0561227 0.0537423
0.497932 0.0553292 0.0539254
0.497459 0.0547646 0.0542916
0.494942 0.0550088 0.0546273
0.490745 0.0556649 0.054902
0.481865 0.0576028 0.0544747
0.47187 0.0599985 0.0537423
0.052491 0.0462043 0.0493172
0.0505531 0.0456855 0.0488136
0.0496376 0.0447852 0.0484016
0.0506142 0.0435645 0.0475929
0.0525216 0.0432136 0.047364
0.0575875 0.0453346 0.0486763
0.0639048 0.0466621 0.0497292
0.0752575 0.0474556 0.0508888
0.0911727 0.0476997 0.0517586
0.111376 0.0459602 0.0515145
0.134997 0.0453803 0.0510109
0.16672 0.0440986 0.0484627
0.204654 0.0440528 0.04477
0.2448 0.0441596 0.0405432
0.283482 0.0437934 0.0390021
0.318166 0.0439002 0.0390021
0.34786 0.0439002 0.0390021
0.372992 0.0435798 0.0390021
0.395407 0.0439918 0.0390021
0.416938 0.0458991 0.0397955
0.439048 0.0484169 0.0421607
0.461189 0.0525826 0.0444038
0.481056 0.0568093 0.047837
0.494224 0.06009 0.0515755
0.496895 0.0600748 0.0525826
0.497154 0.0592508 0.0529335
0.497337 0.0582589 0.0532235
0.497215 0.0574044 0.0534218
0.496788 0.056672 0.0535592
0.493919 0.0568551 0.0535897
0.489723 0.0574197 0.0536049
0.48098 0.0596323 0.0531777
0.471244 0.062211 0.0530251
0.056611 0.055787 0.0544747
0.0537728 0.0549477 0.0532235
0.0527504 0.0541543 0.0530098
0.0543221 0.0528573 0.0523079
0.0565042 0.0522011 0.0517433
0.0613718 0.0528725 0.0518196
0.0680858 0.0544594 0.053193
0.0786603 0.0551156 0.0544747
0.0938735 0.0550546 0.0557717
0.112505 0.0523995 0.0552682
0.136599 0.0505379 0.0536355
0.166934 0.0482185 0.0501869
0.204211 0.0456092 0.0452125
0.245136 0.0451972 0.0403296
0.284138 0.0448005 0.0390021
0.318624 0.0442054 0.0390021
0.348791 0.0443885 0.0390021
0.373587 0.0439765 0.0390021
0.396307 0.0444953 0.0390021
0.418036 0.0462196 0.0397803
0.439963 0.0489815 0.0419928
0.46096 0.0525216 0.0438849
0.478981 0.0563821 0.0464332
0.493446 0.0610666 0.0510414
0.494606 0.0611582 0.0516823
0.495506 0.060914 0.0521096
0.496101 0.0603799 0.05243
0.496162 0.0599069 0.0526741
0.49572 0.0592966 0.052842
0.492897 0.0594644 0.052842
0.488853 0.0600748 0.0526589
0.48011 0.0621042 0.0523232
0.470375 0.0644846 0.0520027
0.0607156 0.0669413 0.0591135
0.0576638 0.066331 0.0582589
0.0563211 0.0653697 0.0579995
0.057557 0.0640726 0.0574044
0.0602121 0.0626993 0.0566873
0.0637827 0.063386 0.0568551
0.0723735 0.06392 0.0564431
0.0835584 0.0652628 0.0576486
0.0987564 0.065156 0.0590982
0.116945 0.0627756 0.059144
0.141115 0.059205 0.057847
0.17145 0.0563516 0.0533608
0.209781 0.0531319 0.0467994
0.248569 0.0484779 0.0398413
0.286687 0.0466163 0.0390021
0.320333 0.0450294 0.0390021
0.350088 0.0444648 0.0390021
0.374838 0.0441291 0.0390021
0.397925 0.0448463 0.0390021
0.420142 0.0465858 0.0400397
0.441489 0.049546 0.0421912
0.461952 0.052842 0.0438697
0.479011 0.0566567 0.0462654
0.491035 0.0602274 0.0497444
0.492119 0.0608225 0.0505074
0.493156 0.0612192 0.0513161
0.494072 0.0612497 0.0518349
0.49456 0.0610666 0.0522011
0.494453 0.0608988 0.052369
0.492805 0.0611276 0.0523995
0.490089 0.0615091 0.0523842
0.484642 0.0627604 0.0522164
0.478508 0.0642863 0.0519265
0.0674296 0.0783398 0.0625315
0.0634775 0.0782788 0.0616159
0.0606546 0.0779889 0.0616617
0.0605325 0.0775006 0.0619821
0.0629435 0.0765698 0.0616465
0.066804 0.076051 0.0612345
0.0727092 0.0772259 0.0611887
0.0865644 0.0776989 0.0599527
0.101747 0.0776379 0.0609445
0.121675 0.0759594 0.0621958
0.148119 0.0702983 0.0611582
0.183215 0.065507 0.0570077
0.220874 0.0618143 0.0497139
0.260456 0.0591135 0.0426184
0.294942 0.0521859 0.0390021
0.324422 0.048661 0.0390021
0.350851 0.0459297 0.0390021
0.375555 0.0453346 0.0390021
0.398718 0.0456855 0.0390021
0.420752 0.0473335 0.0401923
0.441779 0.0499733 0.0421149
0.46215 0.0534524 0.043946
0.478859 0.0576486 0.0466163
0.488792 0.060441 0.0492103
0.48925 0.0608072 0.0496071
0.490211 0.0612802 0.0502785
0.491249 0.0617075 0.0510414
0.491951 0.0619516 0.051545
0.492164 0.0618906 0.0518502
0.490929 0.0620584 0.0519875
0.488869 0.062501 0.0520485
0.483894 0.063859 0.0518807
0.478126 0.0654612 0.051667
0.0705577 0.092134 0.0669261
0.0666056 0.0923171 0.0658274
0.0632639 0.0923629 0.0655528
0.0616922 0.0920424 0.0652628
0.0634165 0.0916762 0.0652018
0.0674754 0.0911879 0.0649271
0.0741741 0.0911574 0.0649119
0.0838026 0.0927901 0.0648814
0.102464 0.0922408 0.0622568
0.125261 0.0917372 0.0637827
0.155276 0.0870069 0.0647746
0.195575 0.079118 0.0617075
0.237919 0.073518 0.0543832
0.2757 0.070222 0.0468757
0.308949 0.0670939 0.0411688
0.336278 0.058793 0.0390021
0.359136 0.0537881 0.0390021
0.37969 0.0508583 0.0390021
0.399695 0.0486152 0.0390021
0.420676 0.0490883 0.0400549
0.441352 0.0506905 0.0416571
0.462364 0.0542306 0.043946
0.479683 0.0586709 0.0468605
0.486809 0.0606394 0.0487526
0.486686 0.0607004 0.0487678
0.486915 0.0608377 0.0489509
0.487709 0.0611276 0.049424
0.488579 0.0615854 0.0499733
0.489189 0.0623331 0.0507057
0.488655 0.0630198 0.051194
0.486961 0.0637675 0.0513924
0.482673 0.0651408 0.0513771
0.477256 0.0666667 0.0509499
0.0742046 0.109834 0.0720378
0.0697032 0.110048 0.0705577
0.0657359 0.110613 0.069276
0.063798 0.110536 0.0691691
0.0632944 0.11043 0.0686046
0.0663462 0.109972 0.068513
0.0721599 0.10985 0.0682383
0.0843977 0.111025 0.0690623
0.098909 0.113237 0.0690166
0.125322 0.113436 0.0667277
0.16112 0.110216 0.0677195
0.205432 0.101045 0.0689403
0.253178 0.0924849 0.0626383
0.297017 0.0875257 0.0548714
0.329809 0.0849317 0.0485542
0.356909 0.0820478 0.044358
0.376944 0.0755016 0.0423285
0.39295 0.0665446 0.0399176
0.409644 0.0607462 0.0397192
0.426871 0.0570687 0.0406348
0.445472 0.0559701 0.0423896
0.465446 0.0573587 0.0437476
0.482506 0.0611429 0.0463874
0.487404 0.0614633 0.0480049
0.486748 0.061326 0.0481422
0.486503 0.0611582 0.0481575
0.486213 0.0611734 0.0484474
0.486015 0.0612345 0.0486305
0.485634 0.0613718 0.0488746
0.484352 0.0617075 0.0489052
0.482826 0.0623331 0.0489662
0.478813 0.0638285 0.0489357
0.474067 0.0655375 0.0487678
0.0780346 0.135088 0.0793622
0.0735637 0.134737 0.0765698
0.0684215 0.135088 0.0753033
0.0660716 0.135637 0.07393
0.0650187 0.135958 0.0734722
0.0651865 0.13576 0.0726177
0.0684215 0.135576 0.0721752
0.0780804 0.136385 0.0722667
0.0980697 0.140154 0.0750896
0.118883 0.143587 0.0756695
0.156481 0.142443 0.0717479
0.212726 0.135302 0.0732586
0.266896 0.123842 0.0749371
0.317235 0.115175 0.0684367
0.357366 0.109133 0.0609598
0.38674 0.107851 0.0569467
0.406439 0.105043 0.0530098
0.422522 0.10161 0.0511635
0.436179 0.0958572 0.0487678
0.447303 0.0810254 0.0440528
0.463416 0.0746014 0.0440528
0.480018 0.0716106 0.0452583
0.494896 0.0722057 0.0472419
0.497124 0.0702983 0.0475929
0.494331 0.0682689 0.0470893
0.494285 0.0683909 0.047303
0.492302 0.066743 0.0478828
0.489723 0.0650339 0.0476844
0.488228 0.06421 0.0475166
0.486763 0.0641031 0.0474861
0.48484 0.0640726 0.047425
0.481041 0.0649729 0.0470741
0.475517 0.0662852 0.0465553
0.0797742 0.168643 0.0860304
0.0751965 0.168414 0.083299
0.0707103 0.168994 0.0819409
0.0678111 0.169726 0.0801862
0.0660258 0.170504 0.0782025
0.0656596 0.170779 0.0772564
0.0656901 0.170794 0.0762951
0.0687877 0.170489 0.0749981
0.0834974 0.173556 0.0755474
0.11368 0.180957 0.0812543
0.145281 0.187457 0.0842603
0.20441 0.186435 0.0798047
0.277836 0.1785 0.0826581
0.33637 0.166476 0.085481
0.386053 0.155169 0.0832685
0.424949 0.146441 0.0787976
0.451362 0.14313 0.0763409
0.470268 0.140505 0.0743877
0.485725 0.137118 0.0721141
0.49865 0.133471 0.0698711
0.503105 0.121019 0.0610971
0.508705 0.105745 0.0522469
0.521019 0.0979934 0.0513161
0.52105 0.0940261 0.0503243
0.519585 0.0912795 0.0500191
0.516701 0.0898756 0.0497444
0.51342 0.0863813 0.0493782
0.510903 0.0837873 0.0492103
0.507057 0.0809644 0.0485542
0.506096 0.0802777 0.0485389
0.503609 0.0789044 0.0480964
0.498833 0.0791028 0.0476539
0.493446 0.0802625 0.0472572
0.0852827 0.213062 0.0978256
0.0803845 0.212757 0.0948806
0.075349 0.213016 0.0923781
0.0720378 0.213626 0.090898
0.0702831 0.21503 0.0897688
0.0699016 0.216571 0.0878004
0.0693217 0.217548 0.0856794
0.0694285 0.217365 0.0848249
0.0739147 0.216373 0.081239
0.0965286 0.223224 0.0833753
0.140032 0.237324 0.0938125
0.1897 0.248676 0.0996262
0.270726 0.248142 0.0925765
0.351049 0.241154 0.0953841
0.40734 0.230426 0.0988327
0.455146 0.213092 0.104387
0.497505 0.204501 0.104509
0.525216 0.196094 0.104662
0.546517 0.192126 0.105501
0.565332 0.188693 0.106203
0.583444 0.182712 0.104097
0.588678 0.171679 0.0978561
0.58735 0.161074 0.0915694
0.573281 0.145205 0.0766766
0.565759 0.136416 0.0698863
0.562799 0.133425 0.0690166
0.561608 0.132067 0.0695354
0.558007 0.128878 0.0675517
0.556573 0.127474 0.0673838
0.553613 0.125963 0.0667277
0.548501 0.122866 0.0639506
0.541314 0.121172 0.0615396
0.533333 0.120851 0.0595865
0.0958114 0.266117 0.115129
0.0910658 0.265675 0.112047
0.0860456 0.266011 0.109529
0.0827649 0.266484 0.107225
0.0801862 0.268284 0.106172
0.0793774 0.270344 0.10576
0.0783551 0.272068 0.10367
0.0775158 0.272648 0.100542
0.0779431 0.272038 0.0994888
0.0842756 0.271046 0.0918441
0.119005 0.28368 0.0953384
0.178256 0.302052 0.109117
0.250858 0.317082 0.1131
0.342626 0.314855 0.102815
0.421744 0.307057 0.106218
0.476249 0.298039 0.109316
0.521706 0.284443 0.116381
0.565103 0.269169 0.127703
0.59498 0.254795 0.127321
0.619959 0.247288 0.129122
0.64445 0.244816 0.129168
0.664805 0.238163 0.129091
0.67747 0.23151 0.129793
0.680446 0.22388 0.12958
0.676478 0.218875 0.128573
0.671336 0.214588 0.126726
0.665034 0.210056 0.125246
0.660243 0.20647 0.123522
0.656245 0.20354 0.122103
0.649485 0.199207 0.11899
0.643717 0.196887 0.117693
0.63595 0.195499 0.115648
0.628351 0.195773 0.114656
0.10251 0.320592 0.133074
0.0978866 0.319951 0.130526
0.0931106 0.320302 0.128405
0.090013 0.321141 0.12639
0.0872663 0.322148 0.12459
0.0860609 0.32343 0.123491
0.0855116 0.324895 0.122164
0.0849775 0.326619 0.120027
0.0843977 0.327321 0.116625
0.0848554 0.325597 0.113603
0.0978256 0.32723 0.102159
0.147585 0.34403 0.105974
0.227939 0.366522 0.119158
0.318441 0.383856 0.120714
0.409522 0.379522 0.110185
0.486229 0.37174 0.114595
0.538506 0.364981 0.119356
0.580743 0.354238 0.126833
0.622141 0.33901 0.138857
0.657694 0.316182 0.148348
0.690013 0.307698 0.150942
0.714473 0.300496 0.150958
0.734279 0.294743 0.151659
0.747555 0.290517 0.152163
0.746365 0.287572 0.151247
0.744259 0.285954 0.150546
0.742199 0.283345 0.149615
0.739727 0.280552 0.148653
0.737774 0.27863 0.148165
0.735027 0.276478 0.147189
0.731548 0.274357 0.146548
0.726528 0.274113 0.146227
0.719188 0.274464 0.145846
0.106279 0.374685 0.154498
0.10251 0.374517 0.152895
0.0980697 0.374899 0.151431
0.0948959 0.374945 0.149126
0.0926833 0.375219 0.147631
0.0917678 0.375555 0.144839
0.0906844 0.376089 0.141848
0.0899367 0.377722 0.139834
0.0894789 0.379141 0.136904
0.0891737 0.378775 0.13373
0.0901198 0.375845 0.127275
0.114717 0.381079 0.110613
0.186099 0.403006 0.114672
0.295094 0.432959 0.128908
0.385565 0.446845 0.126711
0.468574 0.439078 0.118273
0.54136 0.431922 0.127291
0.591241 0.427527 0.135195
0.630701 0.420706 0.144427
0.66836 0.40766 0.155764
0.7028 0.384588 0.167452
0.736889 0.369955 0.178378
0.761883 0.359594 0.178698
0.780636 0.35137 0.180285
0.783108 0.348379 0.17966
0.783123 0.346075 0.178836
0.782712 0.344503 0.178073
0.78172 0.342779 0.176928
0.780514 0.341436 0.175875
0.779232 0.340887 0.175265
0.777111 0.339788 0.174762
0.772366 0.339437 0.174273
0.76611 0.340124 0.174029
0.110033 0.42855 0.186435
0.106813 0.427802 0.184421
0.103212 0.427558 0.183429
0.100649 0.42742 0.181415
0.0983902 0.427375 0.17937
0.0972457 0.42707 0.175113
0.096376 0.426795 0.170031
0.0959335 0.426612 0.164675
0.0955978 0.427817 0.161746
0.095201 0.428504 0.158251
0.0951858 0.427008 0.15346
0.0993668 0.42359 0.140902
0.13753 0.434363 0.119554
0.249485 0.463096 0.128252
0.361089 0.494896 0.144213
0.443473 0.503853 0.139498
0.520363 0.494789 0.137072
0.588617 0.489082 0.149065
0.63563 0.485863 0.157504
0.672816 0.482277 0.166674
0.708003 0.47216 0.176364
0.738537 0.455329 0.183749
0.76788 0.440696 0.194446
0.790494 0.422614 0.203021
0.800748 0.41593 0.20708
0.801907 0.413962 0.206638
0.801526 0.412634 0.205753
0.801617 0.410971 0.205097
0.801724 0.409262 0.204685
0.801389 0.407462 0.204089
0.800687 0.405509 0.203311
0.798062 0.404486 0.202869
0.793179 0.404532 0.202792
0.119875 0.482704 0.23093
0.116884 0.481346 0.229618
0.113573 0.480644 0.229358
0.111116 0.480079 0.228275
0.109102 0.479774 0.226276
0.107958 0.479271 0.222171
0.106844 0.478264 0.215534
0.106126 0.476936 0.206348
0.105333 0.475456 0.196384
0.104891 0.47631 0.191943
0.104326 0.476387 0.188724
0.104631 0.472816 0.177905
0.117266 0.470954 0.156268
0.189807 0.487755 0.136782
0.328511 0.52578 0.15555
0.425406 0.551812 0.165835
0.496254 0.556725 0.158999
0.56733 0.547723 0.160006
0.630259 0.542031 0.172351
0.6748 0.539055 0.181598
0.709682 0.536812 0.190753
0.742687 0.531823 0.198657
0.768612 0.523293 0.205463
0.791623 0.508675 0.213336
0.806287 0.496391 0.217975
0.808301 0.49305 0.218311
0.807813 0.490883 0.217624
0.807797 0.488289 0.217258
0.807782 0.486778 0.216785
0.807736 0.484108 0.216449
0.807477 0.481041 0.216098
0.805249 0.479713 0.216022
0.801099 0.479011 0.216175
0.137667 0.535332 0.280049
0.135088 0.533837 0.279683
0.132326 0.53341 0.280934
0.130388 0.533104 0.281071
0.128634 0.532799 0.280583
0.127077 0.531655 0.276875
0.12607 0.530236 0.271321
0.124422 0.527871 0.262547
0.122728 0.52488 0.250751
0.121187 0.522148 0.236728
0.120043 0.52253 0.231785
0.119493 0.521004 0.228855
0.120974 0.515328 0.206943
0.147768 0.516533 0.174685
0.27602 0.544427 0.164569
0.400946 0.586007 0.185412
0.483116 0.60383 0.190219
0.543999 0.605478 0.183093
0.609247 0.596597 0.185
0.666682 0.591119 0.197436
0.709484 0.588434 0.20827
0.742596 0.586862 0.218112
0.770657 0.586114 0.225879
0.793057 0.583795 0.234287
0.812146 0.572381 0.241337
0.81622 0.569619 0.242557
0.816571 0.567056 0.241794
0.816114 0.563821 0.24094
0.815869 0.561334 0.239872
0.815412 0.558663 0.238407
0.815503 0.556771 0.237629
0.813611 0.554131 0.236851
0.810544 0.552575 0.236774
0.156817 0.585885 0.326787
0.15465 0.584558 0.327001
0.152834 0.584466 0.32961
0.151461 0.5841 0.330587
0.150042 0.583642 0.331029
0.14876 0.58233 0.328359
0.14725 0.580682 0.323507
0.145418 0.578363 0.315984
0.143069 0.57499 0.305577
0.139803 0.570626 0.291234
0.13698 0.56672 0.275517
0.135439 0.564981 0.267948
0.135393 0.562463 0.264469
0.140475 0.555245 0.228626
0.195987 0.562188 0.190478
0.357427 0.602106 0.20325
0.460365 0.6383 0.22266
0.532418 0.651255 0.221653
0.586557 0.650965 0.212955
0.647028 0.642267 0.21561
0.700343 0.637415 0.229465
0.739651 0.63447 0.240711
0.768566 0.633753 0.250416
0.792599 0.635325 0.261601
0.812116 0.636378 0.271901
0.821134 0.633555 0.275334
0.824399 0.631235 0.275608
0.823697 0.628855 0.273457
0.823957 0.627008 0.272419
0.823651 0.624338 0.270878
0.823133 0.621729 0.268788
0.821469 0.61944 0.267338
0.819837 0.617899 0.267094
0.17612 0.633402 0.371283
0.174472 0.632273 0.372091
0.173236 0.631708 0.374838
0.172152 0.631357 0.376226
0.171023 0.63061 0.376715
0.169955 0.629374 0.374777
0.168688 0.628122 0.371038
0.166293 0.625528 0.364477
0.163577 0.622065 0.355367
0.159884 0.617075 0.341894
0.155596 0.611429 0.324941
0.152285 0.606714 0.309377
0.151583 0.604105 0.304631
0.153033 0.599176 0.294011
0.171878 0.593652 0.247135
0.290517 0.611246 0.227008
0.424247 0.653056 0.249836
0.508064 0.682811 0.267704
0.575555 0.693751 0.262959
0.625528 0.693217 0.253834
0.681514 0.68571 0.256275
0.729976 0.681651 0.27126
0.766308 0.678798 0.283589
0.790463 0.678904 0.292576
0.812146 0.6804 0.302739
0.828717 0.683391 0.3131
0.831449 0.68188 0.31284
0.831418 0.680629 0.311955
0.830747 0.678248 0.310018
0.830869 0.676188 0.3084
0.830243 0.673594 0.306233
0.829313 0.671443 0.304921
0.827451 0.669825 0.304219
0.19443 0.676631 0.413809
0.193423 0.675258 0.413993
0.192691 0.674479 0.415763
0.191928 0.673686 0.416358
0.191058 0.672923 0.416464
0.190112 0.671778 0.413596
0.1888 0.669917 0.40856
0.186694 0.666896 0.401251
0.184466 0.6636 0.392874
0.181079 0.6589 0.382162
0.176684 0.65333 0.367117
0.171191 0.64593 0.346273
0.169223 0.641917 0.338766
0.16968 0.635737 0.325841
0.180148 0.629557 0.302983
0.245136 0.631022 0.262486
0.383398 0.660792 0.269856
0.487755 0.699046 0.296117
0.558282 0.723186 0.310536
0.621118 0.732052 0.303105
0.668406 0.731487 0.297108
0.721904 0.724117 0.29929
0.766827 0.719768 0.312993
0.798657 0.716045 0.323949
0.819654 0.715984 0.331701
0.838392 0.71873 0.341787
0.846433 0.719783 0.343832
0.845838 0.7178 0.342214
0.844007 0.716228 0.341619
0.840894 0.714961 0.341039
0.838666 0.71368 0.340246
0.836896 0.711711 0.339025
0.834852 0.709895 0.337758
0.211582 0.713741 0.453468
0.21091 0.712489 0.453819
0.210727 0.711864 0.455802
0.210559 0.711131 0.456687
0.209766 0.710231 0.456733
0.208835 0.708751 0.453788
0.20737 0.706752 0.449119
0.205661 0.704295 0.442695
0.203067 0.700969 0.434897
0.200443 0.696773 0.42533
0.195987 0.691096 0.41239
0.191012 0.684184 0.39649
0.187076 0.678614 0.384329
0.184985 0.669444 0.366506
0.189334 0.661555 0.345678
0.227329 0.656184 0.31664
0.331029 0.66981 0.297902
0.450309 0.702296 0.321401
0.532265 0.734569 0.345464
0.596262 0.756542 0.358373
0.654383 0.766323 0.351965
0.700175 0.766522 0.347356
0.751171 0.760266 0.349126
0.792599 0.754757 0.361318
0.820905 0.750912 0.370245
0.838636 0.751354 0.376623
0.848539 0.751995 0.380575
0.850629 0.751675 0.380743
0.848646 0.750134 0.379339
0.845823 0.748943 0.378988
0.843122 0.747433 0.377066
0.841535 0.7458 0.375357
0.840925 0.744121 0.373739
0.226215 0.744579 0.491829
0.225589 0.742931 0.491173
0.22565 0.742519 0.492805
0.225238 0.741741 0.493477
0.224506 0.74078 0.493309
0.223713 0.739406 0.490852
0.222568 0.73727 0.48629
0.221057 0.735012 0.480522
0.218677 0.732097 0.473503
0.2159 0.727764 0.464866
0.212543 0.722728 0.453941
0.207965 0.716152 0.439307
0.203952 0.710109 0.427314
0.202045 0.704753 0.419165
0.202243 0.686915 0.381186
0.223636 0.679622 0.361059
0.293187 0.68159 0.33901
0.41033 0.705623 0.344961
0.509621 0.739483 0.373556
0.574731 0.765789 0.393561
0.633387 0.78616 0.404562
0.685893 0.795834 0.399496
0.730419 0.797024 0.39733
0.77734 0.791516 0.398764
0.815503 0.785306 0.408667
0.841947 0.780789 0.415854
0.856321 0.780026 0.42089
0.858747 0.779095 0.420813
0.857359 0.778286 0.419959
0.853849 0.777295 0.418524
0.851194 0.77586 0.416602
0.84947 0.773907 0.414298
0.848783 0.772 0.412146
0.240696 0.766674 0.522438
0.240406 0.765835 0.522347
0.240452 0.765332 0.523217
0.240543 0.764874 0.524361
0.240238 0.764126 0.524666
0.23949 0.763088 0.52282
0.238087 0.761578 0.518456
0.236698 0.759426 0.513619
0.235248 0.757076 0.507073
0.23328 0.754009 0.500633
0.230259 0.750164 0.492302
0.22623 0.74435 0.480308
0.222324 0.738216 0.468025
0.219226 0.733898 0.460929
0.215732 0.717845 0.431022
0.228168 0.699107 0.390951
0.276081 0.69778 0.381064
0.371054 0.711727 0.376471
0.471489 0.737819 0.393698
0.564202 0.772564 0.426825
0.621347 0.795758 0.445167
0.674357 0.814084 0.454139
0.719387 0.821942 0.447715
0.760967 0.822034 0.444907
0.800458 0.817533 0.444572
0.835218 0.811658 0.453285
0.85684 0.807996 0.459403
0.86453 0.806119 0.461006
0.863813 0.804898 0.46009
0.861234 0.803357 0.458946
0.859129 0.801709 0.457313
0.857771 0.800061 0.454673
0.856779 0.798169 0.451728
0.247395 0.776181 0.537163
0.247425 0.775891 0.537316
0.247745 0.775753 0.538766
0.247929 0.775509 0.53991
0.248005 0.775097 0.540581
0.247639 0.774441 0.53904
0.247013 0.773571 0.536538
0.246006 0.772549 0.531853
0.245258 0.771298 0.528115
0.243854 0.769177 0.522698
0.242206 0.766522 0.515999
0.239582 0.762448 0.507073
0.23624 0.758328 0.498039
0.233692 0.754772 0.491798
0.228458 0.742962 0.470481
0.234592 0.723995 0.433799
0.272389 0.710887 0.405295
0.343206 0.720195 0.413794
0.432761 0.73901 0.419577
0.528496 0.767254 0.446021
0.617685 0.802823 0.482582
0.669657 0.823911 0.498131
0.713893 0.838575 0.503899
0.751965 0.844343 0.495827
0.786847 0.845869 0.494865
0.822599 0.841901 0.493614
0.85214 0.836362 0.500145
0.865934 0.833494 0.505013
0.869245 0.831693 0.505013
0.86688 0.830167 0.503914
0.864805 0.828534 0.501045
0.863737 0.826581 0.498726
0.863676 0.82472 0.495811
0.248112 0.776898 0.540413
0.248096 0.776669 0.540413
0.248386 0.776516 0.54165
0.248508 0.776211 0.542458
0.248508 0.77583 0.542855
0.248051 0.775113 0.540841
