luts/phantom/Eastman V-Log Legacy.cube
TITLE "Generated by Resolve"
LUT_3D_SIZE 9
0.0449836 0.0390021 0.043183
0.0585641 0.0390021 0.0458381
0.105913 0.0417945 0.0497139
0.211185 0.0421912 0.0450599
0.350286 0.0407568 0.0390021
0.444022 0.0491798 0.0460059
0.501152 0.0515602 0.0558328
0.499733 0.047303 0.0570535
0.47396 0.0516976 0.0567788
0.052491 0.0462043 0.0493172
0.0525216 0.0432136 0.047364
0.0911727 0.0476997 0.0517586
0.204654 0.0440528 0.04477
0.34786 0.0439002 0.0390021
0.439048 0.0484169 0.0421607
0.496895 0.0600748 0.0525826
0.496788 0.056672 0.0535592
0.471244 0.062211 0.0530251
0.0705577 0.092134 0.0669261
0.0634165 0.0916762 0.0652018
0.102464 0.0922408 0.0622568
0.237919 0.073518 0.0543832
0.359136 0.0537881 0.0390021
0.441352 0.0506905 0.0416571
0.486686 0.0607004 0.0487678
0.489189 0.0623331 0.0507057
0.477256 0.0666667 0.0509499
0.0852827 0.213062 0.0978256
0.0702831 0.21503 0.0897688
0.0739147 0.216373 0.081239
0.270726 0.248142 0.0925765
0.497505 0.204501 0.104509
0.583444 0.182712 0.104097
0.565759 0.136416 0.0698863
0.556573 0.127474 0.0673838
0.533333 0.120851 0.0595865
0.110033 0.42855 0.186435
0.0983902 0.427375 0.17937
0.0955978 0.427817 0.161746
0.13753 0.434363 0.119554
0.520363 0.494789 0.137072
0.708003 0.47216 0.176364
0.800748 0.41593 0.20708
0.801724 0.409262 0.204685
0.793179 0.404532 0.202792
0.17612 0.633402 0.371283
0.171023 0.63061 0.376715
0.163577 0.622065 0.355367
0.151583 0.604105 0.304631
0.424247 0.653056 0.249836
0.681514 0.68571 0.256275
0.812146 0.6804 0.302739
0.830747 0.678248 0.310018
0.827451 0.669825 0.304219
0.240696 0.766674 0.522438
0.240238 0.764126 0.524666
0.235248 0.757076 0.507073
0.222324 0.738216 0.468025
0.276081 0.69778 0.381064
0.621347 0.795758 0.445167
0.800458 0.817533 0.444572
0.863813 0.804898 0.46009
0.856779 0.798169 0.451728
0.249287 0.777966 0.545388
0.248875 0.77673 0.54406
0.243458 0.771634 0.519738
0.236225 0.759945 0.487358
0.254444 0.732357 0.435859
0.537697 0.778668 0.487388
0.795422 0.877516 0.60116
0.88336 0.890105 0.628489
0.877821 0.892027 0.644205
0.251133 0.779599 0.554238
0.250095 0.778058 0.550546
0.245548 0.773709 0.528374
0.237354 0.761868 0.49308
0.240131 0.744732 0.456031
0.481605 0.761944 0.467079
0.779721 0.873625 0.603098
0.866194 0.887678 0.61886
0.876326 0.893843 0.651896
0.0451514 0.0390021 0.0461585
0.05832 0.0390021 0.0521248
0.105974 0.0443732 0.0612955
0.217533 0.0390021 0.0525368
0.346944 0.0390021 0.0433509
0.434287 0.0466316 0.0479286
0.489357 0.0449531 0.0606546
0.490761 0.0398718 0.0634318
0.474998 0.0411383 0.0649577
0.0506752 0.0439002 0.0501564
0.0489967 0.0392462 0.0476387
0.0938735 0.0440681 0.0528725
0.202487 0.0455787 0.0480659
0.341436 0.0452735 0.0395514
0.43151 0.0543374 0.0457313
0.482521 0.0551919 0.0551461
0.482353 0.0505226 0.0567483
0.467292 0.05243 0.0575265
0.0698711 0.0907759 0.0753643
0.0631418 0.089128 0.0687877
0.099794 0.090074 0.0635386
0.233112 0.0696727 0.0519722
0.352682 0.052369 0.0390021
0.441703 0.0539254 0.0447089
0.487419 0.0592355 0.0530251
0.488136 0.0570077 0.0542306
0.474723 0.0593271 0.0539406
0.0848859 0.213092 0.111238
0.073991 0.213291 0.101701
0.0694743 0.214374 0.0845502
0.269505 0.245701 0.0922713
0.495338 0.197543 0.102083
0.577401 0.177752 0.100603
0.559579 0.130755 0.0658427
0.549126 0.120897 0.0630198
0.52694 0.114748 0.05626
0.112291 0.432609 0.206561
0.099855 0.430152 0.199405
0.0964065 0.426184 0.170077
0.122133 0.428702 0.120821
0.519402 0.493278 0.136233
0.708476 0.466743 0.175906
0.80029 0.412604 0.205631
0.801205 0.404852 0.202777
0.791882 0.398901 0.200275
0.178134 0.635477 0.380331
0.17351 0.633005 0.386511
0.166629 0.624491 0.366751
0.150072 0.602243 0.302312
0.409705 0.646448 0.245121
0.679835 0.682597 0.253346
0.811734 0.675669 0.298772
0.829709 0.672038 0.305364
0.826291 0.662943 0.299138
0.241291 0.767819 0.525979
0.240391 0.764797 0.527962
0.235676 0.757656 0.510628
0.221592 0.73724 0.468482
0.260105 0.696086 0.38027
0.612512 0.791074 0.437964
0.79736 0.813977 0.437736
0.862715 0.800351 0.453132
0.855665 0.793713 0.445136
0.250248 0.779767 0.549691
0.249882 0.778256 0.548379
0.244892 0.773709 0.524742
0.237354 0.762005 0.492699
0.24622 0.737957 0.444236
0.516564 0.772137 0.478508
0.792157 0.87686 0.601083
0.882124 0.889174 0.625315
0.877791 0.890822 0.639384
0.251621 0.780819 0.557809
0.251316 0.779721 0.555062
0.246281 0.775341 0.531762
0.239322 0.765026 0.500267
0.238331 0.748577 0.463172
0.466224 0.75761 0.461936
0.775601 0.872312 0.602121
0.86334 0.887572 0.617105
0.876356 0.893843 0.651865
0.0447242 0.0410773 0.0640116
0.0693675 0.0417487 0.0679637
0.111025 0.0481422 0.0771801
0.228 0.0390021 0.0735943
0.358999 0.0390021 0.0491493
0.446586 0.0390021 0.054963
0.500771 0.0390021 0.082536
0.504921 0.0390021 0.098909
0.491981 0.0443427 0.109697
0.0504768 0.0488441 0.0616007
0.0474098 0.0444648 0.0680095
0.0977798 0.0468757 0.0734417
0.221149 0.0390021 0.0653391
0.356527 0.0390021 0.0452583
0.443976 0.043473 0.0517281
0.492103 0.0390021 0.0668193
0.496483 0.0390021 0.0789654
0.483787 0.0411078 0.0898146
0.066804 0.0913863 0.0840467
0.0613565 0.0898451 0.0840772
0.0966506 0.0902266 0.0929122
0.242267 0.0714275 0.0753185
0.369558 0.0457923 0.0463722
0.454673 0.0451209 0.0513619
0.495735 0.0390478 0.0629282
0.497185 0.0390021 0.0660105
0.485817 0.0390021 0.0679942
0.087068 0.215061 0.129152
0.0778363 0.215396 0.124254
0.0758068 0.214206 0.109514
0.278462 0.253376 0.125521
0.499718 0.194553 0.117845
0.56321 0.160281 0.100191
0.561196 0.115618 0.071397
0.544411 0.101045 0.0632486
0.52665 0.0971237 0.0612802
0.116945 0.441184 0.239704
0.105196 0.438819 0.236652
0.100038 0.431739 0.208621
0.107698 0.424659 0.140047
0.520851 0.493843 0.146075
0.710216 0.455756 0.17847
0.801099 0.402213 0.205005
0.801343 0.392721 0.201053
0.790616 0.386709 0.198352
0.181674 0.63975 0.396612
0.177508 0.637003 0.403632
0.171695 0.629114 0.387121
0.152605 0.602808 0.318639
0.387213 0.636744 0.24004
0.676341 0.678798 0.25095
0.81004 0.669184 0.294438
0.82858 0.66453 0.299458
0.825345 0.654643 0.293233
0.241978 0.769436 0.533242
0.240681 0.765179 0.534905
0.235752 0.75758 0.516625
0.223209 0.738598 0.477501
0.24387 0.69424 0.380499
0.600839 0.784588 0.428397
0.792309 0.808225 0.428473
0.861387 0.794369 0.443824
0.854124 0.787503 0.435721
0.251682 0.78291 0.558999
0.252049 0.781613 0.560189
0.247257 0.77763 0.535836
0.24097 0.767834 0.506844
0.240055 0.744488 0.455009
0.487892 0.763577 0.468086
0.785718 0.875013 0.600046
0.879194 0.887434 0.618708
0.876036 0.886305 0.627878
0.253391 0.783963 0.566995
0.252979 0.782544 0.56434
0.248829 0.779187 0.542855
0.242206 0.769985 0.512657
0.237598 0.752071 0.470817
0.442786 0.75108 0.454948
0.765408 0.869261 0.599069
0.858106 0.88687 0.613367
0.875303 0.89398 0.652964
0.0430152 0.0528115 0.104189
0.0610819 0.0514382 0.117021
0.131426 0.0514229 0.119051
0.239963 0.0446937 0.121263
0.374029 0.0390021 0.125048
0.46479 0.0390021 0.137163
0.533532 0.0557259 0.177707
0.538949 0.0611429 0.194659
0.526879 0.0695811 0.206104
0.0442206 0.0583352 0.104799
0.0416571 0.0540017 0.112413
0.101289 0.051194 0.136538
0.236408 0.0456855 0.123201
0.375891 0.0390021 0.116884
0.466529 0.0390021 0.129641
0.528679 0.054078 0.170291
0.534264 0.0594186 0.186999
0.523308 0.0681773 0.199695
0.0538186 0.0967422 0.123095
0.0471656 0.0911574 0.132738
0.0660105 0.0861067 0.154788
0.244434 0.065507 0.145098
0.386648 0.0390021 0.114992
0.481498 0.0390021 0.129473
0.531884 0.0502327 0.162295
0.537163 0.0547951 0.177996
0.52755 0.0610971 0.186801
0.0762188 0.21767 0.172763
0.0690623 0.218448 0.175784
0.0686046 0.217548 0.176059
0.269657 0.263737 0.25948
0.516594 0.207675 0.228428
0.613245 0.151522 0.200793
0.59736 0.0900282 0.166232
0.578317 0.076997 0.162997
0.558068 0.0724346 0.160952
0.122148 0.459068 0.299336
0.113817 0.458656 0.304128
0.113466 0.45565 0.293645
0.135119 0.451575 0.262852
0.538735 0.512047 0.293065
0.725856 0.432624 0.276371
0.809354 0.390845 0.281361
0.807614 0.381048 0.28069
0.79501 0.375738 0.277852
0.187457 0.649424 0.433249
0.18468 0.647044 0.441154
0.181155 0.641169 0.430426
0.169711 0.621363 0.389075
0.31606 0.623423 0.327092
0.683543 0.685725 0.34934
0.818418 0.651804 0.371557
0.833371 0.629419 0.368414
0.828153 0.614725 0.359228
0.242206 0.772168 0.549477
0.2421 0.767498 0.553079
0.237537 0.760632 0.538018
0.228412 0.744961 0.504738
0.25713 0.700008 0.413733
0.580285 0.773083 0.464973
0.795041 0.812131 0.478019
0.870665 0.797635 0.494591
0.865156 0.789425 0.486168
0.255161 0.789578 0.580163
0.255833 0.788556 0.581918
0.252934 0.786068 0.566461
0.247135 0.778836 0.535592
0.248631 0.765362 0.499763
0.479377 0.770047 0.509071
0.791196 0.882216 0.646799
0.885084 0.897307 0.661234
0.888029 0.894804 0.670985
0.256641 0.790188 0.587152
0.25626 0.788922 0.584146
0.254597 0.786969 0.574166
0.247715 0.779858 0.539147
0.244388 0.766873 0.504662
0.442359 0.758724 0.489586
0.761868 0.871946 0.644327
0.862486 0.900587 0.67219
0.891783 0.91107 0.719158
0.0390021 0.0652781 0.195422
0.0390021 0.0629435 0.210941
0.0693065 0.0578012 0.239094
0.262882 0.049012 0.230015
0.386694 0.0539559 0.241108
0.494224 0.0709697 0.254795
0.577844 0.0957961 0.291341
0.584115 0.101472 0.308629
0.572381 0.109178 0.319097
0.0390021 0.0701305 0.202152
0.0390021 0.0672618 0.209857
0.0443885 0.0616465 0.236698
0.256977 0.0485237 0.245426
0.390494 0.0560311 0.247501
0.499016 0.0730449 0.257557
0.577356 0.0975204 0.293675
0.582818 0.102556 0.310002
0.571374 0.109789 0.320226
0.0390021 0.0926833 0.21619
0.0390021 0.0846113 0.224186
0.0390021 0.0769055 0.236469
0.245014 0.0497139 0.268986
0.397131 0.0595254 0.258259
0.517555 0.0760052 0.265309
0.584497 0.0965744 0.295109
0.588342 0.100023 0.307927
0.578485 0.105684 0.315175
0.0449836 0.213489 0.254871
0.0390021 0.207797 0.261082
0.0390021 0.196811 0.267735
0.164111 0.221439 0.35819
0.51017 0.218524 0.398993
0.623667 0.171954 0.36463
0.619028 0.118257 0.312276
0.610513 0.113527 0.31223
0.59086 0.108949 0.306554
0.10956 0.462165 0.370214
0.104295 0.461601 0.37554
0.103288 0.460441 0.37554
0.116716 0.463706 0.382422
0.516533 0.530694 0.515282
0.731212 0.448005 0.454719
0.825971 0.378912 0.418189
0.825513 0.369406 0.422965
0.814633 0.363348 0.422477
0.186542 0.655741 0.48365
0.184848 0.652934 0.491112
0.183154 0.648966 0.485313
0.17911 0.638148 0.464973
0.374304 0.653864 0.487633
0.695338 0.705257 0.532753
0.818936 0.636759 0.489204
0.840604 0.608637 0.467826
0.837171 0.594934 0.460426
0.240467 0.773907 0.578912
0.240131 0.76939 0.581903
0.237705 0.763516 0.573495
0.231846 0.751766 0.548775
0.272999 0.734264 0.509102
0.582345 0.777127 0.56846
0.809506 0.827085 0.600458
0.882658 0.816663 0.611276
0.876432 0.806363 0.601678
0.256779 0.797131 0.611383
0.257923 0.796139 0.61265
0.258213 0.794827 0.607111
0.256794 0.791424 0.590707
0.256611 0.787915 0.557702
0.511757 0.794232 0.582544
0.796872 0.891752 0.730236
0.896803 0.91397 0.746807
0.904784 0.91223 0.756252
0.257786 0.797269 0.616358
0.258061 0.796338 0.613886
0.258289 0.795193 0.608789
0.257084 0.791836 0.593103
0.252216 0.786282 0.556878
0.457115 0.783108 0.563394
0.754864 0.879347 0.729564
0.888075 0.927367 0.793378
0.914366 0.937194 0.828824
0.0390021 0.0802014 0.270542
0.0390021 0.0787823 0.28275
0.0390021 0.0750134 0.304845
0.190021 0.0552682 0.357946
0.408652 0.0845655 0.345846
0.546899 0.113466 0.383261
0.613199 0.121996 0.398199
0.621012 0.128893 0.420569
0.614954 0.139406 0.434134
0.0390021 0.0846723 0.277653
0.0390021 0.0844129 0.28072
0.0390021 0.0817121 0.298604
0.140642 0.0616159 0.360479
0.414084 0.0889448 0.356634
0.553765 0.119875 0.392874
0.611688 0.122866 0.402396
0.619226 0.128985 0.422538
0.615473 0.140948 0.437415
0.0390021 0.0958572 0.282445
0.0390021 0.0917525 0.287922
0.0390021 0.0885176 0.293553
0.101884 0.0694438 0.361074
0.424933 0.0963149 0.374945
0.566888 0.126757 0.405524
0.617746 0.121614 0.407736
0.628336 0.129488 0.42858
0.623621 0.138766 0.438193
0.0390021 0.193713 0.318776
0.0390021 0.186969 0.322911
0.0390021 0.174975 0.327077
0.0671397 0.181033 0.386358
0.495918 0.191882 0.486213
0.626749 0.195087 0.472709
0.650309 0.147021 0.430594
0.64538 0.141299 0.431861
0.623224 0.134325 0.420951
0.0818952 0.45568 0.429023
0.0783246 0.452476 0.432746
0.0765698 0.447471 0.434669
0.0716411 0.427497 0.436362
0.425742 0.493965 0.61796
0.752132 0.482582 0.634516
0.858793 0.416983 0.601755
0.861585 0.407889 0.604578
0.851316 0.401297 0.600336
0.175616 0.651423 0.534829
0.173693 0.647166 0.539849
0.171939 0.643259 0.537331
0.166964 0.63331 0.52903
0.362203 0.678767 0.59939
0.686656 0.711498 0.687724
0.825544 0.652766 0.640574
0.858442 0.605066 0.606973
0.855406 0.589471 0.599405
0.234257 0.771374 0.613626
0.234333 0.766629 0.615625
0.231281 0.760662 0.608667
0.227604 0.751049 0.593683
0.264088 0.748119 0.580865
0.623911 0.798535 0.686793
0.820905 0.840955 0.726177
0.882765 0.826017 0.714458
0.877852 0.812726 0.701427
0.256519 0.802182 0.646143
0.257969 0.801221 0.646113
0.258152 0.800351 0.641276
0.258305 0.79884 0.63003
0.260868 0.798947 0.614771
0.525185 0.826734 0.666484
0.797894 0.895903 0.792172
0.901167 0.922286 0.81651
0.915877 0.92546 0.830228
0.257328 0.802014 0.65069
0.258045 0.801373 0.648127
0.258137 0.800626 0.643168
0.258244 0.799084 0.631952
0.259449 0.798337 0.614099
0.440284 0.824872 0.644083
0.782818 0.902159 0.806882
0.906462 0.942 0.874876
0.924987 0.950561 0.896345
0.0390021 0.107607 0.326085
0.0390021 0.108614 0.3308
0.0390021 0.108049 0.34612
0.0913252 0.0967117 0.402823
0.413901 0.118349 0.466224
0.61326 0.194095 0.51809
0.695293 0.214878 0.556832
0.727749 0.246738 0.602106
0.74995 0.270848 0.631891
0.0390021 0.11133 0.332876
0.0390021 0.11252 0.334966
0.0390021 0.114137 0.342824
0.0701305 0.108858 0.402075
0.413657 0.126116 0.483543
0.629313 0.203128 0.534051
0.706218 0.223331 0.570809
0.736339 0.254505 0.61265
0.753582 0.27628 0.637263
0.0390021 0.119295 0.339437
0.0390021 0.118624 0.343496
0.0390021 0.119738 0.347372
0.0494698 0.12311 0.401633
0.408682 0.13817 0.509255
0.649821 0.21622 0.555047
0.720394 0.232792 0.586999
0.741741 0.254963 0.617288
0.748959 0.270329 0.631662
0.0390021 0.194965 0.365499
0.0390021 0.190829 0.368109
0.0390021 0.184268 0.374105
0.0390021 0.186694 0.399069
0.371572 0.197024 0.571832
0.661036 0.240345 0.577096
0.722591 0.234943 0.582544
0.719371 0.231907 0.583932
0.719982 0.240208 0.590845
0.0710918 0.44918 0.48574
0.0699016 0.445121 0.486839
0.0677958 0.437522 0.489387
0.0610819 0.413642 0.490059
0.318151 0.460624 0.658137
0.769848 0.49015 0.754833
0.873549 0.4692 0.722667
0.874632 0.45951 0.719768
0.86424 0.45182 0.711192
0.141802 0.641077 0.571817
0.139879 0.636698 0.571923
0.135348 0.630335 0.569238
0.127703 0.616739 0.56669
0.285969 0.653025 0.65005
0.627619 0.68864 0.765789
0.841856 0.681132 0.767544
0.883528 0.642588 0.749065
0.880705 0.629847 0.742855
0.225849 0.764187 0.645335
0.224826 0.758877 0.644633
0.221302 0.752987 0.639124
0.217426 0.742733 0.629999
0.234562 0.739376 0.63064
0.619928 0.815366 0.75935
0.815412 0.842451 0.81503
0.888411 0.819272 0.795789
0.889494 0.805585 0.786465
0.254673 0.804379 0.675425
0.256596 0.803632 0.675319
0.257282 0.803174 0.671214
0.257359 0.802228 0.662608
0.254963 0.797131 0.650553
0.514961 0.847471 0.727474
0.805173 0.899947 0.839734
0.899031 0.923186 0.864881
0.918593 0.927245 0.873014
0.254978 0.804044 0.680812
0.256153 0.803677 0.678584
0.256931 0.803372 0.674281
0.257511 0.80264 0.665187
0.258961 0.802915 0.65272
0.370016 0.832441 0.68455
0.780346 0.912108 0.845823
0.907591 0.946654 0.906249
0.926757 0.953368 0.917754
0.0390021 0.155566 0.391669
0.0390021 0.161364 0.396551
0.0390021 0.169085 0.40264
0.0484321 0.191608 0.454475
0.297963 0.218616 0.598245
0.694942 0.301198 0.697841
0.818799 0.372641 0.738262
0.83241 0.404913 0.769055
0.836027 0.410163 0.775357
0.0390021 0.165057 0.399329
0.0390021 0.167956 0.401465
0.0390021 0.17644 0.40824
0.0390021 0.198657 0.448218
0.290852 0.23357 0.60737
0.707057 0.316518 0.714885
0.823758 0.38323 0.748363
0.834531 0.410605 0.77406
0.834791 0.410529 0.774304
0.0390021 0.173556 0.40415
0.0390021 0.180346 0.410727
0.0390021 0.184985 0.413901
0.0390021 0.213107 0.44242
0.280858 0.256794 0.620462
0.721309 0.336202 0.738064
0.8262 0.385245 0.751797
0.832181 0.401266 0.766339
0.833249 0.407355 0.770916
0.0390021 0.232792 0.422507
0.0390021 0.234226 0.427512
0.0390021 0.241047 0.437339
0.0390021 0.244724 0.447501
0.239643 0.279973 0.610269
0.689967 0.335897 0.742947
0.819013 0.368277 0.734142
0.825086 0.382025 0.748348
0.828183 0.392432 0.757183
0.0688487 0.450843 0.533318
0.0681773 0.447303 0.534249
0.0669566 0.442527 0.537682
0.0635538 0.430686 0.543206
0.227222 0.474571 0.660945
0.583291 0.479957 0.812055
0.884382 0.519921 0.804822
0.887327 0.513771 0.799573
0.882918 0.50573 0.794003
0.131716 0.636439 0.604822
0.129915 0.631586 0.603845
0.126955 0.624735 0.603464
0.120867 0.609018 0.604639
0.211398 0.625483 0.664759
0.541329 0.65539 0.789059
0.850843 0.684672 0.84686
0.900206 0.673106 0.827131
0.898741 0.660914 0.822416
0.2047 0.753735 0.662959
0.20058 0.748302 0.659617
0.194827 0.740932 0.65507
0.183459 0.727047 0.647761
0.182559 0.715297 0.649348
0.557122 0.79173 0.788922
0.785977 0.830884 0.855436
0.893446 0.82858 0.857435
0.898161 0.816587 0.852125
0.247837 0.803388 0.697704
0.25034 0.803067 0.697398
0.251865 0.803235 0.694713
0.251087 0.800076 0.688045
0.243015 0.788693 0.675944
0.466804 0.839216 0.753765
0.795285 0.900633 0.863127
0.896986 0.922454 0.893736
0.918364 0.923613 0.894453
0.245304 0.802976 0.701045
0.247883 0.803006 0.700343
0.25066 0.803098 0.698054
0.253315 0.803571 0.692638
0.256291 0.804288 0.683604
0.315328 0.826139 0.704189
0.743191 0.913649 0.852613
0.91078 0.947646 0.916228
0.928237 0.953155 0.922469
0.0390021 0.235599 0.446693
0.0390021 0.240085 0.450568
0.0390021 0.254124 0.461616
0.0390021 0.278355 0.48394
0.248112 0.326818 0.64683
0.657588 0.388022 0.80209
0.834485 0.41062 0.774029
0.834485 0.41062 0.774029
0.834943 0.410483 0.774426
0.0390021 0.235599 0.446693
0.0390021 0.235599 0.446693
0.0390021 0.248264 0.456764
0.0390021 0.275395 0.480613
0.250309 0.326696 0.648432
0.679072 0.391348 0.803128
0.834485 0.41062 0.774029
0.834485 0.41062 0.774029
0.834684 0.410574 0.774197
0.0390021 0.243458 0.451118
0.0390021 0.235599 0.446693
0.0390021 0.235599 0.446693
0.0390021 0.271382 0.475334
0.252064 0.326848 0.648981
0.694194 0.393805 0.803449
0.834485 0.41062 0.774029
0.834485 0.41062 0.774029
0.834485 0.41062 0.774029
0.0390021 0.31107 0.487617
0.0390021 0.313649 0.490562
0.0390021 0.304768 0.486122
0.0390021 0.290303 0.482475
0.199588 0.340124 0.625269
0.624918 0.38851 0.802045
0.835294 0.412314 0.775067
0.834638 0.410651 0.774166
0.834485 0.41062 0.774029
0.0733043 0.469978 0.569589
0.0731975 0.469108 0.571344
0.0737926 0.472206 0.577615
0.0700542 0.457633 0.572412
0.180179 0.494774 0.653742
0.487388 0.497017 0.795514
0.880629 0.543465 0.844831
0.89134 0.538476 0.835111
0.88835 0.531853 0.832334
0.131685 0.635721 0.627817
0.129732 0.630457 0.626749
0.127199 0.624399 0.627329
0.122164 0.610727 0.63093
0.150698 0.612284 0.654948
0.469535 0.648096 0.786938
0.750698 0.67924 0.871977
0.902693 0.68716 0.862196
0.902861 0.677165 0.861418
0.189883 0.747707 0.673854
0.185016 0.741283 0.671031
0.179126 0.732723 0.666972
0.168597 0.717693 0.661982
0.160845 0.700374 0.662135
0.466773 0.763088 0.785428
0.72221 0.809308 0.859953
0.893843 0.825956 0.884077
0.903792 0.821561 0.878965
0.241382 0.802289 0.705928
0.241733 0.802258 0.706081
0.242451 0.802304 0.70544
0.234775 0.793912 0.699153
0.218601 0.777493 0.688975
0.406073 0.817563 0.758099
0.749035 0.88777 0.867338
0.890257 0.917693 0.9066
0.918563 0.923827 0.90866
0.241215 0.802365 0.705547
0.241566 0.802197 0.706294
0.241566 0.802197 0.70631
0.241901 0.802243 0.705989
0.246952 0.803067 0.702068
0.286625 0.820539 0.718715
0.674571 0.903197 0.845457
0.905547 0.945388 0.918715
0.926207 0.953079 0.924208
