luts/phantom/EastmanRM V-Log Legacy.cube
TITLE "Generated by Resolve"
LUT_3D_SIZE 5
0.0476692 0.0503853 0.0489052
0.14551 0.0414588 0.0374456
0.398642 0.0307164 0.0449836
0.562036 0.0327459 0.078294
0.520409 0.0370031 0.117601
0.062211 0.105333 0.0545663
0.106325 0.100969 0.0504463
0.41062 0.0302892 0.044831
0.548211 0.0319371 0.075227
0.528847 0.0353857 0.0962081
0.0546273 0.407156 0.0915389
0.0483253 0.418921 0.0866255
0.538643 0.505272 0.0817121
0.841642 0.395727 0.186465
0.827436 0.388693 0.192599
0.28072 0.75938 0.533867
0.269139 0.765164 0.549752
0.267552 0.74551 0.456657
0.876097 0.904814 0.641703
0.908476 0.899901 0.662669
0.268177 0.768521 0.572641
0.279454 0.763531 0.544732
0.284047 0.75053 0.466651
0.858259 0.915175 0.707149
0.892683 0.929015 0.770184
0.0460059 0.0547189 0.0655375
0.126223 0.0523537 0.0588846
0.389807 0.0365148 0.0724346
0.546746 0.0373388 0.112474
0.524041 0.042771 0.145983
0.0590219 0.104372 0.0762341
0.0915084 0.102296 0.0822003
0.416098 0.034638 0.0614786
0.549142 0.0346838 0.0958419
0.528695 0.0377508 0.119921
0.0556344 0.415579 0.142824
0.0482643 0.42385 0.132036
0.541833 0.508415 0.0883497
0.841138 0.392966 0.186191
0.827192 0.384131 0.19324
0.281086 0.764309 0.553964
0.269749 0.766232 0.559609
0.264836 0.749126 0.474388
0.875746 0.903655 0.636942
0.909117 0.896391 0.654871
0.269627 0.770153 0.583261
0.281498 0.765408 0.557717
0.281025 0.752377 0.478645
0.853117 0.913481 0.703655
0.892134 0.929046 0.770855
0.0413214 0.0888533 0.180362
0.0677501 0.0805524 0.226535
0.42742 0.0624247 0.208469
0.608057 0.0739147 0.226398
0.59266 0.0891432 0.277378
0.0423285 0.113054 0.196033
0.0417334 0.0988174 0.226307
0.456886 0.0652476 0.228443
0.629404 0.075639 0.22002
0.60705 0.0895094 0.27335
0.0586557 0.42565 0.326085
0.0504463 0.434073 0.357778
0.527794 0.531014 0.495735
0.893828 0.358999 0.432654
0.8813 0.349783 0.453681
0.277745 0.763531 0.591562
0.261784 0.766522 0.605158
0.26006 0.759365 0.558343
0.877928 0.903883 0.719738
0.907439 0.906111 0.756649
0.27985 0.773053 0.628107
0.274098 0.773663 0.628885
0.291676 0.770779 0.57879
0.873808 0.926513 0.830625
0.901274 0.941619 0.872663
0.042359 0.153658 0.378073
0.0423896 0.156634 0.393515
0.277989 0.141344 0.549065
0.793179 0.260304 0.663798
0.816571 0.311025 0.730648
0.0423438 0.165103 0.394598
0.0424506 0.168902 0.405768
0.261616 0.169009 0.588434
0.836957 0.297047 0.715419
0.838636 0.342336 0.766949
0.0437476 0.399939 0.492668
0.0438697 0.403754 0.512261
0.180148 0.443702 0.654002
0.927947 0.488685 0.812177
0.910109 0.489494 0.819089
0.26717 0.742885 0.659739
0.247242 0.746792 0.675868
0.235096 0.736889 0.667094
0.869108 0.900236 0.865171
0.906004 0.902113 0.8692
0.289311 0.7682 0.703212
0.283619 0.769039 0.704128
0.283909 0.771572 0.687129
0.885374 0.93901 0.894347
0.912352 0.951537 0.915175
0.0435035 0.253727 0.470726
0.0437018 0.268086 0.482979
0.134493 0.339712 0.637552
0.869627 0.443351 0.85597
0.869673 0.443351 0.85597
0.043534 0.255787 0.471366
0.0435035 0.253697 0.471427
0.15877 0.341176 0.648112
0.871672 0.44271 0.856168
0.868269 0.443778 0.855955
0.0453956 0.449805 0.575006
0.0451362 0.451133 0.577752
0.0764172 0.47715 0.647288
0.907835 0.560265 0.891218
0.898634 0.558419 0.888869
0.22771 0.729351 0.692058
0.221088 0.732509 0.698421
0.19295 0.714458 0.690349
0.837247 0.886824 0.887312
0.906172 0.902998 0.89514
0.279713 0.765332 0.714855
0.277852 0.765606 0.715877
0.278065 0.765698 0.715953
0.844007 0.928267 0.891569
0.911025 0.951827 0.916411
