luts/phantom/EastmanRM V-Log Legacy.cube
TITLE "Generated by Resolve"
LUT_3D_SIZE 33
0.0476692 0.0503853 0.0489052
0.0482185 0.0501717 0.0484321
0.0494698 0.0493629 0.0471962
0.0563516 0.0478981 0.0444953
0.0702068 0.0457465 0.041825
0.0910506 0.0446021 0.039765
0.111528 0.043534 0.0387884
0.128939 0.0424048 0.0377966
0.14551 0.0414588 0.0374456
0.164263 0.0403449 0.0371862
0.185138 0.0388037 0.0371557
0.208286 0.0378882 0.0384375
0.235096 0.0370642 0.0395514
0.271229 0.0354925 0.0410163
0.314931 0.0331426 0.0419776
0.359213 0.0312963 0.043122
0.398642 0.0307164 0.0449836
0.434348 0.0296025 0.0479133
0.464652 0.029572 0.0513008
0.492714 0.0299382 0.0559701
0.51809 0.0304417 0.0611124
0.541497 0.0311589 0.0679026
0.557504 0.0321355 0.0745556
0.561852 0.0327001 0.0775616
0.562036 0.0327459 0.078294
0.562203 0.0327611 0.078996
0.562356 0.0327764 0.0796063
0.562509 0.0328069 0.0800641
0.560937 0.03299 0.0814069
0.555215 0.0335088 0.0863203
0.547753 0.0341955 0.092607
0.534401 0.0354925 0.105119
0.520409 0.0370031 0.117601
0.0494392 0.0493782 0.0472114
0.0488289 0.0497902 0.0479286
0.0494698 0.0493629 0.0471962
0.0543984 0.0480354 0.04477
0.0647288 0.0468147 0.0428473
0.0808576 0.045655 0.0411688
0.100526 0.0448157 0.0399786
0.120546 0.0433509 0.0387274
0.139971 0.0420844 0.0378882
0.158587 0.0410315 0.037644
0.17995 0.0390478 0.0375067
0.205875 0.0376898 0.0382086
0.234897 0.0365911 0.0390784
0.271366 0.0348974 0.0404974
0.315404 0.0323491 0.0415656
0.35935 0.0304265 0.0420539
0.39881 0.0297398 0.0440986
0.434272 0.0287022 0.0465858
0.464836 0.0286564 0.0501259
0.492927 0.0290074 0.0545357
0.518074 0.0295415 0.0598001
0.542016 0.0309911 0.0670787
0.557412 0.032166 0.0737774
0.561639 0.032639 0.0769055
0.561807 0.0326848 0.0773632
0.561959 0.0327306 0.0780346
0.562112 0.0327459 0.0786297
0.562234 0.0327611 0.0791791
0.560525 0.032929 0.0809033
0.554803 0.0334478 0.085008
0.547326 0.0341344 0.0913405
0.53373 0.0353704 0.103792
0.519295 0.03682 0.116625
0.0494545 0.0493782 0.0471962
0.0482032 0.0501717 0.0484321
0.0482185 0.0501717 0.0484321
0.0494698 0.0493629 0.0471962
0.0572213 0.0488594 0.0449531
0.0704662 0.0479591 0.043122
0.0881514 0.0470588 0.0417487
0.108827 0.0456092 0.0402686
0.131823 0.0437171 0.0391699
0.153506 0.041886 0.0382849
0.175479 0.039704 0.0380713
0.20116 0.0379797 0.0388342
0.232044 0.0365606 0.039353
0.272312 0.0345922 0.0403449
0.317388 0.0320439 0.041413
0.361105 0.0299229 0.0416876
0.400168 0.0292363 0.043534
0.434669 0.0281834 0.0453651
0.464332 0.027985 0.0485695
0.492653 0.028275 0.0530098
0.517739 0.0288701 0.0582437
0.542687 0.0309606 0.0666514
0.557397 0.0322271 0.0733349
0.561364 0.0325933 0.0758984
0.561563 0.0326238 0.0766766
0.561746 0.0326696 0.0771801
0.561883 0.0327001 0.0776379
0.56199 0.0327306 0.0781567
0.56025 0.0328985 0.0799725
0.554482 0.033402 0.0838788
0.546899 0.0340887 0.0901045
0.533272 0.0352636 0.102678
0.518639 0.0367437 0.115251
0.0494545 0.0493782 0.0471962
0.0482032 0.0501717 0.0484321
0.0482185 0.0501717 0.0484321
0.0494698 0.0493629 0.0471962
0.0554818 0.0492866 0.0449226
0.0652171 0.049485 0.0434424
0.0789349 0.0496071 0.0428168
0.0959793 0.0489662 0.0420386
0.119585 0.0472572 0.0408026
0.145907 0.0438392 0.0394141
0.17052 0.0411841 0.0387121
0.196933 0.0387427 0.0393072
0.227573 0.0372473 0.040177
0.269657 0.0350042 0.0412146
0.318563 0.0319982 0.0417182
0.364096 0.0298009 0.0418097
0.402823 0.0290074 0.043473
0.436118 0.027924 0.0448005
0.465232 0.0275731 0.0480964
0.492958 0.0276188 0.0519722
0.518227 0.0283207 0.0575265
0.542367 0.0302281 0.0654459
0.557397 0.0322423 0.0728313
0.560952 0.032578 0.0749828
0.561273 0.032578 0.0755932
0.561486 0.0326238 0.0763256
0.561639 0.032639 0.0769055
0.561776 0.0326696 0.0772259
0.559976 0.0328527 0.0789502
0.554253 0.0333715 0.0827649
0.546624 0.0340276 0.0890669
0.533013 0.0352178 0.101396
0.518334 0.0366979 0.113878
0.0502785 0.0580606 0.0493172
0.0487678 0.0583352 0.0499275
0.0482643 0.0578927 0.0501564
0.0491188 0.0563516 0.0493782
0.0514076 0.0542916 0.0477913
0.0594949 0.0548409 0.0467079
0.0699016 0.053727 0.0446021
0.0859388 0.0525368 0.0431067
0.108751 0.05066 0.0424506
0.135515 0.0475776 0.04094
0.164752 0.0435798 0.039704
0.193942 0.0403296 0.0396429
0.225834 0.0379034 0.040528
0.267094 0.0355535 0.0419471
0.316503 0.0323339 0.04271
0.363516 0.029984 0.0425879
0.405203 0.0289769 0.0434424
0.43798 0.027924 0.0450752
0.467247 0.0273747 0.0479896
0.493782 0.0272679 0.0512093
0.518395 0.0277104 0.0565957
0.541772 0.0294041 0.0644083
0.556313 0.0319219 0.0716259
0.560372 0.0326238 0.073991
0.5608 0.0325933 0.0747387
0.561135 0.0325628 0.0752575
0.561349 0.0325933 0.0758373
0.561502 0.0326238 0.0764019
0.55964 0.0328069 0.0779889
0.553979 0.0332952 0.0819562
0.546334 0.0339666 0.0881361
0.532723 0.035172 0.100038
0.518074 0.0366369 0.112505
0.0514687 0.0683146 0.051667
0.0494545 0.0684062 0.0519417
0.0488289 0.0677195 0.0520027
0.0496681 0.0664988 0.0518654
0.0518196 0.0650492 0.0513313
0.0567178 0.064622 0.0504463
0.0659648 0.0638895 0.049485
0.0814984 0.0615244 0.0470893
0.10515 0.0587015 0.0448463
0.130922 0.0546578 0.0431983
0.160433 0.0489357 0.0415656
0.190768 0.0429694 0.0401617
0.22562 0.0390936 0.040589
0.266514 0.0361486 0.0420081
0.315984 0.0326238 0.0432441
0.361883 0.0302586 0.0435798
0.403388 0.0292363 0.0444495
0.438666 0.0279393 0.0459449
0.469673 0.0273442 0.048249
0.496269 0.0271763 0.0515297
0.519631 0.0275425 0.0564126
0.539666 0.0285496 0.0625315
0.555291 0.0314794 0.0705272
0.559411 0.0325017 0.073167
0.560113 0.0326238 0.0737163
0.560586 0.0326238 0.074342
0.560922 0.032578 0.0749065
0.561166 0.0325628 0.075288
0.559319 0.0327459 0.0769665
0.553674 0.0332341 0.0812238
0.545968 0.0339208 0.0871138
0.532387 0.0351263 0.0988632
0.517815 0.0365759 0.11107
0.0526894 0.0794842 0.0541238
0.0500191 0.0792859 0.0543374
0.0491493 0.0787366 0.0547341
0.0505226 0.0770428 0.0538033
0.0541848 0.0747845 0.0525063
0.0594644 0.0729686 0.0505379
0.0723278 0.0708476 0.0481117
0.0925307 0.0684825 0.0464485
0.114199 0.0664836 0.0457008
0.137865 0.0632029 0.0441901
0.163653 0.0579538 0.0433051
0.194476 0.0509499 0.042359
0.229404 0.0431525 0.0412146
0.268894 0.0372015 0.0419471
0.318944 0.0330816 0.0430152
0.363256 0.0304417 0.0438697
0.402686 0.0293889 0.0454871
0.43711 0.0281682 0.0476081
0.467781 0.0275883 0.0498207
0.49633 0.0272831 0.0528878
0.520592 0.0276951 0.0572519
0.539467 0.0283207 0.062623
0.553292 0.0309606 0.0694285
0.557198 0.0318608 0.0716259
0.558923 0.0323644 0.0727703
0.559701 0.0327001 0.0734264
0.560082 0.0326696 0.0738231
0.559457 0.0327153 0.0749065
0.558145 0.0328069 0.0763561
0.553735 0.0331731 0.0796674
0.548348 0.0336309 0.0831617
0.539193 0.0344244 0.0908827
0.530129 0.0352483 0.0988937
0.0596933 0.0899977 0.0519722
0.0543984 0.091249 0.053666
0.0511177 0.0922103 0.0552834
0.0514687 0.0911574 0.0556039
0.0545815 0.0890974 0.0549325
0.0603037 0.0865644 0.0527504
0.067689 0.0862135 0.0509499
0.0886854 0.0834821 0.0488441
0.113222 0.0808728 0.0486
0.13901 0.0788434 0.0478981
0.16556 0.074052 0.0464332
0.196719 0.0658274 0.045655
0.233082 0.0567483 0.0442817
0.281559 0.0431525 0.0420844
0.326665 0.0346532 0.0423743
0.367971 0.0310216 0.0435645
0.404532 0.0295872 0.0455482
0.437522 0.0283665 0.0486458
0.466484 0.0278019 0.051133
0.493736 0.0274968 0.0550698
0.517754 0.0280461 0.0599832
0.535027 0.0288243 0.0655985
0.549661 0.0314031 0.0732891
0.550561 0.0318151 0.0738384
0.551949 0.0322881 0.0747539
0.55288 0.0325475 0.0752422
0.553887 0.0328527 0.0761273
0.554101 0.033051 0.0767529
0.553979 0.0331731 0.0774548
0.5514 0.0333867 0.0796826
0.547082 0.0337682 0.0822614
0.538552 0.0345006 0.0893873
0.529397 0.0353246 0.0971542
0.062211 0.105333 0.0545663
0.0559548 0.106661 0.0559243
0.0521706 0.107439 0.0571756
0.0510109 0.107225 0.057847
0.0527199 0.106447 0.0577096
0.0581674 0.10454 0.0563058
0.0661479 0.103212 0.054963
0.0780499 0.10341 0.0535134
0.106325 0.100969 0.0504463
0.13695 0.0973678 0.0510872
0.168124 0.0932021 0.0506905
0.201694 0.084596 0.0489204
0.243168 0.0717937 0.0473945
0.287755 0.0592508 0.0457771
0.339223 0.0436408 0.043061
0.379355 0.034287 0.0433509
0.41062 0.0302892 0.044831
0.440864 0.0289921 0.0484474
0.467918 0.0280919 0.0516365
0.494072 0.027512 0.055787
0.517006 0.0282139 0.0612802
0.534218 0.0291142 0.0673075
0.547097 0.0314794 0.0746014
0.54757 0.031632 0.074815
0.548211 0.0319371 0.075227
0.549203 0.0323491 0.0760204
0.550072 0.032639 0.0765393
0.551003 0.032929 0.0771191
0.551522 0.0330968 0.0776226
0.549935 0.0333715 0.0793927
0.546319 0.0338293 0.0818036
0.538216 0.0345159 0.0887312
0.528847 0.0353857 0.0962081
0.0653849 0.122957 0.0583352
0.0592355 0.124239 0.0592355
0.0540627 0.125582 0.059968
0.0522774 0.125872 0.0603494
0.05243 0.125399 0.0600443
0.0569162 0.124102 0.0587472
0.0665599 0.122103 0.0568856
0.0782788 0.12166 0.0563211
0.0953384 0.122744 0.0556802
0.128252 0.119936 0.0519265
0.167712 0.11487 0.0540322
0.206546 0.10811 0.0536202
0.252216 0.0949569 0.0501564
0.302403 0.0776837 0.0487984
0.34699 0.0639811 0.0474708
0.391348 0.0447852 0.0441596
0.424445 0.0344396 0.0442817
0.450446 0.0311894 0.0473182
0.474784 0.0293126 0.0514534
0.496788 0.0280156 0.0557565
0.518074 0.0282444 0.0611734
0.534768 0.029221 0.0677501
0.547005 0.0314641 0.0745861
0.547036 0.0314794 0.0746471
0.547036 0.0314794 0.0746471
0.547662 0.0317082 0.0749371
0.548119 0.0319371 0.0752575
0.548699 0.0321508 0.0756847
0.549325 0.0324254 0.0762493
0.548012 0.0327916 0.0777752
0.544701 0.0332494 0.0808423
0.536263 0.0340581 0.0871748
0.527276 0.0349279 0.0949416
0.0690623 0.144137 0.0637217
0.0615702 0.145907 0.0644236
0.0563211 0.147387 0.0651408
0.0540932 0.147982 0.0644846
0.0533608 0.148287 0.064332
0.054078 0.147784 0.0637064
0.0588998 0.146578 0.0612039
0.0709087 0.14519 0.0593576
0.090837 0.145861 0.0598611
0.113771 0.146944 0.0591897
0.156451 0.143038 0.0546426
0.211063 0.135058 0.0563211
0.263951 0.12401 0.0556191
0.316121 0.107561 0.0512398
0.365728 0.0895247 0.0502632
0.403586 0.074876 0.0498054
0.438102 0.0561532 0.0486
0.465461 0.0397803 0.0482948
0.488502 0.0339208 0.0513771
0.507317 0.0302129 0.0554818
0.523796 0.0287785 0.0607767
0.538064 0.0295415 0.0681926
0.54641 0.0310063 0.0733654
0.546731 0.0311894 0.07393
0.546715 0.0311894 0.073991
0.546838 0.031281 0.0742199
0.546975 0.0314031 0.0744945
0.547036 0.0314794 0.0746471
0.547189 0.0315404 0.0747387
0.545846 0.0318303 0.076173
0.542153 0.0323644 0.0790875
0.533806 0.0332494 0.0848707
0.524758 0.034165 0.0925002
0.0718547 0.170993 0.0695506
0.0641642 0.172671 0.0703441
0.0581369 0.174014 0.0707866
0.0556802 0.174868 0.0695506
0.0544594 0.175723 0.0682841
0.0542916 0.176043 0.0670634
0.0547799 0.175662 0.0661631
0.0601053 0.174441 0.0637827
0.0759594 0.173754 0.0621653
0.104524 0.175891 0.0631266
0.134554 0.179019 0.0620432
0.195041 0.173877 0.0566262
0.27631 0.160372 0.0581064
0.336004 0.148592 0.0585946
0.386679 0.130129 0.0547189
0.429694 0.111559 0.0539712
0.462226 0.097322 0.0550088
0.487358 0.0822309 0.0565805
0.510399 0.0532998 0.0538186
0.526543 0.0396582 0.0571298
0.538613 0.033875 0.0619516
0.546853 0.0321813 0.0686961
0.549996 0.031754 0.0726177
0.548028 0.0311437 0.072694
0.547433 0.0310369 0.0728466
0.547768 0.0312047 0.0733501
0.547005 0.0311589 0.0733501
0.546929 0.0311742 0.0734875
0.546746 0.0311284 0.0734569
0.544701 0.0311894 0.0747692
0.540871 0.0314488 0.0773022
0.53225 0.0321508 0.0827039
0.522271 0.032929 0.0896468
0.0681315 0.203922 0.0722972
0.061387 0.205631 0.0727398
0.0562448 0.207034 0.0726635
0.0539712 0.208194 0.0712902
0.0525826 0.209216 0.0697795
0.0522927 0.210254 0.0673686
0.0524147 0.210605 0.0650492
0.0535134 0.209781 0.0636759
0.0599985 0.208408 0.0597086
0.0809644 0.209796 0.0576638
0.118761 0.217777 0.0614939
0.158099 0.226001 0.0627451
0.250996 0.222049 0.0579843
0.355184 0.206882 0.0637827
0.417945 0.195865 0.0662242
0.469749 0.17464 0.0669108
0.507073 0.15433 0.0663005
0.53463 0.138262 0.0694743
0.555093 0.124361 0.0717021
0.569497 0.10103 0.0734569
0.567346 0.0565652 0.0690929
0.564706 0.0433204 0.0742809
0.561257 0.0376593 0.0754253
0.558968 0.0359197 0.075288
0.556435 0.0349584 0.0749828
0.553399 0.0339361 0.0745708
0.550622 0.0330663 0.0738384
0.549874 0.0327459 0.0738842
0.549355 0.0324865 0.0740368
0.547539 0.032578 0.075227
0.544076 0.0328222 0.077409
0.53611 0.0334936 0.0820935
0.527199 0.034287 0.0889906
0.0633402 0.247807 0.0730449
0.0583047 0.249546 0.0734264
0.0546578 0.25095 0.0731365
0.0524758 0.25211 0.0721752
0.0508125 0.253452 0.0706798
0.050248 0.255177 0.0691691
0.0501106 0.256703 0.0662394
0.0503243 0.257176 0.0635538
0.0512093 0.256199 0.061799
0.0575265 0.255268 0.0562448
0.0856641 0.261341 0.0550393
0.136522 0.276432 0.0612497
0.194934 0.291402 0.0653239
0.323766 0.289631 0.0598611
0.43592 0.272755 0.0688945
0.500175 0.263401 0.0721752
0.55256 0.241398 0.0804761
0.593744 0.221073 0.0851759
0.623911 0.199329 0.0944533
0.646769 0.186313 0.10103
0.660548 0.162478 0.107927
0.636881 0.111727 0.0972152
0.605798 0.0759442 0.0905928
0.588891 0.0592355 0.0866865
0.581384 0.0532387 0.0855726
0.577157 0.0501869 0.0857404
0.573831 0.0482643 0.085893
0.571588 0.0470588 0.085771
0.568948 0.0459602 0.085008
0.566781 0.045182 0.0849928
0.564645 0.0446632 0.0853742
0.559319 0.0450141 0.0882277
0.552224 0.0458076 0.0923171
0.060441 0.299458 0.0769818
0.0561685 0.301091 0.0783093
0.0527199 0.302785 0.0789654
0.051133 0.30396 0.077821
0.049958 0.305547 0.0767987
0.0494087 0.307164 0.0750134
0.0490883 0.308568 0.0733349
0.0489357 0.310002 0.0699321
0.0491188 0.310597 0.0658579
0.0497749 0.309148 0.0635386
0.0575875 0.309041 0.054612
0.0959335 0.319707 0.0527047
0.159716 0.339803 0.0593729
0.251102 0.362844 0.066331
0.39942 0.361105 0.0606546
0.513542 0.345174 0.0749676
0.575113 0.337896 0.0805829
0.627298 0.317998 0.0901961
0.673426 0.293751 0.10222
0.709621 0.270085 0.114565
0.736049 0.257542 0.124956
0.749691 0.237018 0.141329
0.741436 0.210666 0.14905
0.726986 0.193027 0.146548
0.712123 0.179065 0.142153
0.698268 0.16408 0.134691
0.685176 0.149432 0.126009
0.673854 0.136522 0.118944
0.665187 0.128801 0.115251
0.66006 0.124392 0.113817
0.656977 0.121843 0.112795
0.653696 0.12192 0.114611
0.648569 0.123644 0.119783
0.0567636 0.352438 0.08159
0.0530861 0.354376 0.0841688
0.0505684 0.356344 0.0868544
0.0495766 0.357687 0.0862745
0.0487831 0.35903 0.0847486
0.0483711 0.360357 0.0822614
0.0481575 0.361456 0.0802014
0.048127 0.362936 0.0772564
0.0479286 0.364553 0.0729686
0.0480507 0.365087 0.068864
0.0488594 0.363256 0.0650645
0.0588235 0.364248 0.0524147
0.110475 0.379248 0.049958
0.199634 0.406516 0.0585031
0.32076 0.436454 0.0696574
0.471778 0.433982 0.0652476
0.580865 0.419654 0.0878767
0.640208 0.414542 0.0986038
0.689601 0.398505 0.107179
0.7393 0.372061 0.123934
0.778561 0.351202 0.136568
0.80148 0.332906 0.152239
0.809873 0.317998 0.164584
0.806638 0.307149 0.164828
0.802121 0.298177 0.163485
0.798215 0.29041 0.162631
0.794629 0.283986 0.162081
0.792355 0.279393 0.161959
0.789868 0.275563 0.161044
0.788663 0.272984 0.160845
0.788266 0.271962 0.160906
0.784695 0.273136 0.163867
0.778714 0.275761 0.170642
0.0546273 0.407156 0.0915389
0.0517739 0.409628 0.0971084
0.0498665 0.411902 0.1019
0.049012 0.413245 0.102144
0.0484016 0.414557 0.101411
0.0481575 0.415579 0.0982986
0.0480812 0.416449 0.0952163
0.0481575 0.417548 0.0913863
0.0483253 0.418921 0.0866255
0.0482948 0.420737 0.0821851
0.0485847 0.421042 0.0785229
0.0496834 0.418082 0.0708019
0.0663157 0.421134 0.0539406
0.140688 0.44065 0.0513619
0.269612 0.479393 0.0680705
0.398566 0.509758 0.0818341
0.538643 0.505272 0.0817121
0.640513 0.493095 0.112459
0.695277 0.489601 0.128664
0.741802 0.478523 0.139452
0.78677 0.454459 0.15581
0.824781 0.432517 0.173892
0.843595 0.412085 0.188281
0.843519 0.401587 0.188754
0.841642 0.395727 0.186465
0.839918 0.391455 0.184939
0.838346 0.388006 0.183062
0.837537 0.385626 0.182193
0.836957 0.384268 0.18172
0.836774 0.383963 0.181445
0.836713 0.384085 0.181277
0.833677 0.385519 0.185199
0.827436 0.388693 0.192599
0.057969 0.463935 0.123598
0.055024 0.466636 0.131655
0.052842 0.46894 0.13785
0.0517586 0.470558 0.139132
0.0510872 0.472236 0.13933
0.0511177 0.473365 0.137224
0.0511025 0.474281 0.132921
0.0512703 0.474678 0.125978
0.0514992 0.475074 0.118639
0.051957 0.476295 0.112108
0.0523995 0.47866 0.107469
0.052781 0.478264 0.103792
0.0547341 0.473259 0.0849317
0.0910048 0.479789 0.0632639
0.213199 0.507073 0.0656748
0.360586 0.556069 0.0962234
0.478172 0.578058 0.108202
0.599237 0.571817 0.111238
0.694743 0.56025 0.145678
0.743404 0.556893 0.169268
0.784451 0.550317 0.186282
0.819806 0.53283 0.197726
0.849119 0.511559 0.217319
0.861921 0.498085 0.224445
0.861708 0.492561 0.221592
0.861646 0.488563 0.220554
0.861006 0.484932 0.218982
0.860594 0.482231 0.217746
0.860182 0.480873 0.21706
0.860258 0.4804 0.21706
0.860182 0.480522 0.217029
0.85716 0.481971 0.221302
0.851438 0.484901 0.229908
0.0705577 0.521782 0.181201
0.0665141 0.525429 0.192126
0.0634928 0.527993 0.200381
0.0618601 0.530449 0.203449
0.0611276 0.532494 0.205188
0.0610513 0.533837 0.204013
0.0607004 0.534463 0.199634
0.0608072 0.534569 0.19234
0.0609598 0.534279 0.183261
0.0612192 0.533745 0.171359
0.0620432 0.534249 0.159808
0.0630655 0.53611 0.155108
0.0634623 0.534783 0.15227
0.0691234 0.528481 0.114672
0.145342 0.537881 0.0826581
0.306172 0.577646 0.101488
0.445106 0.62501 0.136934
0.546792 0.640818 0.14345
0.655192 0.633875 0.149004
0.741802 0.622477 0.192096
0.78677 0.619699 0.225956
0.820783 0.616754 0.247776
0.847257 0.608011 0.259251
0.865827 0.593988 0.265965
0.868208 0.587671 0.259495
0.869093 0.584237 0.25655
0.868727 0.581384 0.254292
0.868772 0.578912 0.252979
0.86923 0.57792 0.252598
0.869276 0.577646 0.252399
0.869398 0.578058 0.252903
0.866972 0.579217 0.257298
0.86244 0.581811 0.265339
0.094377 0.579095 0.250111
0.0894331 0.58294 0.26186
0.0847486 0.587182 0.272358
0.0829328 0.589746 0.276829
0.0818341 0.591669 0.280385
0.0817273 0.593164 0.280003
0.08159 0.593957 0.276905
0.0822614 0.594125 0.271839
0.0825055 0.593576 0.263325
0.0826581 0.592309 0.251911
0.0826734 0.590692 0.236088
0.0831464 0.590066 0.22237
0.0837415 0.589563 0.215396
0.0848707 0.587259 0.209949
0.100481 0.580636 0.155764
0.225376 0.593149 0.123171
0.39852 0.645731 0.167941
0.515175 0.686107 0.197803
0.607965 0.699489 0.196353
0.705013 0.692164 0.205432
0.783734 0.681071 0.254566
0.824063 0.679225 0.290547
0.85095 0.680476 0.316289
0.869429 0.679194 0.333242
0.8757 0.675685 0.334844
0.876051 0.67277 0.33164
0.875822 0.670787 0.329122
0.875334 0.66981 0.327108
0.875074 0.669184 0.326055
0.87512 0.669001 0.326009
0.87541 0.66949 0.326772
0.875151 0.670329 0.329168
0.874723 0.671763 0.333043
0.127047 0.633829 0.327001
0.123919 0.636667 0.3337
0.121263 0.639994 0.343175
0.118914 0.642481 0.348989
0.117769 0.644831 0.353399
0.117891 0.646296 0.353933
0.118608 0.647135 0.35259
0.119341 0.647272 0.348791
0.119341 0.646998 0.342702
0.119387 0.646082 0.333776
0.119265 0.644724 0.320714
0.119966 0.6421 0.30251
0.121096 0.639033 0.284703
0.121813 0.637293 0.279271
0.124956 0.632593 0.264179
0.169863 0.627543 0.20499
0.327901 0.650538 0.197452
0.474403 0.702358 0.248463
0.573098 0.738506 0.274266
0.662257 0.75314 0.271946
0.750149 0.748104 0.282521
0.819959 0.738064 0.32752
0.854917 0.737179 0.360586
0.87776 0.741451 0.387503
0.889418 0.74461 0.403021
0.889601 0.743053 0.401953
0.889204 0.741726 0.400473
0.888823 0.740978 0.399283
0.888731 0.740902 0.399008
0.888777 0.741176 0.399237
0.889403 0.741283 0.398398
0.890776 0.741451 0.39649
0.892638 0.741711 0.393408
0.175479 0.676951 0.383352
0.174136 0.678843 0.38761
0.171527 0.68188 0.397818
0.168811 0.684565 0.404822
0.167056 0.686778 0.409796
0.166842 0.687999 0.411429
0.167147 0.688731 0.410788
0.167727 0.688945 0.407782
0.16849 0.688594 0.404013
0.168719 0.687785 0.397818
0.168688 0.686244 0.388403
0.168276 0.683986 0.374746
0.168429 0.68069 0.355825
0.16759 0.67808 0.343679
0.169833 0.672343 0.325292
0.180911 0.666468 0.299016
0.270146 0.669886 0.251911
0.436484 0.70779 0.280125
0.551186 0.754452 0.331731
0.636347 0.786389 0.353735
0.717937 0.801144 0.351003
0.796338 0.798138 0.359884
0.856229 0.788357 0.398291
0.885908 0.788205 0.426383
0.901808 0.792004 0.445533
0.906126 0.793088 0.450126
0.905989 0.791821 0.448341
0.905165 0.791547 0.448447
0.904219 0.791745 0.450736
0.902678 0.792355 0.454612
0.90219 0.792966 0.456138
0.902754 0.793332 0.455573
0.904463 0.793561 0.452934
0.219226 0.712398 0.442176
0.218051 0.714305 0.446128
0.214389 0.717113 0.454307
0.211566 0.719387 0.461357
0.210346 0.72105 0.466682
0.210254 0.722042 0.468605
0.2103 0.722606 0.468559
0.210468 0.722652 0.466728
0.210468 0.722438 0.463798
0.210178 0.721874 0.459388
0.209857 0.720882 0.453346
0.209277 0.719387 0.443946
0.208545 0.716609 0.430411
0.207721 0.713436 0.417914
0.20618 0.709453 0.404578
0.213596 0.700435 0.364111
0.243732 0.698161 0.338384
0.375586 0.713039 0.322835
0.518349 0.755261 0.37351
0.612619 0.795499 0.422919
0.68661 0.82475 0.445014
0.76231 0.842069 0.447883
0.829923 0.841871 0.456794
0.881163 0.832181 0.487358
0.905989 0.83093 0.508766
0.914443 0.832105 0.518242
0.914549 0.831449 0.516808
0.91368 0.830976 0.516411
0.912612 0.831052 0.518242
0.911284 0.83154 0.521752
0.910796 0.832212 0.524605
0.910903 0.832868 0.525567
0.911589 0.833417 0.524208
0.253773 0.740658 0.496147
0.253132 0.741802 0.499168
0.249897 0.744076 0.506691
0.247105 0.745998 0.51252
0.244587 0.747433 0.517327
0.243992 0.748012 0.518608
0.243809 0.748272 0.518441
0.244068 0.748272 0.516823
0.244175 0.748089 0.514595
0.244144 0.747646 0.511299
0.244114 0.747066 0.506874
0.243748 0.745907 0.500496
0.242924 0.743984 0.490486
0.241169 0.741222 0.478233
0.239689 0.739513 0.472389
0.238621 0.731563 0.441382
0.259464 0.72256 0.390799
0.332799 0.730632 0.386709
0.47631 0.757046 0.408118
0.598123 0.799176 0.46836
0.68072 0.835721 0.517266
0.744091 0.861006 0.538308
0.804044 0.875135 0.542168
0.856336 0.877012 0.549966
0.896391 0.869581 0.569772
0.913878 0.867369 0.582406
0.917311 0.866484 0.584207
0.917189 0.865827 0.583825
0.916732 0.86569 0.585504
0.915999 0.865904 0.588739
0.915419 0.8663 0.59118
0.915465 0.86659 0.591821
0.916167 0.86688 0.591012
0.28072 0.75938 0.533867
0.280705 0.760296 0.536522
0.276905 0.762188 0.542794
0.273472 0.763943 0.54844
0.271382 0.765194 0.552666
0.270451 0.765759 0.554177
0.269612 0.765728 0.553567
0.269398 0.765515 0.551934
0.269139 0.765164 0.549752
0.268803 0.764645 0.546746
0.268345 0.763912 0.542794
0.267491 0.762814 0.537072
0.266331 0.761273 0.529564
0.263996 0.75877 0.518151
0.261173 0.756466 0.51191
0.259007 0.752453 0.495155
0.267552 0.74551 0.456657
0.324697 0.743252 0.419867
0.434546 0.764035 0.450401
0.564889 0.796063 0.492195
0.676966 0.838468 0.560952
0.749432 0.870542 0.606607
0.796262 0.889006 0.622217
0.839994 0.901213 0.632776
0.876097 0.904814 0.641703
0.902602 0.901381 0.656931
0.910399 0.899626 0.659144
0.910613 0.898817 0.657221
0.910124 0.898619 0.657465
0.909346 0.898802 0.659663
0.908721 0.899153 0.66125
0.908309 0.899565 0.662684
0.908476 0.899901 0.662669
0.281529 0.763714 0.546654
0.281193 0.763714 0.546563
0.278126 0.764477 0.549813
0.274907 0.765255 0.552865
0.27219 0.765881 0.55584
0.270756 0.766079 0.556268
0.269932 0.766064 0.555734
0.269688 0.765805 0.554009
0.269383 0.765484 0.551797
0.269017 0.764996 0.548714
0.268559 0.764263 0.544396
0.267765 0.76318 0.538903
0.266621 0.761654 0.531518
0.265354 0.75993 0.522133
0.264454 0.758953 0.517082
0.265202 0.758846 0.514214
0.272557 0.756191 0.490394
0.3149 0.752163 0.45185
0.419394 0.766491 0.464561
0.528161 0.792966 0.508247
0.654749 0.831373 0.569879
0.751156 0.872419 0.64007
0.80238 0.894942 0.67303
0.833478 0.906905 0.686534
0.863508 0.915892 0.700771
0.888334 0.92192 0.722133
0.899992 0.923201 0.734951
0.901152 0.923583 0.736843
0.900694 0.923766 0.738155
0.899794 0.924132 0.740673
0.899153 0.924331 0.742321
0.898848 0.924468 0.742916
0.898772 0.92462 0.743557
