luts/phantom/Eastman V-Log Legacy.cube
TITLE "Generated by Resolve"
LUT_3D_SIZE 5
0.0449836 0.0390021 0.043183
0.105913 0.0417945 0.0497139
0.350286 0.0407568 0.0390021
0.501152 0.0515602 0.0558328
0.47396 0.0516976 0.0567788
0.0705577 0.092134 0.0669261
0.102464 0.0922408 0.0622568
0.359136 0.0537881 0.0390021
0.486686 0.0607004 0.0487678
0.477256 0.0666667 0.0509499
0.110033 0.42855 0.186435
0.0955978 0.427817 0.161746
0.520363 0.494789 0.137072
0.800748 0.41593 0.20708
0.793179 0.404532 0.202792
0.240696 0.766674 0.522438
0.235248 0.757076 0.507073
0.276081 0.69778 0.381064
0.800458 0.817533 0.444572
0.856779 0.798169 0.451728
0.251133 0.779599 0.554238
0.245548 0.773709 0.528374
0.240131 0.744732 0.456031
0.779721 0.873625 0.603098
0.876326 0.893843 0.651896
0.0447242 0.0410773 0.0640116
0.111025 0.0481422 0.0771801
0.358999 0.0390021 0.0491493
0.500771 0.0390021 0.082536
0.491981 0.0443427 0.109697
0.066804 0.0913863 0.0840467
0.0966506 0.0902266 0.0929122
0.369558 0.0457923 0.0463722
0.495735 0.0390478 0.0629282
0.485817 0.0390021 0.0679942
0.116945 0.441184 0.239704
0.100038 0.431739 0.208621
0.520851 0.493843 0.146075
0.801099 0.402213 0.205005
0.790616 0.386709 0.198352
0.241978 0.769436 0.533242
0.235752 0.75758 0.516625
0.24387 0.69424 0.380499
0.792309 0.808225 0.428473
0.854124 0.787503 0.435721
0.253391 0.783963 0.566995
0.248829 0.779187 0.542855
0.237598 0.752071 0.470817
0.765408 0.869261 0.599069
0.875303 0.89398 0.652964
0.0390021 0.0652781 0.195422
0.0693065 0.0578012 0.239094
0.386694 0.0539559 0.241108
0.577844 0.0957961 0.291341
0.572381 0.109178 0.319097
0.0390021 0.0926833 0.21619
0.0390021 0.0769055 0.236469
0.397131 0.0595254 0.258259
0.584497 0.0965744 0.295109
0.578485 0.105684 0.315175
0.10956 0.462165 0.370214
0.103288 0.460441 0.37554
0.516533 0.530694 0.515282
0.825971 0.378912 0.418189
0.814633 0.363348 0.422477
0.240467 0.773907 0.578912
0.237705 0.763516 0.573495
0.272999 0.734264 0.509102
0.809506 0.827085 0.600458
0.876432 0.806363 0.601678
0.257786 0.797269 0.616358
0.258289 0.795193 0.608789
0.252216 0.786282 0.556878
0.754864 0.879347 0.729564
0.914366 0.937194 0.828824
0.0390021 0.107607 0.326085
0.0390021 0.108049 0.34612
0.413901 0.118349 0.466224
0.695293 0.214878 0.556832
0.74995 0.270848 0.631891
0.0390021 0.119295 0.339437
0.0390021 0.119738 0.347372
0.408682 0.13817 0.509255
0.720394 0.232792 0.586999
0.748959 0.270329 0.631662
0.0710918 0.44918 0.48574
0.0677958 0.437522 0.489387
0.318151 0.460624 0.658137
0.873549 0.4692 0.722667
0.86424 0.45182 0.711192
0.225849 0.764187 0.645335
0.221302 0.752987 0.639124
0.234562 0.739376 0.63064
0.815412 0.842451 0.81503
0.889494 0.805585 0.786465
0.254978 0.804044 0.680812
0.256931 0.803372 0.674281
0.258961 0.802915 0.65272
0.780346 0.912108 0.845823
0.926757 0.953368 0.917754
0.0390021 0.235599 0.446693
0.0390021 0.254124 0.461616
0.248112 0.326818 0.64683
0.834485 0.41062 0.774029
0.834943 0.410483 0.774426
0.0390021 0.243458 0.451118
0.0390021 0.235599 0.446693
0.252064 0.326848 0.648981
0.834485 0.41062 0.774029
0.834485 0.41062 0.774029
0.0733043 0.469978 0.569589
0.0737926 0.472206 0.577615
0.180179 0.494774 0.653742
0.880629 0.543465 0.844831
0.88835 0.531853 0.832334
0.189883 0.747707 0.673854
0.179126 0.732723 0.666972
0.160845 0.700374 0.662135
0.72221 0.809308 0.859953
0.903792 0.821561 0.878965
0.241215 0.802365 0.705547
0.241566 0.802197 0.70631
0.246952 0.803067 0.702068
0.674571 0.903197 0.845457
0.926207 0.953079 0.924208
