luts/phantom/Eterna V-Log Legacy.cube
TITLE "Generated by Resolve"
LUT_3D_SIZE 9
0.0303807 0.0569314 0.0569314
0.0577859 0.0595407 0.0557565
0.108156 0.0631113 0.0538643
0.196246 0.070573 0.0705577
0.360967 0.0838636 0.114656
0.525292 0.0935225 0.172793
0.549676 0.0936294 0.187213
0.559625 0.0924849 0.194781
0.589364 0.0861067 0.20856
0.0331579 0.0601663 0.0582589
0.0373083 0.0609751 0.0582589
0.0967575 0.0669108 0.0562142
0.202945 0.0670634 0.0681621
0.367605 0.0741283 0.104051
0.532586 0.093019 0.167681
0.545663 0.0941634 0.178531
0.551797 0.0926528 0.184253
0.581796 0.0849012 0.197299
0.0530404 0.116304 0.0791028
0.041886 0.12192 0.0767224
0.0995956 0.112886 0.0705119
0.232654 0.0901198 0.0747082
0.384405 0.0745403 0.108553
0.541253 0.0865949 0.163622
0.546868 0.0916915 0.169665
0.550362 0.0928359 0.173587
0.567544 0.0887922 0.18088
0.0736858 0.261158 0.134554
0.055314 0.286229 0.123049
0.0538643 0.296681 0.107271
0.25716 0.279347 0.0843519
0.550546 0.22739 0.135943
0.660517 0.129 0.157092
0.625376 0.0928054 0.157168
0.611933 0.0869306 0.159304
0.607584 0.0822461 0.160861
0.0995193 0.569238 0.288579
0.0873579 0.600946 0.294942
0.0905165 0.616693 0.286076
0.0924086 0.603891 0.229007
0.528145 0.573678 0.13521
0.849958 0.564141 0.229831
0.911971 0.517067 0.256031
0.907012 0.49218 0.251148
0.899855 0.466957 0.244526
0.230274 0.848112 0.561456
0.216922 0.863737 0.570932
0.212238 0.87039 0.569467
0.212863 0.86598 0.53489
0.249363 0.842725 0.39617
0.761303 0.816281 0.350301
0.931029 0.809293 0.406744
0.926589 0.788754 0.379278
0.924788 0.772 0.362402
0.267811 0.904356 0.665309
0.264897 0.905608 0.662593
0.262547 0.906874 0.658274
0.26334 0.907942 0.646174
0.267811 0.910994 0.60737
0.638651 0.934127 0.616266
0.93228 0.943282 0.705333
0.955245 0.934905 0.687663
0.952102 0.92517 0.646204
0.267048 0.903929 0.671595
0.27097 0.902983 0.667628
0.275486 0.90193 0.662837
0.2766 0.902693 0.653117
0.278111 0.905852 0.621942
0.379324 0.920089 0.554574
0.890623 0.941024 0.726528
0.963592 0.951415 0.80499
0.95993 0.953201 0.805097
0.253025 0.908049 0.676539
0.255238 0.907744 0.672557
0.268025 0.904158 0.666545
0.275395 0.902586 0.657435
0.275364 0.905379 0.633692
0.281651 0.91223 0.594385
0.78349 0.937606 0.670939
0.954681 0.951247 0.784405
0.955962 0.954986 0.805249
0.0310674 0.0572671 0.0603494
0.0576791 0.0605783 0.0675822
0.106081 0.0651255 0.0708629
0.196017 0.0733959 0.0888991
0.365698 0.0806897 0.128939
0.533944 0.0877852 0.185016
0.580789 0.0889601 0.206836
0.586374 0.08925 0.213107
0.611551 0.0843824 0.225666
0.032929 0.0598764 0.0585031
0.034287 0.0575113 0.0579538
0.0995499 0.0647135 0.0639811
0.209995 0.0720836 0.0828107
0.380728 0.0808576 0.124956
0.554574 0.0878614 0.184726
0.573022 0.0877699 0.19762
0.582284 0.0874647 0.204791
0.604257 0.0828717 0.215656
0.0521401 0.110826 0.0875868
0.0463874 0.114061 0.0831922
0.095964 0.109422 0.0709239
0.232242 0.0823072 0.0750134
0.384848 0.074876 0.114397
0.554726 0.0899214 0.177371
0.563821 0.0897383 0.184894
0.56527 0.0893111 0.1879
0.580591 0.0852674 0.195163
0.0696574 0.251972 0.148425
0.0581216 0.273762 0.140826
0.0565957 0.290349 0.119524
0.255283 0.277134 0.0840772
0.541711 0.226291 0.134325
0.670726 0.139452 0.157717
0.634348 0.0953536 0.158541
0.619974 0.0899825 0.159838
0.612146 0.0826734 0.161364
0.0911116 0.553292 0.291646
0.0771954 0.578546 0.293828
0.0814374 0.59556 0.284672
0.0866712 0.59469 0.224781
0.519875 0.568032 0.130922
0.844007 0.560327 0.226398
0.912398 0.521202 0.256565
0.908141 0.494865 0.251957
0.900038 0.467231 0.244434
0.220859 0.837522 0.55584
0.21004 0.85272 0.562417
0.205035 0.857832 0.557031
0.206485 0.855299 0.520684
0.242329 0.839231 0.395911
0.757778 0.81297 0.343587
0.929519 0.806226 0.400763
0.925765 0.787045 0.375814
0.923858 0.770474 0.359533
0.264912 0.904753 0.670573
0.263676 0.905516 0.667323
0.262516 0.906447 0.662089
0.263493 0.907759 0.647364
0.26804 0.910948 0.607126
0.626444 0.933806 0.612863
0.930526 0.942565 0.698787
0.954696 0.933089 0.679591
0.951705 0.923934 0.641184
0.266377 0.903517 0.677592
0.271504 0.902205 0.672892
0.275608 0.901396 0.667216
0.276646 0.902419 0.655161
0.278187 0.905943 0.621012
0.375875 0.920119 0.55938
0.887297 0.940719 0.724422
0.963394 0.951522 0.804974
0.959701 0.953307 0.805112
0.253315 0.907301 0.682872
0.256031 0.906844 0.678676
0.268498 0.903426 0.671626
0.275441 0.90219 0.660609
0.27538 0.90544 0.633082
0.291203 0.913817 0.589654
0.775143 0.937591 0.667445
0.954009 0.951064 0.782681
0.955962 0.954986 0.805249
0.0331579 0.0602884 0.0851759
0.0638132 0.0616312 0.0867628
0.11603 0.0678874 0.0882277
0.206302 0.0751049 0.102693
0.364874 0.0818647 0.137987
0.530159 0.0892958 0.190692
0.591974 0.0903792 0.218677
0.605341 0.0916915 0.229831
0.633722 0.0875257 0.246677
0.037232 0.0679637 0.0720073
0.033814 0.0631113 0.0895094
0.1075 0.0674754 0.0881666
0.21323 0.0746014 0.100313
0.373098 0.0806287 0.136217
0.546014 0.0881819 0.193225
0.591104 0.0898909 0.216785
0.60679 0.0907912 0.22974
0.635157 0.0869154 0.247013
0.0520333 0.109102 0.0979934
0.0473487 0.110521 0.102174
0.0915541 0.106035 0.103212
0.243366 0.0912337 0.105943
0.397284 0.0827192 0.139422
0.555306 0.0892042 0.193103
0.579858 0.0901198 0.208286
0.587762 0.0908522 0.215824
0.609949 0.0879377 0.228809
0.0707561 0.242298 0.163439
0.0608835 0.262913 0.165759
0.0608835 0.2766 0.148821
0.258427 0.274525 0.0999313
0.534051 0.219944 0.140536
0.653758 0.124529 0.162554
0.644541 0.0989242 0.17792
0.624125 0.0936904 0.180377
0.617807 0.0924849 0.187228
0.0832227 0.531624 0.303456
0.0691081 0.555383 0.312016
0.072282 0.572244 0.302678
0.0845655 0.579721 0.226886
0.512291 0.559274 0.126482
0.827161 0.551202 0.219028
0.912383 0.514626 0.256504
0.907652 0.488396 0.251621
0.8981 0.458534 0.243015
0.210208 0.817365 0.554482
0.19791 0.829297 0.559152
0.191165 0.830839 0.546746
0.192767 0.830304 0.50515
0.227695 0.828611 0.385901
0.746212 0.80058 0.325673
0.92813 0.798611 0.390738
0.925032 0.783566 0.371466
0.923095 0.767025 0.355505
0.264866 0.903334 0.684001
0.263935 0.903914 0.681575
0.262943 0.904891 0.675425
0.263539 0.906706 0.656748
0.268528 0.910384 0.610468
0.603387 0.932708 0.604959
0.926146 0.939712 0.681743
0.954162 0.929213 0.663584
0.951308 0.92047 0.629191
0.266133 0.901793 0.694133
0.26862 0.901366 0.689937
0.276127 0.899489 0.682429
0.277226 0.900908 0.666362
0.278614 0.905058 0.627161
0.384298 0.921065 0.566537
0.880522 0.940154 0.72047
0.963546 0.951446 0.804974
0.959731 0.953292 0.805112
0.254154 0.905196 0.700389
0.254398 0.905531 0.696452
0.269856 0.901122 0.687968
0.275792 0.900618 0.673564
0.275273 0.904646 0.640391
0.296605 0.914687 0.585351
0.763363 0.937011 0.662211
0.952056 0.950652 0.778256
0.95555 0.955184 0.805219
0.0371252 0.0701457 0.141207
0.0552987 0.0702373 0.161669
0.134691 0.0726635 0.133791
0.23827 0.0809491 0.135607
0.389929 0.0856184 0.162295
0.552361 0.0922408 0.211765
0.619074 0.0951247 0.244587
0.638788 0.0980392 0.265415
0.671763 0.0954147 0.292821
0.0370642 0.0745403 0.119738
0.0372473 0.0729839 0.149584
0.108125 0.0711681 0.174289
0.241978 0.0810254 0.143648
0.38909 0.085008 0.163409
0.56109 0.0932326 0.219608
0.63386 0.0972 0.260014
0.657267 0.100832 0.287129
0.689708 0.0990616 0.317601
0.051133 0.114061 0.123507
0.0455634 0.113985 0.150317
0.0472267 0.0991379 0.187915
0.260975 0.0871595 0.166522
0.409064 0.0897078 0.180682
0.582467 0.0969558 0.236011
0.643076 0.101183 0.27396
0.66157 0.105531 0.298405
0.687465 0.10486 0.324178
0.0704204 0.23328 0.190768
0.0614176 0.248951 0.208484
0.0606851 0.260975 0.222965
0.258015 0.267506 0.24715
0.551827 0.229007 0.243259
0.7019 0.165194 0.267628
0.681056 0.118151 0.265324
0.669947 0.114092 0.274708
0.670817 0.104692 0.283879
0.074815 0.505928 0.335866
0.0602426 0.528847 0.358862
0.0654002 0.543969 0.367407
0.0669566 0.548226 0.312963
0.51162 0.552972 0.22179
0.840574 0.525414 0.311528
0.92401 0.493065 0.335454
0.922087 0.474189 0.336858
0.916808 0.441474 0.328817
0.198917 0.790417 0.569955
0.184588 0.79852 0.579461
0.177813 0.796551 0.571664
0.17528 0.79585 0.534646
0.223224 0.806119 0.424857
0.737026 0.787854 0.376959
0.93817 0.785107 0.471153
0.939437 0.771801 0.465553
0.93843 0.754406 0.449744
0.275349 0.896757 0.708843
0.257649 0.902647 0.713298
0.263371 0.901228 0.70782
0.264836 0.902861 0.688426
0.268254 0.906355 0.642878
0.592264 0.932113 0.617151
0.917418 0.932143 0.671016
0.955993 0.923064 0.677073
0.954238 0.916548 0.655604
0.267872 0.897566 0.724788
0.258625 0.900847 0.725582
0.280278 0.894026 0.71606
0.279301 0.896406 0.699397
0.278584 0.901122 0.660136
0.409552 0.921416 0.597864
0.87248 0.939162 0.734173
0.965316 0.952361 0.826062
0.961227 0.954696 0.831815
0.256413 0.900755 0.732754
0.254978 0.901518 0.730831
0.258717 0.900877 0.7252
0.27718 0.896284 0.707027
0.276555 0.900282 0.673945
0.31783 0.915908 0.614298
0.759976 0.937209 0.690105
0.948684 0.950423 0.78613
0.957168 0.955993 0.825132
0.0339361 0.0831922 0.267475
0.0351873 0.0862593 0.295766
0.106325 0.0767224 0.302968
0.287938 0.0887465 0.243519
0.438758 0.100725 0.24155
0.609262 0.10161 0.273472
0.66067 0.105455 0.297581
0.67953 0.108568 0.321675
0.712261 0.108293 0.358694
0.0380102 0.0849012 0.229496
0.0341192 0.0842603 0.263539
0.0502327 0.0846113 0.300023
0.283162 0.0869764 0.27512
0.434714 0.101091 0.253162
0.615717 0.103716 0.287373
0.68098 0.109636 0.325414
0.704479 0.116838 0.362905
0.733715 0.116197 0.408255
0.0487068 0.111711 0.205325
0.0404822 0.107836 0.244831
0.032517 0.0928664 0.286091
0.235462 0.0804913 0.33901
0.453376 0.105989 0.284031
0.627756 0.110002 0.308629
0.693004 0.118654 0.352499
0.710826 0.124376 0.390753
0.734356 0.121859 0.432822
0.0599222 0.228824 0.249165
0.0439765 0.240482 0.283558
0.0398413 0.247532 0.326085
0.0941329 0.228687 0.390906
0.548867 0.197864 0.389487
0.686076 0.159915 0.359625
0.698299 0.123674 0.356527
0.70489 0.125536 0.381994
0.724666 0.122942 0.413931
0.0732891 0.481987 0.390021
0.0589456 0.49807 0.41767
0.0622873 0.51162 0.441108
0.0628061 0.511009 0.445914
0.505196 0.529656 0.491768
0.839689 0.496742 0.485054
0.934768 0.468879 0.501457
0.93402 0.455055 0.514656
0.928908 0.425483 0.515816
0.196979 0.755779 0.593149
0.173083 0.763821 0.607858
0.16672 0.760555 0.611337
0.163653 0.754803 0.593454
0.252232 0.769787 0.546563
0.733242 0.770047 0.526787
0.943008 0.759579 0.582086
0.947936 0.74905 0.588083
0.946822 0.734859 0.57821
0.275059 0.889769 0.736217
0.257176 0.896544 0.745007
0.253162 0.895705 0.743404
0.257923 0.888426 0.721309
0.250187 0.886778 0.67985
0.602518 0.922469 0.677668
0.919997 0.922606 0.735058
0.95996 0.92221 0.770642
0.957458 0.919768 0.764111
0.270787 0.891646 0.760372
0.261555 0.894545 0.764721
0.256184 0.896681 0.763989
0.276936 0.891493 0.744533
0.2822 0.893782 0.712291
0.449302 0.922194 0.698863
0.862272 0.941207 0.814755
0.969177 0.956283 0.905318
0.966583 0.959274 0.918151
0.271702 0.890181 0.768292
0.262669 0.893156 0.771847
0.255283 0.896025 0.771298
0.272145 0.891905 0.75462
0.280339 0.892927 0.724208
0.371252 0.917815 0.706188
0.808484 0.941451 0.810025
0.954986 0.954147 0.881712
0.964645 0.959564 0.913664
0.0268864 0.114351 0.384695
0.0279088 0.124468 0.412573
0.0511482 0.124804 0.436484
0.24773 0.0961624 0.440009
0.499733 0.122713 0.395346
0.685359 0.119524 0.39678
0.715023 0.123857 0.399268
0.71931 0.1243 0.408896
0.738781 0.121019 0.439445
0.0254063 0.10602 0.358434
0.0255283 0.114015 0.386267
0.027512 0.123095 0.411231
0.163851 0.105699 0.446921
0.499947 0.12578 0.422126
0.689433 0.120485 0.417166
0.724376 0.125917 0.428153
0.730694 0.12694 0.450538
0.752636 0.123781 0.495735
0.0343938 0.111543 0.320424
0.0254978 0.115633 0.358343
0.0256352 0.115618 0.385534
0.0812085 0.120302 0.439002
0.507362 0.130785 0.460868
0.685389 0.1252 0.430533
0.722026 0.129976 0.443427
0.72961 0.131853 0.474067
0.75082 0.130739 0.523705
0.0489509 0.220844 0.352483
0.0392615 0.223209 0.387228
0.0395972 0.222705 0.419638
0.039292 0.20412 0.452323
0.475639 0.164858 0.543618
0.69073 0.143114 0.45716
0.721691 0.13109 0.440925
0.727214 0.132692 0.471443
0.745541 0.133562 0.511559
0.0717174 0.46923 0.470665
0.0522011 0.479835 0.497993
0.0483253 0.490883 0.52372
0.0392309 0.490333 0.551247
0.315969 0.499947 0.670085
0.837186 0.460426 0.647745
0.937545 0.433204 0.626444
0.931991 0.410849 0.634104
0.925734 0.381353 0.64741
0.190417 0.729809 0.635126
0.165011 0.73228 0.647196
0.157702 0.726986 0.651606
0.155093 0.718166 0.648524
0.204135 0.720546 0.650584
0.721096 0.740978 0.705089
0.937835 0.725795 0.702724
0.952071 0.713695 0.71075
0.952148 0.7037 0.714305
0.271977 0.878309 0.76231
0.253132 0.88333 0.769955
0.242313 0.87924 0.769284
0.239429 0.866606 0.753063
0.242695 0.858732 0.727153
0.628672 0.902617 0.766003
0.916747 0.911284 0.806058
0.957321 0.916732 0.841764
0.9552 0.914 0.843778
0.294743 0.879133 0.788937
0.268284 0.887999 0.800443
0.259586 0.890913 0.803967
0.264195 0.890227 0.79234
0.284413 0.88658 0.764141
0.448859 0.91986 0.77789
0.884108 0.94493 0.881041
0.973526 0.958358 0.941421
0.975174 0.95964 0.947692
0.277073 0.884245 0.806806
0.268818 0.886809 0.81297
0.261509 0.889204 0.816205
0.262409 0.889586 0.807446
0.280934 0.885466 0.778134
0.369436 0.912184 0.782727
0.871366 0.945434 0.89189
0.967498 0.957382 0.941527
0.971466 0.962921 0.954803
0.0390021 0.163043 0.505943
0.0402228 0.178164 0.5449
0.0432746 0.193698 0.576669
0.124483 0.186358 0.594232
0.553262 0.15613 0.609918
0.757412 0.155947 0.570443
0.752911 0.143053 0.541207
0.747875 0.142504 0.529091
0.762524 0.137713 0.548943
0.0378271 0.151171 0.472084
0.0369726 0.163897 0.512718
0.0404059 0.179522 0.548852
0.0454261 0.189914 0.57998
0.488304 0.168658 0.654215
0.779675 0.173648 0.615549
0.776516 0.163165 0.589685
0.778073 0.162707 0.592798
0.795834 0.16492 0.62771
0.0362402 0.144335 0.436805
0.0347906 0.154299 0.473045
0.0368048 0.163485 0.51107
0.0405127 0.179995 0.549493
0.382361 0.187778 0.673777
0.792737 0.192142 0.654612
0.789273 0.181552 0.615747
0.792645 0.183261 0.623178
0.811383 0.19144 0.663539
0.0505226 0.215122 0.445212
0.0413214 0.219867 0.481971
0.0418402 0.218265 0.507118
0.0430152 0.216281 0.539696
0.234791 0.205676 0.637598
0.773602 0.201694 0.676768
0.772961 0.172 0.585184
0.772015 0.170153 0.583246
0.794873 0.177432 0.628489
0.0507362 0.473381 0.561196
0.0330358 0.478569 0.589776
0.0319066 0.47837 0.609659
0.0352636 0.472145 0.636286
0.0960861 0.448402 0.704219
0.766033 0.435157 0.836149
0.930465 0.408988 0.728664
0.93109 0.40943 0.718318
0.925048 0.382437 0.73727
0.18674 0.712947 0.691722
0.154055 0.714458 0.705699
0.144533 0.703929 0.705791
0.134676 0.693355 0.708003
0.115343 0.673167 0.71902
0.598627 0.717266 0.838575
0.934539 0.696056 0.816541
0.954543 0.684153 0.807843
0.954345 0.666911 0.814084
0.281651 0.860334 0.788647
0.247959 0.864881 0.797406
0.235538 0.858244 0.795361
0.226078 0.846006 0.785443
0.22855 0.830823 0.769451
0.582467 0.877256 0.828199
0.907332 0.897154 0.882048
0.963241 0.895735 0.88455
0.96051 0.894789 0.888258
0.300633 0.874708 0.821271
0.274067 0.883513 0.832563
0.265171 0.886534 0.835645
0.263874 0.887526 0.829145
0.275151 0.884688 0.809461
0.377005 0.910277 0.826917
0.891981 0.945418 0.917876
0.977081 0.956359 0.948333
0.976593 0.958251 0.95256
0.29807 0.874296 0.835004
0.276188 0.881254 0.846738
0.267521 0.884001 0.852064
0.266835 0.884794 0.847456
0.272831 0.884321 0.829175
0.378088 0.910109 0.844572
0.871611 0.946395 0.922713
0.968963 0.959686 0.954955
0.973236 0.963989 0.962844
0.0541695 0.251865 0.657969
0.0537423 0.265248 0.676585
0.0545205 0.270436 0.682658
0.0589303 0.29102 0.707332
0.404257 0.312078 0.841077
0.866484 0.293141 0.833722
0.880293 0.286152 0.81297
0.870253 0.266468 0.786068
0.859297 0.248615 0.76405
0.0489967 0.226474 0.629435
0.052491 0.256977 0.668254
0.0536965 0.266606 0.678248
0.0568551 0.281773 0.697078
0.31928 0.332097 0.835355
0.863798 0.327779 0.874144
0.893919 0.328801 0.860273
0.89131 0.315679 0.847211
0.887541 0.302373 0.836683
0.0457771 0.199496 0.576242
0.0471199 0.220737 0.616785
0.05243 0.25539 0.666148
0.0540627 0.26807 0.679911
0.188251 0.322332 0.789822
0.818357 0.349798 0.896635
0.896147 0.356634 0.877714
0.894133 0.338643 0.860822
0.893431 0.325689 0.856901
0.046067 0.241184 0.564279
0.0463569 0.252476 0.595239
0.0482643 0.261295 0.628382
0.0512093 0.273243 0.661814
0.0583505 0.292668 0.706172
0.636118 0.350607 0.902373
0.893858 0.329809 0.856657
0.883864 0.299138 0.817197
0.879408 0.28278 0.809415
0.0487526 0.48365 0.66865
0.0476692 0.48571 0.689189
0.0515908 0.478477 0.705379
0.0554665 0.465415 0.718578
0.0649882 0.442283 0.744274
0.487556 0.485725 0.912718
0.932311 0.446525 0.878614
0.924315 0.40325 0.826947
0.92105 0.386038 0.82327
0.150256 0.706127 0.747738
0.131502 0.703441 0.756756
0.120455 0.690822 0.756069
0.110948 0.674098 0.755398
0.106142 0.648859 0.767102
0.423148 0.684047 0.89012
0.882918 0.680766 0.927413
0.952682 0.66508 0.884581
0.952178 0.666041 0.879194
0.269306 0.849592 0.822721
0.241566 0.851133 0.831052
0.232914 0.841917 0.827863
0.222065 0.827146 0.82002
0.20827 0.808454 0.813169
0.348592 0.835996 0.865232
0.818021 0.878965 0.922835
0.956374 0.883864 0.919585
0.956985 0.879576 0.915999
0.293751 0.873259 0.854459
0.272312 0.880232 0.863584
0.268482 0.881636 0.864439
0.268193 0.882704 0.859159
0.267048 0.884565 0.848722
0.294774 0.900236 0.860059
0.833967 0.942809 0.931884
0.965087 0.958434 0.957092
0.973007 0.958038 0.95639
0.292531 0.871199 0.864363
0.272847 0.876997 0.873487
0.266621 0.878508 0.876646
0.268757 0.879637 0.873976
0.268559 0.881926 0.86334
0.302373 0.903746 0.876158
0.818158 0.947463 0.937224
0.962997 0.964294 0.963317
0.972747 0.964691 0.964019
0.0541695 0.268559 0.680293
0.0541543 0.268559 0.680323
0.0541543 0.268559 0.680323
0.0575418 0.284398 0.700893
0.295186 0.330831 0.828214
0.824857 0.352071 0.898604
0.89659 0.361563 0.894759
0.89659 0.361563 0.894759
0.896574 0.361578 0.894392
0.0541543 0.268559 0.680323
0.0541543 0.268559 0.680323
0.0541543 0.268559 0.680323
0.0549783 0.27422 0.687327
0.192569 0.322606 0.791684
0.800656 0.350286 0.900313
0.89659 0.361563 0.894759
0.89659 0.361563 0.894759
0.896574 0.361578 0.894331
0.0549477 0.277668 0.687388
0.0549172 0.277134 0.686976
0.0543526 0.270634 0.68191
0.0541543 0.268559 0.680323
0.0727092 0.304479 0.729473
0.715709 0.349386 0.903441
0.89659 0.361563 0.894759
0.89659 0.361563 0.894759
0.89659 0.361563 0.894743
0.0520333 0.29839 0.678401
0.0549172 0.317632 0.700221
0.0608072 0.342687 0.727062
0.0601968 0.333608 0.723369
0.0575265 0.295842 0.703914
0.500633 0.345434 0.885512
0.89659 0.361563 0.894759
0.89659 0.361563 0.894759
0.89659 0.361563 0.894759
0.0684825 0.498177 0.743755
0.0735637 0.50222 0.753841
0.0779278 0.500923 0.764721
0.0812695 0.493767 0.774197
0.0824598 0.47422 0.780621
0.294163 0.484001 0.876936
0.889174 0.460807 0.927428
0.917067 0.437369 0.915816
0.914778 0.42388 0.911376
0.129763 0.706294 0.794293
0.129717 0.701839 0.798688
0.128054 0.692073 0.801465
0.12369 0.674952 0.801526
0.118349 0.644694 0.806821
0.167361 0.634089 0.848402
0.704982 0.682612 0.94876
0.944961 0.659846 0.942916
0.946883 0.639841 0.938293
0.235981 0.846387 0.856748
0.229252 0.840818 0.856565
0.219959 0.831662 0.853666
0.206271 0.817258 0.848127
0.184115 0.791852 0.840055
0.176104 0.769253 0.848981
0.670146 0.841291 0.937911
0.937957 0.874571 0.944717
0.947143 0.865034 0.938796
0.26302 0.876768 0.885771
0.262516 0.876631 0.886473
0.262531 0.876631 0.886351
0.263874 0.877165 0.883619
0.266361 0.878065 0.877684
0.262196 0.873091 0.872953
0.665919 0.92488 0.932479
0.944472 0.952453 0.956191
0.961883 0.960143 0.961517
0.263401 0.874983 0.888991
0.260853 0.875883 0.889906
0.260716 0.875837 0.890105
0.2607 0.875837 0.890135
0.263523 0.877028 0.884489
0.272541 0.883894 0.880629
0.647501 0.936553 0.932189
0.956634 0.962585 0.96228
0.9673 0.96672 0.966674
