luts/phantom/Eterna V-Log Legacy.cube
TITLE "Generated by Resolve"
LUT_3D_SIZE 33
0.0303807 0.0569314 0.0569314
0.030457 0.0568856 0.0568093
0.0307927 0.056733 0.05626
0.0442206 0.0585946 0.0572366
0.0577859 0.0595407 0.0557565
0.0729839 0.0606851 0.0543069
0.0852522 0.0609445 0.0529335
0.0965133 0.0618601 0.0527657
0.108156 0.0631113 0.0538643
0.122942 0.0642863 0.0557107
0.141253 0.066453 0.0598001
0.164889 0.0683146 0.0640574
0.196246 0.070573 0.0705577
0.234882 0.0734875 0.0794385
0.277333 0.0757916 0.0886549
0.320714 0.079408 0.101152
0.360967 0.0838636 0.114656
0.399451 0.0887007 0.128618
0.438621 0.0909895 0.142107
0.479637 0.0924392 0.156466
0.525292 0.0935225 0.172793
0.542611 0.0938125 0.180789
0.547097 0.0937667 0.184009
0.548257 0.0937362 0.185809
0.549676 0.0936294 0.187213
0.55021 0.093492 0.188525
0.552071 0.0933547 0.190265
0.555444 0.09308 0.192401
0.559625 0.0924849 0.194781
0.565499 0.0913405 0.197559
0.572763 0.0898299 0.200824
0.580682 0.0880903 0.204593
0.589364 0.0861067 0.20856
0.0315251 0.0563821 0.0551003
0.0307622 0.0567483 0.0563058
0.0307469 0.0567636 0.0563516
0.0391546 0.0580453 0.0564889
0.0524453 0.0596323 0.0555581
0.0670787 0.0608835 0.0540017
0.080766 0.0615854 0.0523842
0.0929885 0.06215 0.0511025
0.105669 0.0628519 0.0509194
0.120134 0.0630198 0.0516518
0.139391 0.0634165 0.0542763
0.164004 0.0654459 0.0599985
0.195438 0.068574 0.0679789
0.234638 0.0707866 0.0757153
0.278386 0.0737926 0.0853285
0.320897 0.0766918 0.0976272
0.360632 0.0808118 0.110689
0.400488 0.0863355 0.125917
0.440513 0.0905776 0.140459
0.483635 0.0926986 0.155734
0.529351 0.0938888 0.172122
0.544335 0.0940261 0.179553
0.5467 0.0939193 0.18175
0.54699 0.0938125 0.183368
0.547219 0.0937209 0.184787
0.547951 0.0936751 0.186191
0.549477 0.093492 0.187442
0.551904 0.0930037 0.189181
0.556069 0.0921035 0.191455
0.562097 0.0910201 0.194247
0.56965 0.0895094 0.197864
0.577905 0.0877852 0.201526
0.58674 0.085832 0.205554
0.0314336 0.0564279 0.0552529
0.0307012 0.0567788 0.0564279
0.0306249 0.0568093 0.0565347
0.0349584 0.0574655 0.056611
0.0476692 0.0594492 0.0562905
0.06215 0.0608988 0.0552224
0.0766918 0.0616922 0.0538033
0.0906081 0.0623331 0.0527199
0.104494 0.0630808 0.0522469
0.120409 0.0632334 0.0526894
0.140337 0.0634623 0.0549325
0.165408 0.0648814 0.0599527
0.197543 0.0674754 0.0671397
0.236362 0.0691081 0.0739605
0.279423 0.0715038 0.0826734
0.321523 0.0742809 0.0939345
0.362142 0.0788128 0.107866
0.401343 0.0836347 0.122576
0.442176 0.0878462 0.137835
0.487449 0.0921035 0.154879
0.529595 0.0939651 0.170611
0.545586 0.0941787 0.178408
0.54612 0.0940566 0.179934
0.546578 0.0939498 0.181353
0.546868 0.0938582 0.182712
0.547097 0.0937667 0.184024
0.547829 0.0935531 0.185382
0.549752 0.0931258 0.186801
0.553307 0.0923171 0.189029
0.558968 0.0910353 0.191562
0.566323 0.0892958 0.194629
0.574533 0.0874647 0.198459
0.583474 0.085481 0.202258
0.0313573 0.0564584 0.0553597
0.0306706 0.0567941 0.0564736
0.0305333 0.0568551 0.0566873
0.0306401 0.0568093 0.0565194
0.0415503 0.0601205 0.057435
0.0552071 0.0623178 0.0570077
0.0698405 0.0634165 0.055848
0.0859388 0.0643168 0.0547189
0.101915 0.0644694 0.0539406
0.119753 0.06392 0.0539559
0.141054 0.0635691 0.055848
0.167376 0.0648051 0.060502
0.200198 0.0670787 0.0673991
0.239796 0.0686961 0.0743267
0.283146 0.0702525 0.0823377
0.324651 0.0724041 0.0922713
0.363592 0.0760662 0.105058
0.402548 0.0806287 0.119524
0.443885 0.0850233 0.134951
0.490364 0.0907912 0.153277
0.530053 0.0940566 0.168887
0.544839 0.0943465 0.176165
0.545403 0.0942245 0.177874
0.545937 0.0941024 0.179355
0.546365 0.0939956 0.180682
0.546685 0.0939193 0.181781
0.547433 0.0937209 0.183078
0.549233 0.0932479 0.184665
0.552407 0.0924544 0.186664
0.557458 0.0911879 0.189151
0.564126 0.0894636 0.192233
0.572168 0.0873732 0.195605
0.58117 0.0851453 0.199573
0.0331579 0.0601663 0.0582589
0.0322576 0.0607462 0.0583658
0.0321813 0.0610208 0.0585946
0.0326543 0.0599527 0.0580911
0.0373083 0.0609751 0.0582589
0.048661 0.0642405 0.0588235
0.061387 0.066041 0.0579232
0.0783398 0.0669871 0.0570535
0.0967575 0.0669108 0.0562142
0.116899 0.0661784 0.0563973
0.140154 0.0648966 0.0572824
0.168811 0.0653849 0.0614786
0.202945 0.0670634 0.0681621
0.243519 0.0687419 0.0751659
0.287053 0.0700236 0.0832227
0.328847 0.071397 0.0925917
0.367605 0.0741283 0.104051
0.406836 0.0774243 0.11751
0.448249 0.0809186 0.132906
0.495064 0.0872511 0.151522
0.532586 0.093019 0.167681
0.545007 0.0942397 0.174228
0.54519 0.094255 0.175631
0.545434 0.0942245 0.177157
0.545663 0.0941634 0.178531
0.546029 0.0940871 0.179568
0.546777 0.0938888 0.180804
0.548638 0.093431 0.182193
0.551797 0.0926528 0.184253
0.557122 0.0913405 0.186709
0.56408 0.0895399 0.189837
0.572595 0.0872969 0.193454
0.581796 0.0849012 0.197299
0.037995 0.0736858 0.0652628
0.0364843 0.0738994 0.0645457
0.0352483 0.0737163 0.0634623
0.0365454 0.0724193 0.0631113
0.0407568 0.0693828 0.0618753
0.0469825 0.0693675 0.061677
0.0571908 0.0707256 0.061265
0.0725567 0.0708324 0.0599832
0.0918593 0.0706645 0.0590982
0.114183 0.0697948 0.0593118
0.138827 0.0675517 0.0597543
0.16965 0.066804 0.0628519
0.205859 0.0678721 0.0692607
0.247608 0.0688945 0.0760204
0.290791 0.0700389 0.0840009
0.332677 0.0712291 0.0934768
0.372045 0.0737621 0.105043
0.411826 0.0756695 0.117205
0.454871 0.0771038 0.131746
0.502983 0.0816968 0.150088
0.540139 0.0889601 0.167208
0.552712 0.0919051 0.174548
0.553216 0.0922103 0.176394
0.553323 0.092256 0.177813
0.553262 0.0922866 0.179034
0.55317 0.0923476 0.179934
0.553094 0.0923629 0.180911
0.553567 0.0922408 0.181933
0.555154 0.0918441 0.183246
0.558968 0.0909133 0.185229
0.565316 0.0893111 0.187869
0.573846 0.087068 0.191485
0.582986 0.0846876 0.195102
0.0425269 0.0856641 0.0710613
0.0408179 0.0862287 0.0702678
0.0378576 0.0865034 0.0689555
0.0375677 0.0858778 0.0686046
0.0433661 0.0829633 0.066865
0.0507515 0.07953 0.0644694
0.0609903 0.0796063 0.0636301
0.0766918 0.0799878 0.0624704
0.0962081 0.0791485 0.0612955
0.117235 0.0771954 0.0607919
0.141238 0.0737774 0.061387
0.171984 0.0701457 0.063386
0.208042 0.0690776 0.0693523
0.251057 0.0695811 0.0760967
0.293843 0.0703593 0.0843977
0.334417 0.071809 0.093492
0.372946 0.0745861 0.105135
0.413046 0.076524 0.117617
0.456153 0.0771801 0.131044
0.502007 0.0793774 0.147066
0.536614 0.0878462 0.163592
0.546792 0.0912642 0.169955
0.548638 0.0922255 0.172061
0.550088 0.0929427 0.174243
0.550713 0.0928664 0.175677
0.55111 0.0928054 0.176867
0.551415 0.0927443 0.177905
0.551827 0.0926375 0.178927
0.552789 0.0924392 0.179767
0.554894 0.0919203 0.181064
0.558511 0.0910353 0.182788
0.563806 0.0897383 0.185183
0.570504 0.088014 0.187808
0.049073 0.0986191 0.0728008
0.0464485 0.100359 0.0726635
0.0423285 0.101564 0.0724346
0.0401617 0.102052 0.0724041
0.0411231 0.100801 0.0723278
0.0513161 0.0965591 0.0700084
0.0603799 0.0937972 0.0682078
0.0778515 0.0930037 0.066804
0.0994125 0.0932174 0.0672007
0.12369 0.0914626 0.067277
0.150759 0.0867781 0.0674296
0.180896 0.0813764 0.0680247
0.215518 0.0744793 0.0704662
0.257755 0.0710765 0.0764782
0.299474 0.0703593 0.0854963
0.340322 0.0717937 0.0954147
0.377935 0.0746777 0.106767
0.417899 0.0762036 0.118975
0.46099 0.0773022 0.132631
0.505501 0.0782483 0.147341
0.538582 0.086717 0.163088
0.54403 0.0892958 0.166491
0.54612 0.0912032 0.168765
0.547845 0.0924239 0.170703
0.549157 0.0930648 0.172198
0.549783 0.0929885 0.173434
0.550271 0.0929274 0.174487
0.55079 0.0928206 0.175418
0.551553 0.092668 0.17641
0.553582 0.092195 0.1776
0.557229 0.0913252 0.179126
0.562463 0.090074 0.181125
0.569223 0.088426 0.183917
0.0530404 0.116304 0.0791028
0.050309 0.118456 0.0783856
0.0459907 0.120455 0.0778058
0.0429236 0.12166 0.0771496
0.041886 0.12192 0.0767224
0.0460822 0.120226 0.0758373
0.0590219 0.115282 0.0733501
0.0731365 0.113527 0.0718242
0.0995956 0.112886 0.0705119
0.126986 0.112581 0.0728313
0.160311 0.108278 0.0747387
0.196536 0.0993668 0.0748608
0.232654 0.0901198 0.0747082
0.270985 0.0792401 0.0769665
0.308995 0.0733196 0.084947
0.346838 0.0726329 0.0969253
0.384405 0.0745403 0.108553
0.423224 0.0760052 0.120684
0.465202 0.0771649 0.134173
0.507149 0.078294 0.147951
0.541253 0.0865949 0.163622
0.542229 0.0874189 0.16437
0.543145 0.0884413 0.16556
0.544945 0.0900893 0.167407
0.546868 0.0916915 0.169665
0.548165 0.0926375 0.171023
0.548775 0.0927901 0.171801
0.549401 0.0928969 0.172686
0.550362 0.0928359 0.173587
0.552163 0.0924392 0.174731
0.555764 0.0915999 0.176333
0.56083 0.0903944 0.178408
0.567544 0.0887922 0.18088
0.0585641 0.138567 0.0882124
0.0556497 0.141314 0.0867628
0.0517586 0.144198 0.0855116
0.047425 0.146288 0.0836652
0.0444648 0.147921 0.0820172
0.0446021 0.147753 0.0818799
0.0508583 0.145708 0.0794995
0.0675364 0.141268 0.0772869
0.0906996 0.139132 0.0762798
0.12549 0.137972 0.0747692
0.164385 0.136965 0.0790417
0.209369 0.128237 0.0824292
0.253925 0.115099 0.0829023
0.293507 0.102861 0.0829023
0.329213 0.0883345 0.0847334
0.361303 0.079942 0.0941482
0.394247 0.0777295 0.107958
0.429572 0.0765545 0.121218
0.469062 0.076173 0.134096
0.509407 0.0779736 0.148547
0.541329 0.0864424 0.163485
0.540581 0.0867628 0.163409
0.540551 0.0867628 0.163409
0.541482 0.0873579 0.16405
0.542473 0.0881514 0.164981
0.543679 0.0892195 0.166278
0.54519 0.0904555 0.167834
0.546471 0.0912642 0.169238
0.547982 0.0917525 0.170474
0.550347 0.091722 0.171511
0.553964 0.0912642 0.17319
0.559335 0.0902876 0.175418
0.566369 0.0888075 0.178088
0.064683 0.168551 0.101015
0.0618448 0.172274 0.099443
0.057908 0.175952 0.0969711
0.0537728 0.179034 0.0934005
0.0489509 0.181445 0.0914473
0.0480507 0.183642 0.0888075
0.0485542 0.183764 0.0883497
0.0527199 0.180911 0.0846571
0.0766308 0.175845 0.0819257
0.112367 0.173632 0.0823072
0.158831 0.171481 0.0800031
0.214206 0.168719 0.0859388
0.272023 0.157488 0.0922713
0.323766 0.139971 0.0940261
0.361929 0.125673 0.0952773
0.392523 0.108659 0.0982223
0.421988 0.0954757 0.10605
0.453681 0.085893 0.118349
0.489204 0.0797284 0.133852
0.525567 0.076524 0.148379
0.552651 0.0821393 0.162173
0.547814 0.0831159 0.162524
0.545678 0.0833295 0.162402
0.544198 0.084535 0.162951
0.542931 0.0856947 0.163607
0.542168 0.0862745 0.16379
0.542046 0.086656 0.163958
0.542596 0.0872511 0.164462
0.543511 0.0875715 0.165133
0.545495 0.0874342 0.166018
0.549264 0.0869764 0.167514
0.555138 0.0861372 0.169863
0.562524 0.0848859 0.172427
0.0712596 0.208667 0.117067
0.0666819 0.213779 0.115663
0.0623789 0.218769 0.113008
0.0587778 0.222904 0.108965
0.0544594 0.226734 0.105333
0.05243 0.230442 0.102632
0.0512551 0.233814 0.0992599
0.0515297 0.233661 0.0968795
0.0544442 0.229221 0.0925307
0.0839857 0.222522 0.0859388
0.13814 0.221271 0.0876478
0.202045 0.218357 0.0848554
0.280644 0.213718 0.0919509
0.347066 0.202243 0.102113
0.406134 0.181506 0.109392
0.446189 0.168338 0.114336
0.477745 0.152758 0.119249
0.508782 0.132097 0.124743
0.538384 0.103243 0.127901
0.574273 0.0892195 0.145724
0.594324 0.0835279 0.15845
0.589364 0.0812238 0.160433
0.58439 0.0808423 0.161028
0.576806 0.0800488 0.162295
0.567193 0.0791333 0.161913
0.564752 0.0788586 0.162066
0.562936 0.078584 0.162158
0.561334 0.0783398 0.162219
0.559762 0.0781872 0.162356
0.55903 0.0779431 0.162585
0.559625 0.0776989 0.163256
0.56231 0.0771496 0.164279
0.567193 0.0761578 0.165988
0.0736858 0.261158 0.134554
0.0672313 0.268208 0.132982
0.0616465 0.274876 0.130358
0.0585031 0.280842 0.127108
0.055314 0.286229 0.123049
0.0536355 0.290715 0.120256
0.0525063 0.29482 0.117052
0.0524453 0.297475 0.113512
0.0538643 0.296681 0.107271
0.05832 0.289403 0.102113
0.0924239 0.282856 0.0873121
0.169375 0.283497 0.0894789
0.25716 0.279347 0.0843519
0.356466 0.273594 0.0912795
0.430106 0.267796 0.105821
0.50164 0.245914 0.124208
0.550546 0.22739 0.135943
0.588556 0.215259 0.141787
0.63122 0.194659 0.147494
0.655802 0.15729 0.150698
0.660517 0.129 0.157092
0.646891 0.10988 0.154452
0.636698 0.101579 0.15375
0.630411 0.0966049 0.15581
0.625376 0.0928054 0.157168
0.620127 0.0892805 0.157519
0.616754 0.0872969 0.158465
0.614527 0.0870832 0.158999
0.611933 0.0869306 0.159304
0.609232 0.0862135 0.159411
0.607126 0.0853132 0.159533
0.606531 0.0838941 0.160006
0.607584 0.0822461 0.160861
0.0721294 0.327108 0.154604
0.0664683 0.334707 0.15317
0.0612345 0.341802 0.151019
0.0565652 0.34847 0.148135
0.0528115 0.354818 0.144472
0.0505074 0.36025 0.140566
0.0490272 0.365301 0.136629
0.0490883 0.368643 0.133761
0.0495918 0.370336 0.131151
0.0513008 0.368902 0.122316
0.0562142 0.360525 0.114153
0.10312 0.354406 0.0854963
0.207675 0.356313 0.0860456
0.321492 0.350866 0.0783398
0.432135 0.344015 0.0856641
0.510765 0.344274 0.104479
0.594186 0.329244 0.135225
0.661891 0.300572 0.158511
0.709712 0.287984 0.163546
0.752728 0.267872 0.170321
0.768429 0.242191 0.177752
0.764218 0.221958 0.179141
0.755123 0.212085 0.177356
0.746258 0.202777 0.17496
0.738109 0.194049 0.172793
0.728923 0.184787 0.170626
0.720226 0.176043 0.168444
0.71133 0.167041 0.166186
0.702373 0.158267 0.164111
0.694041 0.150042 0.161837
0.687541 0.143252 0.159884
0.68188 0.136248 0.158206
0.678325 0.129137 0.156786
0.0681621 0.403922 0.183825
0.0622568 0.412772 0.183261
0.0573129 0.420706 0.181827
0.0526436 0.428016 0.179553
0.0495613 0.434638 0.176913
0.0475624 0.44094 0.173449
0.0470893 0.446174 0.169574
0.0472877 0.449592 0.164584
0.0484474 0.451225 0.158495
0.0493477 0.451789 0.154437
0.0511177 0.449378 0.143282
0.05626 0.438025 0.130297
0.126741 0.434562 0.0865644
0.262074 0.435737 0.087129
0.388586 0.42739 0.0788586
0.503059 0.420462 0.0901198
0.583078 0.422385 0.115557
0.664714 0.416953 0.151415
0.745266 0.390066 0.180606
0.801816 0.367453 0.19324
0.833402 0.34847 0.202213
0.84329 0.334859 0.206043
0.839567 0.327825 0.203891
0.835859 0.321111 0.201907
0.832151 0.315007 0.200122
0.828244 0.308721 0.198444
0.824552 0.302693 0.196857
0.820813 0.296727 0.195407
0.816907 0.290455 0.193774
0.812909 0.284443 0.192538
0.808865 0.278218 0.190997
0.804547 0.271702 0.189715
0.800473 0.264897 0.188403
0.0751049 0.486961 0.227054
0.0709087 0.49575 0.228107
0.0661326 0.504082 0.228382
0.0618296 0.511681 0.227924
0.0586404 0.518318 0.22623
0.0578317 0.524575 0.224537
0.0582589 0.529122 0.222141
0.0595712 0.532952 0.218753
0.0615549 0.535012 0.213031
0.0638437 0.535271 0.203189
0.0651102 0.532937 0.193103
0.0666056 0.528695 0.179461
0.0717632 0.513787 0.155657
0.181765 0.515312 0.103487
0.337102 0.513344 0.106813
0.460029 0.502251 0.101106
0.568978 0.495079 0.114931
0.64831 0.497139 0.142977
0.725933 0.497795 0.17641
0.804913 0.481971 0.205554
0.863615 0.456123 0.225544
0.887495 0.435492 0.23653
0.887282 0.424994 0.235676
0.883818 0.418097 0.232944
0.88127 0.413016 0.230945
0.879042 0.407858 0.22948
0.876356 0.402823 0.227344
0.874098 0.398032 0.225711
0.871519 0.392233 0.223697
0.868772 0.386191 0.22208
0.865507 0.379767 0.219898
0.863142 0.373831 0.218219
0.861158 0.368688 0.216846
0.0995193 0.569238 0.288579
0.096849 0.578119 0.291295
0.0928969 0.586282 0.293172
0.0894942 0.593942 0.294392
0.0873579 0.600946 0.294942
0.0870527 0.606973 0.294926
0.0878462 0.611429 0.293416
0.0889296 0.614557 0.290608
0.0905165 0.616693 0.286076
0.0919509 0.617411 0.276814
0.0932174 0.61529 0.260533
0.0937819 0.611032 0.240162
0.0924086 0.603891 0.229007
0.0999313 0.587243 0.185992
0.268666 0.593347 0.1402
0.417044 0.586709 0.142138
0.528145 0.573678 0.13521
0.63006 0.566049 0.147158
0.707668 0.566812 0.174594
0.779492 0.570489 0.203098
0.849958 0.564141 0.229831
0.898054 0.547234 0.25069
0.912993 0.532586 0.25803
0.912337 0.524224 0.256825
0.911971 0.517067 0.256031
0.910857 0.510384 0.254871
0.910109 0.505257 0.254017
0.908568 0.498741 0.252461
0.907012 0.49218 0.251148
0.905379 0.485512 0.249531
0.903777 0.478584 0.247791
0.901808 0.472419 0.246113
0.899855 0.466957 0.244526
0.135409 0.649561 0.358694
0.132845 0.658869 0.362814
0.128969 0.666957 0.365621
0.125246 0.674617 0.367559
0.123018 0.681529 0.369253
0.122301 0.687129 0.369711
0.123186 0.691493 0.36936
0.124056 0.694408 0.367453
0.125063 0.696132 0.363653
0.126009 0.697047 0.356878
0.126406 0.695232 0.34284
0.126879 0.690776 0.319722
0.126055 0.684855 0.290639
0.123812 0.673472 0.279835
0.14522 0.659007 0.2112
0.364782 0.667491 0.184039
0.492287 0.655909 0.182055
0.592386 0.640909 0.174029
0.686976 0.6318 0.184436
0.761868 0.63183 0.210254
0.826215 0.636667 0.235798
0.882658 0.636042 0.259266
0.916793 0.627298 0.275471
0.917815 0.618463 0.273976
0.917678 0.611841 0.272312
0.917418 0.605951 0.270817
0.917235 0.600381 0.269566
0.91693 0.594186 0.268101
0.916503 0.587503 0.266819
0.91635 0.581125 0.265675
0.916045 0.574304 0.264469
0.915892 0.568597 0.263661
0.915267 0.562844 0.262348
0.170397 0.728435 0.431678
0.169299 0.736171 0.435706
0.165881 0.743877 0.438712
0.162036 0.750744 0.441047
0.15874 0.75668 0.442771
0.157885 0.761807 0.444282
0.157351 0.765469 0.443915
0.158282 0.767788 0.442557
0.158984 0.769039 0.439399
0.15964 0.769528 0.433738
0.160082 0.767849 0.422995
0.160449 0.764263 0.405463
0.160388 0.759243 0.374792
0.158511 0.752636 0.340505
0.157519 0.73724 0.324193
0.231754 0.735241 0.244846
0.456489 0.736385 0.236637
0.560693 0.720928 0.229282
0.652399 0.7037 0.21915
0.74052 0.693507 0.229786
0.810498 0.691829 0.2542
0.864729 0.696742 0.278569
0.907149 0.699886 0.300832
0.920317 0.695201 0.305272
0.920226 0.688685 0.301778
0.919936 0.682582 0.29807
0.91957 0.677287 0.295079
0.919326 0.67158 0.292119
0.919264 0.66598 0.289601
0.918898 0.66038 0.287144
0.918853 0.655268 0.285267
0.918807 0.649973 0.283497
0.918593 0.645258 0.281926
0.201862 0.79762 0.499428
0.201328 0.802884 0.50277
0.198383 0.808392 0.505547
0.194903 0.813931 0.508202
0.191257 0.818998 0.510216
0.188846 0.822904 0.511101
0.187991 0.825437 0.511193
0.187839 0.827207 0.510262
0.1879 0.828199 0.508034
0.18819 0.82858 0.503487
0.188266 0.827314 0.495323
0.188312 0.824582 0.481926
0.188785 0.820829 0.461036
0.189654 0.816846 0.427008
0.187488 0.807568 0.397223
0.196155 0.79379 0.363912
0.354192 0.801541 0.302831
0.537072 0.796292 0.299992
0.623911 0.780835 0.289509
0.708598 0.762783 0.277455
0.79089 0.752255 0.289433
0.852705 0.749874 0.311421
0.896925 0.754726 0.333928
0.923339 0.759899 0.351751
0.924056 0.754147 0.34728
0.92343 0.747982 0.341711
0.922881 0.74258 0.33637
0.922164 0.737057 0.331548
0.921904 0.731975 0.327413
0.921355 0.727321 0.323339
0.921141 0.722438 0.319753
0.920729 0.71783 0.316335
0.920424 0.713405 0.313008
0.230274 0.848112 0.561456
0.229007 0.851667 0.564416
0.225711 0.855817 0.566964
0.221363 0.859968 0.569314
0.216922 0.863737 0.570932
0.214206 0.866667 0.572137
0.212726 0.868696 0.572274
0.212345 0.869841 0.571389
0.212238 0.87039 0.569467
0.212329 0.870604 0.566247
0.212314 0.869871 0.559823
0.212253 0.868132 0.549889
0.212863 0.86598 0.53489
0.213687 0.86273 0.51104
0.214923 0.858457 0.477806
0.2177 0.847684 0.441062
0.249363 0.842725 0.39617
0.466529 0.852583 0.369574
0.607141 0.846006 0.373495
0.682124 0.832456 0.361593
0.761303 0.816281 0.350301
0.837263 0.806531 0.362585
0.891829 0.803555 0.38378
0.922042 0.808774 0.402991
0.931029 0.809293 0.406744
0.929854 0.803616 0.399008
0.928618 0.798444 0.391669
0.927504 0.793301 0.384924
0.926589 0.788754 0.379278
0.925841 0.784207 0.373968
0.925551 0.779812 0.369772
0.924956 0.775586 0.365728
0.924788 0.772 0.362402
0.258396 0.879545 0.616236
0.258488 0.881529 0.618082
0.256367 0.883925 0.619593
0.253391 0.886595 0.621042
0.250523 0.889097 0.622309
0.248295 0.891005 0.622812
0.24715 0.892256 0.622675
0.246967 0.892851 0.621851
0.247257 0.893141 0.620325
0.247181 0.893187 0.617487
0.246677 0.893019 0.613062
0.24593 0.89221 0.606027
0.24535 0.890883 0.595193
0.244938 0.888869 0.578729
0.245548 0.886656 0.553674
0.244999 0.880568 0.528023
0.266621 0.87393 0.470054
0.362615 0.880018 0.44625
0.567742 0.887175 0.446464
0.679927 0.883391 0.456397
0.745739 0.87277 0.445838
0.81799 0.860258 0.438407
0.883314 0.85098 0.451362
0.924163 0.847517 0.468452
0.940917 0.849561 0.47834
0.942367 0.847135 0.472862
0.94078 0.842435 0.462913
0.938888 0.838422 0.453834
0.93727 0.83444 0.444785
0.935302 0.830793 0.436118
0.933959 0.827466 0.429038
0.932799 0.823972 0.422614
0.932479 0.820645 0.418326
0.279316 0.899046 0.655894
0.278996 0.900969 0.657633
0.275975 0.902342 0.65771
0.271916 0.903807 0.65745
0.268223 0.905135 0.656947
0.265431 0.906126 0.656352
0.263722 0.906783 0.655619
0.263203 0.907073 0.654536
0.263325 0.907179 0.653147
0.263584 0.907317 0.651194
0.263676 0.907576 0.648447
0.26389 0.907897 0.644892
0.264561 0.908263 0.639551
0.265949 0.908675 0.631968
0.266697 0.908141 0.617136
0.265629 0.905531 0.593469
0.265827 0.899474 0.563348
0.314107 0.900313 0.49247
0.475242 0.910765 0.509422
0.64596 0.915801 0.522316
0.745556 0.913802 0.539681
0.803265 0.907469 0.532219
0.86276 0.898772 0.525994
0.915373 0.890715 0.536416
0.943542 0.88719 0.551186
0.951293 0.885542 0.552422
0.95053 0.881376 0.542657
0.949126 0.87715 0.531807
0.947356 0.87306 0.520867
0.945647 0.869352 0.510948
0.944427 0.865721 0.502419
0.943328 0.862638 0.495048
0.942367 0.859449 0.488945
0.279957 0.90045 0.661555
0.277745 0.901289 0.661097
0.274327 0.902571 0.660716
0.270283 0.904036 0.660349
0.267033 0.905196 0.6598
0.264652 0.906065 0.659236
0.263233 0.90663 0.658396
0.262745 0.90692 0.657237
0.262791 0.907057 0.655863
0.26305 0.907179 0.654017
0.263279 0.907393 0.651469
0.263447 0.907698 0.647974
0.263874 0.908095 0.643137
0.264729 0.908598 0.636103
0.266209 0.909285 0.62594
0.268299 0.910323 0.610162
0.269886 0.909712 0.603403
0.287541 0.911482 0.572091
0.397833 0.91902 0.531548
0.564355 0.927535 0.569711
0.717586 0.931075 0.595514
0.809003 0.931533 0.620325
0.856214 0.929549 0.616678
0.901991 0.926238 0.614084
0.935637 0.922148 0.621988
0.951476 0.919356 0.630228
0.954223 0.916777 0.623728
0.953185 0.913344 0.611551
0.951568 0.909483 0.599054
0.950347 0.905974 0.588067
0.949233 0.902525 0.577996
0.948684 0.899641 0.570382
0.948089 0.896666 0.563561
0.267811 0.904356 0.665309
0.268315 0.904265 0.66453
0.267857 0.904494 0.663813
0.266499 0.904997 0.663233
0.264897 0.905608 0.662593
0.263401 0.906203 0.661723
0.26247 0.906615 0.660716
0.262074 0.906859 0.659617
0.262547 0.906874 0.658274
0.262608 0.907057 0.656336
0.26273 0.907286 0.653971
0.262913 0.907591 0.65066
0.26334 0.907942 0.646174
0.264103 0.908415 0.639567
0.265187 0.909087 0.630518
0.266468 0.910307 0.616754
0.267811 0.910994 0.60737
0.272999 0.912978 0.600916
0.330953 0.920668 0.566903
0.495552 0.928191 0.57644
0.638651 0.934127 0.616266
0.777981 0.936889 0.654978
0.860533 0.939483 0.68777
0.900481 0.942061 0.69662
0.93228 0.943282 0.705333
0.951019 0.942 0.714107
0.957702 0.939803 0.714244
0.956329 0.937392 0.70103
0.955245 0.934905 0.687663
0.953872 0.932265 0.674617
0.953063 0.929793 0.663615
0.952544 0.927459 0.654566
0.952102 0.92517 0.646204
0.263188 0.905608 0.668086
0.263767 0.905501 0.667231
0.264179 0.905455 0.666316
0.263951 0.905623 0.665446
0.263172 0.905959 0.664683
0.262242 0.906355 0.663752
0.261723 0.90663 0.662852
0.261677 0.906767 0.661677
0.261891 0.906859 0.660197
0.262165 0.906966 0.658488
0.262303 0.907195 0.656016
0.262348 0.907515 0.652979
0.262501 0.907942 0.6486
0.262943 0.908446 0.642741
0.263798 0.909102 0.634348
0.265019 0.910124 0.622217
0.266285 0.911238 0.609567
0.267689 0.911818 0.606241
0.291478 0.918074 0.582712
0.41677 0.924697 0.553948
0.576226 0.932998 0.606867
0.718242 0.936645 0.645365
0.833997 0.939284 0.695811
0.895857 0.942641 0.730663
0.922835 0.94522 0.741604
0.946365 0.948486 0.761532
0.958892 0.950515 0.784451
0.960067 0.950561 0.784695
0.958831 0.949844 0.775937
0.957687 0.948913 0.76669
0.956695 0.94757 0.756146
0.956115 0.946136 0.745434
0.955657 0.944579 0.735866
0.262669 0.905577 0.669917
0.262821 0.905623 0.669078
0.262821 0.905715 0.668208
0.262364 0.905959 0.667338
0.26154 0.906325 0.666468
0.260853 0.906645 0.665522
0.260395 0.906889 0.664485
0.260594 0.90695 0.663432
0.261097 0.906935 0.662013
0.261585 0.906966 0.660166
0.261906 0.907118 0.657893
0.261982 0.907408 0.655039
0.261967 0.907866 0.65098
