luts/phantom/Eterna V-Log Legacy.cube
TITLE "Generated by Resolve"
LUT_3D_SIZE 5
0.0303807 0.0569314 0.0569314
0.108156 0.0631113 0.0538643
0.360967 0.0838636 0.114656
0.549676 0.0936294 0.187213
0.589364 0.0861067 0.20856
0.0530404 0.116304 0.0791028
0.0995956 0.112886 0.0705119
0.384405 0.0745403 0.108553
0.546868 0.0916915 0.169665
0.567544 0.0887922 0.18088
0.0995193 0.569238 0.288579
0.0905165 0.616693 0.286076
0.528145 0.573678 0.13521
0.911971 0.517067 0.256031
0.899855 0.466957 0.244526
0.267811 0.904356 0.665309
0.262547 0.906874 0.658274
0.267811 0.910994 0.60737
0.93228 0.943282 0.705333
0.952102 0.92517 0.646204
0.253025 0.908049 0.676539
0.268025 0.904158 0.666545
0.275364 0.905379 0.633692
0.78349 0.937606 0.670939
0.955962 0.954986 0.805249
0.0331579 0.0602884 0.0851759
0.11603 0.0678874 0.0882277
0.364874 0.0818647 0.137987
0.591974 0.0903792 0.218677
0.633722 0.0875257 0.246677
0.0520333 0.109102 0.0979934
0.0915541 0.106035 0.103212
0.397284 0.0827192 0.139422
0.579858 0.0901198 0.208286
0.609949 0.0879377 0.228809
0.0832227 0.531624 0.303456
0.072282 0.572244 0.302678
0.512291 0.559274 0.126482
0.912383 0.514626 0.256504
0.8981 0.458534 0.243015
0.264866 0.903334 0.684001
0.262943 0.904891 0.675425
0.268528 0.910384 0.610468
0.926146 0.939712 0.681743
0.951308 0.92047 0.629191
0.254154 0.905196 0.700389
0.269856 0.901122 0.687968
0.275273 0.904646 0.640391
0.763363 0.937011 0.662211
0.95555 0.955184 0.805219
0.0339361 0.0831922 0.267475
0.106325 0.0767224 0.302968
0.438758 0.100725 0.24155
0.66067 0.105455 0.297581
0.712261 0.108293 0.358694
0.0487068 0.111711 0.205325
0.032517 0.0928664 0.286091
0.453376 0.105989 0.284031
0.693004 0.118654 0.352499
0.734356 0.121859 0.432822
0.0732891 0.481987 0.390021
0.0622873 0.51162 0.441108
0.505196 0.529656 0.491768
0.934768 0.468879 0.501457
0.928908 0.425483 0.515816
0.275059 0.889769 0.736217
0.253162 0.895705 0.743404
0.250187 0.886778 0.67985
0.919997 0.922606 0.735058
0.957458 0.919768 0.764111
0.271702 0.890181 0.768292
0.255283 0.896025 0.771298
0.280339 0.892927 0.724208
0.808484 0.941451 0.810025
0.964645 0.959564 0.913664
0.0390021 0.163043 0.505943
0.0432746 0.193698 0.576669
0.553262 0.15613 0.609918
0.752911 0.143053 0.541207
0.762524 0.137713 0.548943
0.0362402 0.144335 0.436805
0.0368048 0.163485 0.51107
0.382361 0.187778 0.673777
0.789273 0.181552 0.615747
0.811383 0.19144 0.663539
0.0507362 0.473381 0.561196
0.0319066 0.47837 0.609659
0.0960861 0.448402 0.704219
0.930465 0.408988 0.728664
0.925048 0.382437 0.73727
0.281651 0.860334 0.788647
0.235538 0.858244 0.795361
0.22855 0.830823 0.769451
0.907332 0.897154 0.882048
0.96051 0.894789 0.888258
0.29807 0.874296 0.835004
0.267521 0.884001 0.852064
0.272831 0.884321 0.829175
0.871611 0.946395 0.922713
0.973236 0.963989 0.962844
0.0541695 0.268559 0.680293
0.0541543 0.268559 0.680323
0.295186 0.330831 0.828214
0.89659 0.361563 0.894759
0.896574 0.361578 0.894392
0.0549477 0.277668 0.687388
0.0543526 0.270634 0.68191
0.0727092 0.304479 0.729473
0.89659 0.361563 0.894759
0.89659 0.361563 0.894743
0.0684825 0.498177 0.743755
0.0779278 0.500923 0.764721
0.0824598 0.47422 0.780621
0.889174 0.460807 0.927428
0.914778 0.42388 0.911376
0.235981 0.846387 0.856748
0.219959 0.831662 0.853666
0.184115 0.791852 0.840055
0.670146 0.841291 0.937911
0.947143 0.865034 0.938796
0.263401 0.874983 0.888991
0.260716 0.875837 0.890105
0.263523 0.877028 0.884489
0.647501 0.936553 0.932189
0.9673 0.96672 0.966674
