luts/phantom/IceBlue V-Log Legacy.cube
TITLE "Generated by Resolve"
LUT_3D_SIZE 33
0.0413977 0.0534676 0.055375
0.0413977 0.0534524 0.0553597
0.0414282 0.0534524 0.055314
0.0471199 0.0536812 0.0560159
0.0571298 0.0541085 0.0552834
0.0680552 0.0552071 0.054902
0.0801862 0.0557107 0.0540932
0.0935531 0.0561685 0.0539559
0.109606 0.0557717 0.0533761
0.131884 0.0550393 0.0531472
0.161685 0.0534829 0.0526589
0.198932 0.0529183 0.0549172
0.246586 0.0526894 0.058854
0.304997 0.0514382 0.0617075
0.367071 0.0503548 0.0653544
0.425483 0.0502785 0.07393
0.475624 0.0514839 0.0846571
0.516732 0.0552834 0.0991226
0.555581 0.0604562 0.11577
0.594079 0.0660868 0.134859
0.620066 0.0702831 0.150378
0.626383 0.0709392 0.155932
0.626993 0.0708171 0.158022
0.627497 0.0707103 0.159899
0.627863 0.0706493 0.161181
0.628199 0.0705577 0.162432
0.628458 0.0704967 0.163439
0.628763 0.0703899 0.164721
0.62948 0.0703441 0.16643
0.630579 0.0701152 0.169604
0.631724 0.0696727 0.173648
0.633371 0.0688487 0.180484
0.635035 0.0679637 0.187945
0.0415351 0.0533608 0.0549935
0.041474 0.0534218 0.0551766
0.0414435 0.0534524 0.0552682
0.0448463 0.0535592 0.0557259
0.054612 0.0539712 0.0556954
0.0653391 0.0548867 0.0550851
0.0772869 0.0555276 0.0543221
0.091249 0.0560769 0.0542153
0.107836 0.0558633 0.0536202
0.131258 0.0550698 0.0533761
0.162463 0.0534371 0.0531319
0.201038 0.052491 0.0546731
0.249897 0.0518959 0.057557
0.308659 0.0505531 0.0593423
0.370611 0.0491493 0.062089
0.428153 0.0489967 0.0701152
0.478294 0.0504463 0.0817121
0.519448 0.0540627 0.0970321
0.557824 0.0587778 0.113817
0.598123 0.066804 0.13521
0.62121 0.0706645 0.149584
0.625818 0.0710307 0.154208
0.626444 0.0709392 0.156085
0.626978 0.0708171 0.157977
0.62739 0.0707408 0.159518
0.62771 0.0706798 0.160647
0.627939 0.070634 0.16141
0.628168 0.0704967 0.162615
0.628565 0.0703441 0.164157
0.629358 0.0700236 0.167208
0.630411 0.0695659 0.171237
0.632029 0.0686809 0.178241
0.633707 0.0677806 0.185641
0.0415351 0.0533608 0.0549935
0.041474 0.0534218 0.0551766
0.0414435 0.0534524 0.0552682
0.041474 0.0534218 0.0551614
0.0496986 0.0544289 0.0563973
0.0603952 0.0553292 0.0554513
0.0721141 0.0561379 0.0552224
0.0863966 0.0566567 0.0550546
0.103761 0.0563058 0.0543526
0.127794 0.0553445 0.0537881
0.159533 0.0535897 0.0534218
0.199359 0.0524605 0.0550546
0.248569 0.051606 0.0575418
0.307897 0.0503548 0.0593576
0.370047 0.0486763 0.0608835
0.426795 0.0479286 0.0664378
0.476005 0.0489662 0.0768444
0.517739 0.0522621 0.0924849
0.555856 0.0566262 0.109224
0.59707 0.0658885 0.131975
0.620661 0.0707866 0.147509
0.624933 0.0711681 0.151736
0.625635 0.0710613 0.15378
0.6262 0.070985 0.155306
0.626642 0.0708934 0.156817
0.627008 0.0708019 0.158114
0.627283 0.0707561 0.159106
0.627588 0.0706493 0.160327
0.627878 0.0705119 0.161593
0.62858 0.0701457 0.164614
0.62948 0.0696574 0.168414
0.631037 0.0687419 0.175357
0.632639 0.0677958 0.182712
0.0415351 0.0533608 0.0549935
0.0414588 0.0534218 0.0551919
0.0414282 0.0534524 0.0552987
0.0414282 0.0534524 0.0552834
0.0448615 0.0545205 0.0558328
0.0549477 0.0561532 0.0567941
0.0654612 0.0575418 0.0565652
0.0788281 0.0582742 0.0562905
0.0967117 0.057969 0.0556649
0.12105 0.0567788 0.0552987
0.154208 0.0543984 0.0539254
0.195544 0.0526894 0.0549325
0.245853 0.0515602 0.0577554
0.305974 0.0502632 0.0600137
0.368902 0.0486152 0.0616312
0.426368 0.0477607 0.066392
0.4748 0.0483711 0.0746777
0.51426 0.0504463 0.0869612
0.553079 0.0543221 0.10425
0.593347 0.0627756 0.126635
0.619577 0.0708782 0.144533
0.623926 0.0713054 0.148836
0.624643 0.0712139 0.150851
0.625269 0.0711223 0.152667
0.625757 0.071046 0.154086
0.626139 0.070985 0.155138
0.626459 0.0709239 0.156161
0.62678 0.0708171 0.157351
0.627131 0.0706645 0.158862
0.627817 0.0702983 0.161807
0.628733 0.0697948 0.165743
0.63032 0.0688945 0.172686
0.631952 0.0679484 0.179858
0.0425422 0.059144 0.0578164
0.0421759 0.0589761 0.0569467
0.0423133 0.0585641 0.0568246
0.0435492 0.0578164 0.0564126
0.0452888 0.0569772 0.0564126
0.0514382 0.0582589 0.0573739
0.0596933 0.0594034 0.0574197
0.0708782 0.0599222 0.057145
0.088014 0.0598917 0.0569314
0.112505 0.0590066 0.0568551
0.1458 0.056611 0.0557259
0.188846 0.0539864 0.0551461
0.240696 0.0521401 0.0574502
0.302602 0.05037 0.0602274
0.367575 0.0485695 0.0624399
0.425376 0.0476081 0.0671397
0.474189 0.0482643 0.0750591
0.513405 0.0501411 0.086305
0.550347 0.0528115 0.0999008
0.587976 0.0587472 0.119677
0.616648 0.0690318 0.140154
0.622721 0.0714427 0.145861
0.623545 0.0713207 0.147997
0.624186 0.0712902 0.149493
0.624704 0.0711986 0.151049
0.625147 0.0711376 0.152331
0.625483 0.0710765 0.153323
0.625834 0.070985 0.154421
0.6262 0.0708476 0.155688
0.626978 0.0704509 0.158816
0.627848 0.0699779 0.162524
0.629465 0.0690623 0.169451
0.631144 0.068101 0.176761
0.0446632 0.0689403 0.0643931
0.0439002 0.0684825 0.0625772
0.0436103 0.0677195 0.0618448
0.0455024 0.0663157 0.0610513
0.0488746 0.0644846 0.0594797
0.053254 0.0636149 0.0591745
0.0601511 0.064683 0.0601816
0.0698253 0.0649424 0.0600748
0.0850996 0.0647135 0.0599985
0.107454 0.0630655 0.059144
0.138735 0.0600443 0.0578317
0.181613 0.0560006 0.0559548
0.234623 0.053254 0.0570382
0.298756 0.0510262 0.0595712
0.36495 0.0487373 0.0626688
0.423987 0.0474861 0.0679179
0.473503 0.0481117 0.076173
0.513024 0.049958 0.0870527
0.550088 0.0526436 0.100023
0.585595 0.057023 0.116854
0.612222 0.0655528 0.134295
0.619608 0.0695506 0.141161
0.622156 0.0714122 0.144625
0.62298 0.071397 0.146532
0.623575 0.0713207 0.148089
0.624018 0.0713054 0.14905
0.624384 0.0712444 0.150042
0.62475 0.0711528 0.151293
0.625162 0.0710002 0.152773
0.625956 0.0706188 0.155749
0.626886 0.0701152 0.159594
0.628489 0.0691997 0.166491
0.630198 0.0682536 0.173648
0.0461585 0.0792401 0.0697795
0.0447547 0.0790265 0.0684215
0.0443122 0.078233 0.0673686
0.0451514 0.0767071 0.0664836
0.0503395 0.0740978 0.0645151
0.055375 0.0721294 0.0632181
0.062623 0.0719005 0.0629587
0.0723735 0.0724041 0.0628214
0.0877394 0.0728618 0.0635843
0.108659 0.0713359 0.0620737
0.139544 0.0678416 0.0602731
0.18114 0.0619516 0.0587625
0.230915 0.0557107 0.0570077
0.294392 0.0520027 0.0584268
0.361898 0.0493172 0.0617227
0.42208 0.0475624 0.0679789
0.47245 0.0479286 0.0768597
0.513054 0.0497139 0.0885634
0.550042 0.0523384 0.101823
0.585473 0.0564889 0.118105
0.611215 0.0641794 0.134142
0.616526 0.0666361 0.13817
0.618158 0.0679942 0.1402
0.620676 0.0698863 0.143465
0.622446 0.0710765 0.145983
0.623148 0.0712139 0.147509
0.62359 0.0711376 0.148699
0.623987 0.0710307 0.149844
0.624353 0.0709392 0.150973
0.624887 0.0707103 0.152911
0.625483 0.0704204 0.155261
0.626505 0.0698405 0.159609
0.627543 0.0692607 0.164096
0.0475013 0.0931106 0.0743725
0.0453803 0.093019 0.0724498
0.0441596 0.0924239 0.0712444
0.0442512 0.0910506 0.0708629
0.0484016 0.0887617 0.069749
0.0552834 0.0852827 0.0673991
0.0614633 0.0842451 0.0662699
0.0737774 0.0841688 0.0650797
0.0897993 0.0843824 0.0656443
0.111391 0.0843977 0.0661173
0.144732 0.080293 0.0644999
0.186648 0.0742504 0.0616159
0.237354 0.0655375 0.0591287
0.295766 0.0554513 0.0566873
0.358907 0.0504005 0.0601968
0.41973 0.048127 0.0668956
0.471199 0.0479438 0.0766308
0.512062 0.0495918 0.0886549
0.549493 0.0521401 0.102693
0.585016 0.0559548 0.119249
0.611826 0.06392 0.136355
0.616205 0.0655528 0.139437
0.616266 0.0656291 0.139498
0.617487 0.0666361 0.140902
0.618708 0.0676738 0.142504
0.619715 0.0683452 0.143938
0.62092 0.0691386 0.145647
0.621897 0.0697948 0.14696
0.622644 0.0702525 0.148043
0.623301 0.0705119 0.149462
0.623941 0.0703899 0.151598
0.624994 0.0699626 0.155596
0.626093 0.0693523 0.160113
0.0475929 0.111254 0.0793164
0.0450446 0.11165 0.0768139
0.0432288 0.111284 0.0747539
0.0429084 0.110445 0.0741283
0.0442512 0.109026 0.0733043
0.0518349 0.105989 0.0716411
0.0598917 0.102586 0.0699779
0.0694896 0.10222 0.0688334
0.0885176 0.101381 0.0659495
0.113405 0.101518 0.0672313
0.145907 0.100191 0.0672007
0.194293 0.0915236 0.0654307
0.246189 0.0812543 0.0609598
0.306096 0.069398 0.0576944
0.367422 0.0562753 0.0563058
0.419867 0.0500343 0.0641947
0.469612 0.0487831 0.0752728
0.510506 0.0495766 0.0880903
0.548333 0.0520333 0.102281
0.583413 0.0554513 0.118151
0.612055 0.0640116 0.136614
0.61622 0.0655375 0.139544
0.616236 0.0655375 0.139544
0.616236 0.0655375 0.139544
0.61648 0.0657206 0.139818
0.616999 0.0661479 0.140459
0.617746 0.0667887 0.141253
0.61828 0.0672007 0.141985
0.618555 0.0674449 0.142382
0.618936 0.0674754 0.143496
0.619623 0.0674296 0.145586
0.620798 0.0670634 0.149691
0.622385 0.0668803 0.154604
0.0471504 0.135668 0.0850996
0.0446937 0.136584 0.0814984
0.0420233 0.137392 0.0786755
0.0411688 0.136843 0.0768139
0.0412146 0.135546 0.0765698
0.0445563 0.133715 0.0750286
0.0530556 0.130404 0.0726177
0.064744 0.12723 0.0718853
0.0810407 0.12607 0.0701152
0.108873 0.124575 0.0660105
0.146761 0.123125 0.0663157
0.192782 0.120073 0.0666667
0.254887 0.105837 0.0646525
0.318578 0.0915999 0.0605478
0.379812 0.0767224 0.0571908
0.433707 0.0601968 0.0594949
0.474968 0.0531167 0.0705882
0.510613 0.0513466 0.085832
0.546197 0.0519265 0.100053
0.581323 0.0547799 0.116823
0.611978 0.0639811 0.136568
0.61622 0.0655375 0.139544
0.616236 0.0655375 0.139544
0.616236 0.0655375 0.139544
0.616251 0.0655375 0.139544
0.616266 0.0655375 0.139544
0.616312 0.065568 0.139605
0.61648 0.0656901 0.139803
0.616663 0.0658579 0.140032
0.61706 0.065919 0.141039
0.617807 0.0659495 0.143252
0.618982 0.0655375 0.147448
0.620096 0.0650339 0.151736
0.0458534 0.168887 0.092668
0.0439612 0.170642 0.0877699
0.0408942 0.171405 0.0840162
0.0388495 0.171954 0.0803693
0.0384985 0.171542 0.0787976
0.0386206 0.17026 0.0787671
0.0419776 0.168627 0.0761883
0.0513924 0.164981 0.0728466
0.0697032 0.161273 0.0715496
0.0955825 0.159915 0.0700694
0.136522 0.157229 0.0646372
0.19176 0.153567 0.0640269
0.252216 0.148028 0.0653849
0.327398 0.128237 0.0647746
0.396139 0.109651 0.0627298
0.450889 0.0920882 0.0625772
0.493339 0.0715801 0.0686046
0.523507 0.0601663 0.080415
0.551675 0.0559091 0.0978103
0.581567 0.0551614 0.114321
0.612222 0.0626688 0.134844
0.616266 0.0654459 0.139422
0.616236 0.0655375 0.139544
0.616236 0.0655375 0.139544
0.616251 0.0655375 0.139544
0.616266 0.0655375 0.139544
0.616281 0.0655375 0.139544
0.616281 0.0655222 0.139544
0.616281 0.0655222 0.139544
0.616495 0.0654154 0.140429
0.616861 0.0652018 0.142031
0.617823 0.0646677 0.145983
0.618936 0.0640879 0.150301
0.0427558 0.211093 0.102571
0.0411841 0.212833 0.0969253
0.0391089 0.213947 0.0917678
0.0366064 0.214511 0.0878462
0.0354162 0.215198 0.0835279
0.035111 0.215183 0.0808118
0.035172 0.214252 0.0806897
0.0370947 0.212329 0.0774853
0.0469215 0.208118 0.0722515
0.0743877 0.204761 0.0699321
0.11313 0.203067 0.0677348
0.172885 0.199512 0.0605173
0.247669 0.193957 0.0605173
0.322057 0.186496 0.0637675
0.40441 0.164553 0.0684672
0.471992 0.142916 0.071519
0.518746 0.124071 0.0753643
0.551553 0.0980087 0.083772
0.574197 0.0728618 0.0925765
0.598779 0.0645762 0.111666
0.620554 0.0638437 0.130495
0.618479 0.0629129 0.134493
0.616846 0.0625315 0.135439
0.616876 0.0637217 0.13724
0.616815 0.0647593 0.138552
0.616403 0.0653391 0.139269
0.616281 0.0655222 0.139544
0.616281 0.0655222 0.139544
0.616281 0.0655222 0.139544
0.61651 0.0653391 0.140322
0.61706 0.0649119 0.141482
0.618357 0.0639811 0.145129
0.619669 0.0628367 0.14873
0.0378271 0.261265 0.113573
0.0368353 0.263676 0.108354
0.0357061 0.265019 0.102586
0.034287 0.265644 0.0979629
0.0325628 0.267018 0.0946365
0.0313726 0.268101 0.0895705
0.0309453 0.268177 0.0851301
0.0312352 0.266941 0.0853437
0.0322728 0.264485 0.0810559
0.0429847 0.260151 0.0714275
0.0798352 0.258274 0.0670787
0.1364 0.256565 0.0639353
0.216938 0.251865 0.0551614
0.312413 0.244114 0.0562295
0.395926 0.238636 0.0643015
0.478721 0.219974 0.0774701
0.545678 0.196124 0.0893568
0.587106 0.177523 0.0988632
0.617655 0.150286 0.108385
0.634958 0.103456 0.116289
0.647318 0.0784924 0.130495
0.644923 0.0712596 0.134859
0.637964 0.0688182 0.134493
0.630716 0.0662699 0.13521
0.623819 0.0640116 0.135332
0.621302 0.0632486 0.135424
0.620356 0.0628214 0.135653
0.620188 0.0626535 0.136248
0.620584 0.0626688 0.13695
0.621668 0.0628214 0.137942
0.623652 0.0632181 0.138994
0.626657 0.0635996 0.141085
0.631281 0.0644694 0.14403
0.0334478 0.317311 0.128267
0.0328832 0.319783 0.123461
0.0321813 0.321431 0.118074
0.0313878 0.322545 0.112139
0.0304417 0.323476 0.107851
0.0297551 0.324651 0.105409
0.0290227 0.325963 0.101518
0.0284276 0.326726 0.0957351
0.0284581 0.326177 0.0944839
0.0291295 0.323735 0.0893416
0.0402228 0.319738 0.0724498
0.0868238 0.319249 0.0628061
0.166934 0.318273 0.059144
0.270008 0.313329 0.0501717
0.382208 0.30573 0.0547341
0.466789 0.303471 0.0686351
0.547967 0.292332 0.0929122
0.618891 0.266957 0.118914
0.660502 0.24828 0.134493
0.693721 0.222141 0.145998
0.707347 0.173007 0.150439
0.692302 0.119326 0.143023
0.676905 0.0979629 0.13669
0.669642 0.0897993 0.138186
0.663478 0.0840314 0.138796
0.659266 0.0805524 0.139437
0.655497 0.07776 0.139086
0.653773 0.0769513 0.139086
0.653437 0.0774243 0.1393
0.654948 0.0793011 0.139925
0.658656 0.0831922 0.140398
0.664225 0.0879835 0.141878
0.672786 0.0956741 0.145144
0.0318608 0.376028 0.15053
0.031693 0.378744 0.146334
0.0313268 0.381216 0.141451
0.0309758 0.382254 0.135485
0.0305943 0.383062 0.129747
0.0302281 0.383795 0.125307
0.0297398 0.384894 0.123247
0.0293431 0.38674 0.122057
0.028809 0.387839 0.115648
0.0287022 0.38732 0.111833
0.0290532 0.384466 0.105928
0.0421607 0.380896 0.0821241
0.101793 0.382589 0.0629587
0.209064 0.383261 0.0588846
0.329915 0.378897 0.052018
0.451698 0.371618 0.060029
0.53489 0.372992 0.0817273
0.61471 0.369818 0.116701
0.691081 0.348867 0.155901
0.740139 0.329671 0.178439
0.771145 0.305409 0.191333
0.777295 0.272435 0.191974
0.766125 0.249653 0.184726
0.755474 0.229969 0.178073
0.745968 0.212818 0.172213
0.737179 0.197574 0.16669
0.730968 0.186175 0.163104
0.727489 0.177554 0.16289
0.725368 0.173617 0.161746
0.726741 0.176165 0.1626
0.730861 0.185763 0.163256
0.740917 0.202625 0.170459
0.755123 0.226368 0.180896
0.0358587 0.438193 0.185016
0.0360571 0.441398 0.182132
0.0361028 0.44387 0.177935
0.0360571 0.444831 0.172412
0.0359808 0.44564 0.166445
0.0360266 0.446448 0.161135
0.0361028 0.447593 0.156603
0.0360571 0.448341 0.152865
0.0357824 0.449714 0.151446
0.035462 0.451301 0.146731
0.0353094 0.451545 0.14139
0.0357214 0.448676 0.134829
0.0511025 0.445579 0.104265
0.13257 0.449454 0.073228
0.268528 0.451637 0.0693065
0.397452 0.447578 0.0658274
0.518532 0.441428 0.0786145
0.601984 0.445762 0.109422
0.679957 0.449454 0.151019
0.758999 0.436988 0.196796
0.811749 0.413886 0.225162
0.835874 0.391424 0.236011
0.83061 0.375708 0.231037
0.82472 0.363592 0.22649
0.819348 0.353002 0.222187
0.815198 0.344503 0.219043
0.811978 0.33817 0.216571
0.810056 0.334234 0.215167
0.809735 0.333562 0.214984
0.810971 0.335622 0.216052
0.814252 0.342077 0.218585
0.820722 0.354437 0.224109
0.829862 0.37142 0.232288
0.0475319 0.503319 0.233494
0.0482338 0.506401 0.231571
0.0489509 0.509194 0.228702
0.049485 0.510704 0.224994
0.0499275 0.511818 0.220127
0.0504005 0.513222 0.215717
0.0506905 0.513985 0.210803
0.0509804 0.514565 0.20528
0.0513161 0.515129 0.1991
0.0513924 0.516182 0.194553
0.0513008 0.51841 0.191196
0.0512093 0.518883 0.186236
0.0515145 0.515877 0.178088
0.0712444 0.512306 0.136843
0.19266 0.5205 0.0984054
0.34342 0.524117 0.0951858
0.468086 0.519539 0.09514
0.58529 0.513848 0.114549
0.668086 0.518791 0.151369
0.742519 0.527276 0.194491
0.81796 0.523674 0.238514
0.869993 0.503014 0.269718
0.877577 0.486686 0.272877
0.873686 0.475441 0.269062
0.870344 0.467002 0.265843
0.867689 0.460517 0.263371
0.865904 0.456504 0.261631
0.864897 0.45417 0.260746
0.864927 0.454093 0.260792
0.865934 0.456947 0.261753
0.868482 0.463432 0.26421
0.873274 0.47483 0.269108
0.880034 0.492103 0.27628
0.071107 0.571466 0.295491
0.0726024 0.574899 0.295094
0.0738079 0.577798 0.293767
0.0747387 0.580072 0.291463
0.0754101 0.581552 0.288487
0.0759594 0.582635 0.284688
0.0762798 0.583413 0.280354
0.0766461 0.5841 0.275532
0.0771801 0.584878 0.269078
0.0778668 0.585992 0.261067
0.0783398 0.586709 0.251347
0.0784161 0.588663 0.246616
0.0778515 0.588922 0.243595
0.0777752 0.584649 0.231693
0.107683 0.582452 0.175753
0.276402 0.595529 0.137087
0.424521 0.598291 0.13463
0.538888 0.591684 0.137316
0.650675 0.586053 0.161563
0.73167 0.59115 0.200687
0.801556 0.60296 0.241733
0.865431 0.605905 0.280934
0.900267 0.597238 0.302724
0.90013 0.588083 0.300938
0.899077 0.580377 0.299016
0.898329 0.574701 0.297765
0.897368 0.570932 0.296559
0.896925 0.568322 0.296101
0.896788 0.568215 0.296132
0.896895 0.570871 0.296651
0.897841 0.577249 0.298299
0.899168 0.58883 0.301305
0.900862 0.6047 0.305348
0.10721 0.641688 0.364767
0.109316 0.645457 0.36611
0.111711 0.64921 0.367315
0.112764 0.651148 0.365957
0.113695 0.652766 0.364034
0.11458 0.654093 0.361868
0.115221 0.655161 0.359091
0.115816 0.656062 0.355825
0.116594 0.65742 0.35137
0.117098 0.658137 0.344045
0.117479 0.658656 0.333059
0.117784 0.659175 0.318944
0.117403 0.660365 0.306798
0.116258 0.659327 0.304631
0.117998 0.654124 0.288121
0.172198 0.657465 0.220249
0.373037 0.671656 0.188495
0.50248 0.672526 0.187457
0.608652 0.663828 0.190234
0.71458 0.657938 0.217227
0.793545 0.662562 0.257389
0.850996 0.67425 0.29218
0.898894 0.68249 0.324834
0.910018 0.679133 0.330922
0.90959 0.674235 0.328847
0.909117 0.66981 0.327092
0.908873 0.666911 0.326162
0.908553 0.665003 0.325704
0.908385 0.665034 0.325826
0.908309 0.667445 0.32665
0.908553 0.672724 0.328557
0.908736 0.681147 0.331426
0.909575 0.69308 0.335988
0.155337 0.712215 0.437461
0.157519 0.71606 0.440085
0.159487 0.719356 0.441917
0.160647 0.72137 0.441764
0.161624 0.722957 0.441001
0.162203 0.724025 0.439582
0.163088 0.725429 0.438529
0.163607 0.726482 0.436271
0.163958 0.727382 0.43299
0.164126 0.728084 0.427573
0.164279 0.72871 0.420066
0.16408 0.729076 0.407813
0.164233 0.729763 0.39057
0.164034 0.729824 0.373358
0.161578 0.726146 0.369024
0.169863 0.721416 0.343893
0.269566 0.733822 0.275792
0.466865 0.744778 0.254734
0.575769 0.744823 0.254673
0.67686 0.734829 0.255421
0.777356 0.728786 0.283879
0.848615 0.732555 0.320607
0.893935 0.744442 0.350988
0.920729 0.753658 0.37145
0.920928 0.750179 0.369757
0.91986 0.746578 0.367483
0.919203 0.744198 0.366155
0.918654 0.743023 0.365728
0.918471 0.743297 0.3664
0.918441 0.745525 0.368093
0.919295 0.749828 0.371389
0.920256 0.756725 0.376196
0.922683 0.765408 0.382879
0.199924 0.774762 0.511391
0.201831 0.777768 0.513924
0.203647 0.780545 0.516213
0.204364 0.781994 0.51635
0.204974 0.783139 0.515984
0.205768 0.78436 0.515435
0.206622 0.785458 0.514961
0.207141 0.786282 0.513481
0.207401 0.787015 0.511238
0.207416 0.787594 0.507179
0.20708 0.788022 0.50132
0.206851 0.788678 0.49279
0.206271 0.788693 0.479683
0.205783 0.788556 0.459861
0.20444 0.786587 0.448173
0.206363 0.781033 0.424552
0.224826 0.78088 0.394491
0.380224 0.800916 0.339696
0.550668 0.808988 0.333242
0.644984 0.809369 0.333349
0.741268 0.801709 0.333135
0.836591 0.797635 0.360754
0.899733 0.799481 0.393423
0.932067 0.809384 0.41561
0.940185 0.811749 0.420523
0.938918 0.809049 0.418173
0.93785 0.807263 0.417014
0.937255 0.80676 0.417411
0.936919 0.806928 0.41825
0.937179 0.808286 0.420294
0.937865 0.811353 0.423117
0.940124 0.816678 0.428443
0.94374 0.823316 0.43621
0.236652 0.822751 0.581582
0.237827 0.824887 0.583764
0.238911 0.826749 0.58558
0.239673 0.828061 0.586099
0.240467 0.829252 0.586435
0.241062 0.829984 0.586191
0.241642 0.830594 0.585885
0.241947 0.831083 0.584894
0.241962 0.831479 0.583062
0.241825 0.831952 0.580697
0.241337 0.832334 0.576608
0.24033 0.832486 0.570031
0.239048 0.832364 0.560403
0.237842 0.831998 0.545876
0.236469 0.830884 0.528908
0.235584 0.828214 0.5187
0.250233 0.82356 0.465797
0.305943 0.833097 0.441199
0.482567 0.852552 0.408423
0.629801 0.861845 0.416327
0.714672 0.864622 0.418677
0.806622 0.860258 0.417853
0.889815 0.85568 0.441459
0.943755 0.855512 0.4692
0.964797 0.860273 0.482063
0.964248 0.858381 0.479377
0.963287 0.857176 0.477684
0.962097 0.856321 0.476936
0.961288 0.856413 0.477775
0.960967 0.857664 0.480369
0.961212 0.860075 0.48452
0.962676 0.864164 0.491341
0.965621 0.870253 0.501274
0.265644 0.855222 0.638483
0.266835 0.856565 0.640085
0.267872 0.857923 0.641199
0.268513 0.858808 0.64155
0.268879 0.859281 0.641291
0.26949 0.859754 0.641169
0.27013 0.860151 0.640925
0.270649 0.860487 0.640421
0.271 0.860945 0.639567
0.271031 0.861418 0.638041
0.270588 0.861769 0.635203
0.269886 0.862104 0.631174
0.26891 0.86244 0.625284
0.267811 0.862669 0.616571
0.266606 0.862776 0.604562
0.263935 0.860594 0.595483
0.263676 0.855741 0.563073
0.297612 0.857816 0.498894
0.409583 0.876188 0.492943
0.575952 0.892699 0.4878
0.718059 0.904463 0.513466
0.792462 0.90901 0.516167
0.865263 0.906676 0.509636
0.930663 0.904204 0.525216
0.970703 0.903044 0.546807
0.980163 0.902632 0.550881
0.979889 0.900954 0.548669
0.97937 0.899855 0.547799
0.978561 0.899611 0.548989
0.977615 0.900359 0.552422
0.976913 0.902449 0.558267
0.976989 0.90605 0.567117
0.977157 0.91075 0.578698
0.279423 0.867063 0.66215
0.279225 0.867109 0.66154
0.278996 0.867262 0.660777
0.278798 0.867369 0.659754
0.278691 0.867445 0.658686
0.278676 0.867414 0.657725
0.278752 0.867338 0.656794
0.278752 0.867231 0.655802
0.278584 0.86714 0.654231
0.278096 0.867094 0.651865
0.277333 0.867063 0.648966
0.276265 0.867094 0.644572
0.274983 0.867063 0.638437
0.273426 0.867048 0.630014
0.271717 0.866926 0.617685
0.270802 0.86688 0.611093
0.271229 0.867933 0.605768
0.290867 0.871534 0.573816
0.380911 0.883482 0.531914
0.500069 0.898436 0.549722
0.661616 0.913222 0.567193
0.802396 0.929137 0.606439
0.859678 0.936355 0.611017
0.917128 0.941619 0.615228
0.96051 0.941085 0.626734
0.982605 0.939788 0.64062
0.982376 0.937926 0.636225
0.982162 0.937026 0.634882
0.981338 0.93666 0.635416
0.980285 0.937133 0.640131
0.979553 0.938216 0.646464
0.979477 0.940826 0.656901
0.979492 0.944549 0.669963
0.280232 0.867124 0.664775
0.279942 0.867216 0.664073
0.279652 0.867353 0.663386
0.279377 0.86746 0.662531
0.279225 0.867521 0.661601
0.279179 0.867506 0.660517
0.279149 0.86743 0.659419
0.279118 0.867323 0.658198
0.278614 0.867369 0.656672
0.277928 0.867399 0.654597
0.276982 0.867414 0.651286
0.275868 0.867414 0.647181
0.274586 0.867369 0.641276
0.273182 0.867277 0.632975
0.271672 0.867109 0.621241
0.270665 0.867002 0.612253
0.271077 0.867735 0.608728
0.284977 0.871138 0.584207
0.354269 0.879515 0.533272
0.474647 0.895811 0.551232
0.61886 0.91136 0.575097
0.771176 0.927077 0.62005
0.863233 0.941009 0.657465
0.902525 0.94612 0.662272
0.945998 0.952682 0.677241
0.975662 0.958175 0.705806
0.981582 0.959365 0.714214
0.981643 0.959182 0.713909
0.981201 0.959136 0.714611
0.980316 0.959167 0.716411
0.979522 0.959182 0.718547
0.978759 0.959152 0.720806
0.978164 0.959243 0.722759
0.28072 0.867308 0.667033
0.280446 0.867369 0.666239
0.280095 0.86746 0.665415
0.279683 0.867582 0.664393
0.279301 0.867689 0.663523
0.278965 0.867765 0.66273
0.278645 0.867781 0.661646
0.278325 0.867781 0.660334
0.277943 0.86775 0.658564
0.27747 0.86772 0.656565
0.276768 0.867674 0.653452
0.275868 0.867582 0.649348
0.274754 0.867475 0.64358
0.273411 0.867338 0.635264
0.271931 0.867155 0.623682
0.270756 0.867002 0.613077
0.270726 0.867262 0.610269
0.280476 0.870497 0.590417
0.32755 0.875441 0.535241
0.457649 0.894133 0.548775
0.595636 0.909483 0.571359
0.75285 0.924849 0.613123
0.85304 0.939437 0.653407
0.894865 0.945312 0.66183
0.935607 0.951476 0.671626
0.968353 0.957824 0.699855
0.978836 0.960403 0.717418
0.978485 0.960388 0.718578
0.977829 0.960433 0.720211
0.976898 0.96051 0.722255
0.976211 0.960494 0.724468
0.975784 0.960418 0.726558
0.97554 0.960342 0.728023
0.281025 0.867506 0.668711
0.280827 0.867506 0.667979
0.280491 0.867536 0.66714
0.280064 0.867613 0.666148
0.279606 0.86772 0.66508
0.27921 0.867811 0.664027
0.278874 0.867857 0.663157
0.278569 0.867842 0.662043
0.278172 0.867826 0.660243
