luts/phantom/IceBlue V-Log Legacy.cube
TITLE "Generated by Resolve"
LUT_3D_SIZE 5
0.0413977 0.0534676 0.055375
0.109606 0.0557717 0.0533761
0.475624 0.0514839 0.0846571
0.627863 0.0706493 0.161181
0.635035 0.0679637 0.187945
0.0475929 0.111254 0.0793164
0.0885176 0.101381 0.0659495
0.469612 0.0487831 0.0752728
0.61648 0.0657206 0.139818
0.622385 0.0668803 0.154604
0.0475319 0.503319 0.233494
0.0513161 0.515129 0.1991
0.468086 0.519539 0.09514
0.870344 0.467002 0.265843
0.880034 0.492103 0.27628
0.280232 0.867124 0.664775
0.278614 0.867369 0.656672
0.271077 0.867735 0.608728
0.945998 0.952682 0.677241
0.978164 0.959243 0.722759
0.281773 0.867857 0.672663
0.27863 0.867475 0.661616
0.289509 0.871153 0.575677
0.962966 0.955566 0.691142
0.973754 0.960708 0.730068
0.03888 0.0586404 0.104326
0.12015 0.0586557 0.107027
0.503365 0.0556649 0.141344
0.651362 0.0734569 0.20647
0.659632 0.0732586 0.230777
0.0457008 0.105791 0.112779
0.0762646 0.0960861 0.108827
0.490272 0.0543374 0.112963
0.633021 0.0697642 0.175784
0.639567 0.0691386 0.193545
0.0469978 0.501915 0.279316
0.0503243 0.514153 0.253178
0.457282 0.521355 0.095613
0.86978 0.466438 0.265278
0.880247 0.489723 0.276631
0.283192 0.866972 0.675151
0.281178 0.867414 0.667857
0.270649 0.866941 0.611399
0.943877 0.951888 0.674067
0.976883 0.957473 0.723812
0.286076 0.868086 0.68629
0.282795 0.867399 0.676677
0.281453 0.869261 0.592325
0.952636 0.953277 0.681926
0.973266 0.960815 0.730556
0.0123445 0.0964218 0.400824
0.0737011 0.0764477 0.437964
0.553689 0.0784924 0.398306
0.740307 0.113161 0.388861
0.742718 0.113848 0.431403
0.0125582 0.116625 0.394736
0.0118257 0.101152 0.418647
0.557488 0.0816663 0.415488
0.742138 0.114549 0.382513
0.74461 0.114824 0.425681
0.0505531 0.496132 0.463706
0.0534676 0.508049 0.477745
0.445045 0.518441 0.521645
0.932372 0.434012 0.479255
0.945266 0.453925 0.512444
0.301762 0.868635 0.733471
0.307988 0.867308 0.732647
0.290684 0.867506 0.695415
0.947494 0.959686 0.78555
0.983246 0.963882 0.845457
0.310674 0.87158 0.770703
0.317723 0.869383 0.767514
0.300984 0.870314 0.72221
0.958572 0.971099 0.877546
0.984649 0.97763 0.901625
0.0340276 0.301045 0.643961
0.0362097 0.312108 0.653346
0.358328 0.348394 0.856123
0.882246 0.38941 0.882063
0.879271 0.390143 0.884779
0.0352331 0.307668 0.647089
0.0344701 0.306096 0.646738
0.337224 0.373999 0.861326
0.885786 0.388602 0.878096
0.880537 0.389853 0.883375
0.0681621 0.489769 0.680034
0.0725261 0.500542 0.692134
0.155077 0.52604 0.781247
0.951446 0.494011 0.915496
0.9467 0.517617 0.930282
0.332876 0.87451 0.854231
0.343984 0.876921 0.856291
0.325628 0.864805 0.840742
0.934997 0.94464 0.948043
0.981399 0.955383 0.957839
0.332326 0.87808 0.871443
0.342 0.876326 0.868757
0.338155 0.878752 0.859236
0.952804 0.977707 0.97467
0.991836 0.987137 0.989471
0.0348516 0.305699 0.646601
0.0381476 0.321614 0.658701
0.361807 0.373297 0.8701
0.882155 0.389441 0.882063
0.881758 0.389563 0.882139
0.0357977 0.308324 0.648096
0.0344701 0.306096 0.646738
0.350668 0.373663 0.866392
0.884871 0.388815 0.879103
0.879652 0.390066 0.884321
0.0916457 0.532845 0.731212
0.0919356 0.537346 0.73164
0.149233 0.534707 0.780133
0.949584 0.514946 0.938521
0.943069 0.532799 0.942687
0.331701 0.878325 0.871626
0.341527 0.876463 0.868864
0.322148 0.861082 0.859327
0.903685 0.935515 0.963149
0.980453 0.955444 0.971542
0.327794 0.87924 0.872526
0.341558 0.876448 0.868864
0.342184 0.876326 0.868772
0.910506 0.970245 0.973938
0.995285 0.986328 0.986252
