luts/phantom/IceBlue V-Log Legacy.cube
TITLE "Generated by Resolve"
LUT_3D_SIZE 9
0.0413977 0.0534676 0.055375
0.0571298 0.0541085 0.0552834
0.109606 0.0557717 0.0533761
0.246586 0.0526894 0.058854
0.475624 0.0514839 0.0846571
0.620066 0.0702831 0.150378
0.627863 0.0706493 0.161181
0.62948 0.0703441 0.16643
0.635035 0.0679637 0.187945
0.0425422 0.059144 0.0578164
0.0452888 0.0569772 0.0564126
0.088014 0.0598917 0.0569314
0.240696 0.0521401 0.0574502
0.474189 0.0482643 0.0750591
0.616648 0.0690318 0.140154
0.624704 0.0711986 0.151049
0.6262 0.0708476 0.155688
0.631144 0.068101 0.176761
0.0475929 0.111254 0.0793164
0.0442512 0.109026 0.0733043
0.0885176 0.101381 0.0659495
0.246189 0.0812543 0.0609598
0.469612 0.0487831 0.0752728
0.612055 0.0640116 0.136614
0.61648 0.0657206 0.139818
0.618555 0.0674449 0.142382
0.622385 0.0668803 0.154604
0.0378271 0.261265 0.113573
0.0325628 0.267018 0.0946365
0.0322728 0.264485 0.0810559
0.216938 0.251865 0.0551614
0.545678 0.196124 0.0893568
0.647318 0.0784924 0.130495
0.623819 0.0640116 0.135332
0.620584 0.0626688 0.13695
0.631281 0.0644694 0.14403
0.0475319 0.503319 0.233494
0.0499275 0.511818 0.220127
0.0513161 0.515129 0.1991
0.0515145 0.515877 0.178088
0.468086 0.519539 0.09514
0.81796 0.523674 0.238514
0.870344 0.467002 0.265843
0.864927 0.454093 0.260792
0.880034 0.492103 0.27628
0.199924 0.774762 0.511391
0.204974 0.783139 0.515984
0.207401 0.787015 0.511238
0.206271 0.788693 0.479683
0.224826 0.78088 0.394491
0.741268 0.801709 0.333135
0.940185 0.811749 0.420523
0.936919 0.806928 0.41825
0.94374 0.823316 0.43621
0.280232 0.867124 0.664775
0.279225 0.867521 0.661601
0.278614 0.867369 0.656672
0.274586 0.867369 0.641276
0.271077 0.867735 0.608728
0.61886 0.91136 0.575097
0.945998 0.952682 0.677241
0.981201 0.959136 0.714611
0.978164 0.959243 0.722759
0.280781 0.86775 0.670771
0.279896 0.867491 0.667414
0.278935 0.867292 0.66244
0.275792 0.866896 0.646159
0.270787 0.866453 0.610651
0.591409 0.908186 0.571298
0.928649 0.948501 0.667292
0.982025 0.959335 0.718029
0.976165 0.960418 0.725368
0.281773 0.867857 0.672663
0.281025 0.867613 0.6692
0.27863 0.867475 0.661616
0.27393 0.866712 0.635554
0.289509 0.871153 0.575677
0.775967 0.927016 0.6224
0.962966 0.955566 0.691142
0.979889 0.95996 0.718486
0.973754 0.960708 0.730068
0.0411536 0.0538186 0.0602579
0.0556497 0.0542 0.0674144
0.114534 0.0571145 0.0766613
0.265049 0.0560769 0.0866255
0.490028 0.0538796 0.116014
0.628351 0.068513 0.175677
0.638911 0.0702678 0.187671
0.641321 0.0705882 0.19292
0.644709 0.0689555 0.20885
0.0420996 0.0578622 0.0599527
0.0414893 0.0536812 0.0555428
0.0950637 0.0557717 0.0577554
0.248692 0.0533761 0.0690929
0.487129 0.0523842 0.101244
0.626474 0.0689403 0.166552
0.631083 0.0689403 0.175586
0.63389 0.0690623 0.180941
0.637659 0.0673838 0.196628
0.0486 0.107134 0.0935378
0.0475166 0.104387 0.0802167
0.082887 0.0983749 0.0665293
0.249012 0.0722667 0.0604562
0.471275 0.047715 0.0802777
0.621439 0.0690166 0.151369
0.62649 0.0701305 0.158709
0.627253 0.0700236 0.161074
0.629999 0.068513 0.173098
0.0397803 0.258747 0.138659
0.0372168 0.262409 0.117845
0.0322423 0.262486 0.0897536
0.209049 0.25182 0.0550546
0.547189 0.186984 0.0885023
0.646326 0.0764172 0.131319
0.622065 0.0634012 0.135485
0.620478 0.0625925 0.137728
0.630884 0.0646525 0.144549
0.0476387 0.504204 0.255222
0.0500954 0.512856 0.244251
0.0510872 0.515435 0.221424
0.0514839 0.518364 0.183734
0.465019 0.521706 0.0961166
0.823163 0.522087 0.241642
0.87097 0.469398 0.266438
0.865873 0.456596 0.261723
0.880827 0.493645 0.277058
0.201129 0.775341 0.521569
0.206348 0.783642 0.525872
0.208545 0.787717 0.521782
0.207309 0.789258 0.491981
0.222934 0.782666 0.403525
0.741405 0.803876 0.335531
0.940337 0.812573 0.420996
0.937057 0.807477 0.418021
0.94342 0.823346 0.436606
0.280827 0.867262 0.6692
0.280186 0.867567 0.665873
0.279759 0.867414 0.661479
0.275731 0.867399 0.646296
0.270741 0.867231 0.610269
0.612818 0.910811 0.574243
0.9458 0.952605 0.676951
0.981308 0.958938 0.713359
0.97792 0.958755 0.72108
0.282795 0.867567 0.675364
0.281025 0.867445 0.671519
0.280125 0.867292 0.666804
0.276631 0.867033 0.651041
0.270832 0.86656 0.610224
0.587472 0.907561 0.570321
0.927749 0.948257 0.666911
0.981521 0.959152 0.721279
0.975692 0.960159 0.729274
0.282673 0.868055 0.67689
0.281865 0.86775 0.673442
0.279881 0.86746 0.666041
0.274922 0.866758 0.640833
0.287907 0.870909 0.58024
0.768566 0.92604 0.619501
0.960327 0.954925 0.688548
0.979858 0.959945 0.718669
0.973861 0.960754 0.729305
0.03888 0.0586404 0.104326
0.0669413 0.0557259 0.100359
0.12015 0.0586557 0.107027
0.279362 0.0576944 0.119982
0.503365 0.0556649 0.141344
0.640253 0.0711223 0.194614
0.651362 0.0734569 0.20647
0.6551 0.074342 0.212726
0.659632 0.0732586 0.230777
0.04094 0.0637369 0.0873579
0.0390326 0.058793 0.102159
0.102861 0.0580453 0.101091
0.270695 0.0565194 0.107576
0.502953 0.0548867 0.130205
0.635889 0.069688 0.18587
0.64303 0.0711986 0.195239
0.64622 0.0717937 0.200717
0.651225 0.0707561 0.218616
0.0457008 0.105791 0.112779
0.0448768 0.103059 0.11046
0.0762646 0.0960861 0.108827
0.258106 0.0765545 0.0971237
0.490272 0.0543374 0.112963
0.628077 0.0691997 0.169146
0.633021 0.0697642 0.175784
0.635309 0.070161 0.179171
0.639567 0.0691386 0.193545
0.041001 0.25507 0.167956
0.0397192 0.258091 0.155627
0.0390784 0.255497 0.129717
0.207446 0.25066 0.0862745
0.547753 0.17789 0.0970016
0.645731 0.0742809 0.138781
0.627588 0.0685588 0.147814
0.630259 0.070573 0.156588
0.633005 0.0668803 0.159182
0.0469978 0.501915 0.279316
0.049073 0.511269 0.271595
0.0503243 0.514153 0.253178
0.0506905 0.514519 0.190463
0.457282 0.521355 0.095613
0.824125 0.518776 0.241947
0.86978 0.466438 0.265278
0.865019 0.453254 0.260945
0.880247 0.489723 0.276631
0.2009 0.773129 0.530694
0.206806 0.781735 0.536263
0.209201 0.78555 0.532448
0.206958 0.786709 0.504509
0.218555 0.782803 0.411353
0.737758 0.803662 0.334737
0.939452 0.810575 0.418997
0.935912 0.805127 0.415549
0.942565 0.820905 0.433707
0.283192 0.866972 0.675151
0.282032 0.867475 0.671977
0.281178 0.867414 0.667857
0.277165 0.867552 0.653651
0.270649 0.866941 0.611399
0.597177 0.909453 0.572061
0.943877 0.951888 0.674067
0.980499 0.956985 0.711116
0.976883 0.957473 0.723812
0.283635 0.868009 0.681224
0.282994 0.867826 0.678004
0.282795 0.866896 0.673823
0.278767 0.867018 0.658778
0.270924 0.866499 0.610498
0.571496 0.905898 0.56762
0.923781 0.947784 0.665873
0.981537 0.959152 0.721141
0.975464 0.960082 0.730755
0.286076 0.868086 0.68629
0.284611 0.868208 0.68336
0.282795 0.867399 0.676677
0.277958 0.866819 0.653834
0.281453 0.869261 0.592325
0.742611 0.922866 0.610071
0.952636 0.953277 0.681926
0.979706 0.959884 0.719753
0.973266 0.960815 0.730556
0.0315557 0.0705577 0.20943
0.0567788 0.0646677 0.217136
0.152773 0.0601053 0.205615
0.302754 0.0606241 0.204837
0.530526 0.0627146 0.218341
0.675639 0.0825055 0.250523
0.687251 0.085832 0.262333
0.690349 0.0868238 0.268971
0.696254 0.0870527 0.294179
0.0315862 0.0757458 0.201938
0.0309148 0.0713054 0.216831
0.0973068 0.0617533 0.23032
0.300999 0.0606851 0.211276
0.535531 0.062501 0.215351
0.677241 0.0823987 0.24831
0.685115 0.0849317 0.258412
0.687968 0.085832 0.264683
0.694774 0.0864424 0.291264
0.0317998 0.113817 0.1991
0.0302434 0.106004 0.216236
0.0442054 0.090837 0.235706
0.279301 0.0666514 0.213504
0.526864 0.0613413 0.198474
0.66981 0.080293 0.231327
0.676661 0.082414 0.240284
0.679942 0.0836805 0.245533
0.686625 0.0841993 0.267582
0.0345159 0.251911 0.23888
0.0323033 0.255161 0.242115
0.0323186 0.251698 0.241688
0.197375 0.244907 0.253529
0.564218 0.193469 0.220432
0.674037 0.0877394 0.205234
0.664469 0.0793622 0.212848
0.667201 0.0800336 0.220111
0.674311 0.0805982 0.236469
0.047715 0.499794 0.343175
0.0495003 0.509255 0.344121
0.0502632 0.511574 0.335317
0.0486458 0.50695 0.286336
0.456245 0.528344 0.214221
0.845212 0.505806 0.295964
0.881758 0.446296 0.299367
0.876097 0.429984 0.294759
0.894591 0.472633 0.319081
0.200732 0.766186 0.555734
0.207416 0.774411 0.562036
0.208988 0.777722 0.559533
0.204852 0.778424 0.537408
0.21146 0.774945 0.424094
0.726894 0.803265 0.360174
0.947356 0.809308 0.444083
0.944289 0.803525 0.440986
0.951598 0.819821 0.471901
0.288014 0.867369 0.690898
0.289021 0.867491 0.689708
0.28835 0.867124 0.686366
0.283345 0.867262 0.674311
0.273838 0.866697 0.628183
0.572 0.90779 0.580209
0.940551 0.950469 0.672251
0.982177 0.95314 0.705104
0.979141 0.956603 0.736873
0.288746 0.86862 0.69868
0.290425 0.86804 0.697185
0.289235 0.867491 0.693538
0.284947 0.867018 0.680735
0.274647 0.866438 0.634989
0.542748 0.903655 0.573754
0.916838 0.947585 0.676173
0.981994 0.96025 0.735363
0.976181 0.96173 0.752438
0.293095 0.869368 0.713222
0.294865 0.868757 0.712261
0.293217 0.86836 0.707103
0.287327 0.867201 0.688396
0.280232 0.869307 0.635645
0.702937 0.923552 0.646464
0.945068 0.955703 0.716777
0.981628 0.963592 0.757916
0.975601 0.964157 0.76321
0.0123445 0.0964218 0.400824
0.0243992 0.0909133 0.418921
0.0737011 0.0764477 0.437964
0.319738 0.0618601 0.426246
0.553689 0.0784924 0.398306
0.72549 0.107301 0.378698
0.740307 0.113161 0.388861
0.741695 0.11371 0.396445
0.742718 0.113848 0.431403
0.01178 0.101015 0.405814
0.0110018 0.0999008 0.413352
0.0356909 0.0897078 0.440894
0.276753 0.0634318 0.456413
0.563058 0.0817426 0.413352
0.734859 0.110903 0.388098
0.742275 0.114122 0.397635
0.743313 0.114534 0.405158
0.743816 0.114595 0.440726
0.0125582 0.116625 0.394736
0.0106813 0.109636 0.41004
0.0118257 0.101152 0.418647
0.19617 0.0674144 0.471641
0.557488 0.0816663 0.415488
0.737118 0.112322 0.375845
0.742138 0.114549 0.382513
0.743236 0.1149 0.390143
0.74461 0.114824 0.425681
0.011841 0.25069 0.4038
0.0105745 0.248234 0.418189
0.010193 0.236591 0.428107
0.0705882 0.209842 0.487205
0.566476 0.15436 0.464637
0.72401 0.10901 0.358831
0.738216 0.112688 0.36791
0.739605 0.113268 0.372641
0.742687 0.113985 0.403555
0.0505531 0.496132 0.463706
0.052781 0.505669 0.474479
0.0534676 0.508049 0.477745
0.0515908 0.502693 0.47538
0.445045 0.518441 0.521645
0.882567 0.482597 0.491585
0.932372 0.434012 0.479255
0.926726 0.418769 0.477058
0.945266 0.453925 0.512444
0.205188 0.753887 0.620935
0.212909 0.762036 0.627695
0.215396 0.764935 0.628061
0.210819 0.763455 0.616037
0.202487 0.755138 0.562814
0.728084 0.802823 0.558389
0.975189 0.801785 0.598398
0.973877 0.792584 0.597086
0.96347 0.813931 0.639445
0.301762 0.868635 0.733471
0.307515 0.867597 0.734279
0.307988 0.867308 0.732647
0.30428 0.867048 0.724636
0.290684 0.867506 0.695415
0.596475 0.916945 0.681483
0.947494 0.959686 0.78555
0.98613 0.959426 0.808362
0.983246 0.963882 0.845457
0.302907 0.87013 0.743481
0.309499 0.868406 0.744137
0.30956 0.868223 0.74229
0.30518 0.867887 0.733684
0.293873 0.867048 0.702876
0.555978 0.909743 0.677516
0.937606 0.963012 0.828611
0.989242 0.97464 0.871107
0.983688 0.976104 0.889342
0.310674 0.87158 0.770703
0.31725 0.869825 0.770977
0.317723 0.869383 0.767514
0.311269 0.869047 0.754238
0.300984 0.870314 0.72221
0.719951 0.933059 0.776471
0.958572 0.971099 0.877546
0.990112 0.977584 0.899229
0.984649 0.97763 0.901625
0.0128634 0.16849 0.527733
0.0129702 0.171649 0.532204
0.0195621 0.166415 0.547616
0.135454 0.141939 0.62472
0.533211 0.121126 0.635676
0.771267 0.171283 0.607065
0.789166 0.179324 0.621271
0.79498 0.187976 0.634165
0.802625 0.21062 0.677638
0.01355 0.173159 0.534646
0.0135195 0.176318 0.538705
0.0139773 0.178744 0.543252
0.10457 0.162692 0.626978
0.527581 0.131914 0.661646
0.784756 0.182559 0.62652
0.798123 0.194903 0.646067
0.802319 0.203174 0.659876
0.80882 0.226017 0.703792
0.0139773 0.176089 0.53196
0.0137484 0.178058 0.540536
0.0138857 0.178851 0.54255
0.060441 0.175113 0.605631
0.493828 0.136538 0.676997
0.78854 0.186267 0.627649
0.800961 0.194766 0.640787
0.804883 0.202502 0.654154
0.812619 0.225711 0.697063
0.0157626 0.232837 0.536767
0.0155032 0.233158 0.544656
0.0157931 0.227039 0.550393
0.0173648 0.212818 0.558877
0.402426 0.146639 0.687892
0.777829 0.185428 0.629191
0.791791 0.178988 0.61532
0.794263 0.183246 0.622934
0.801602 0.202792 0.661097
0.0478523 0.487419 0.585397
0.0496681 0.495125 0.593256
0.0505531 0.495201 0.598978
0.0493629 0.48159 0.607004
0.305287 0.50663 0.78941
0.878752 0.460746 0.780957
0.953689 0.415961 0.722148
0.947875 0.403967 0.718135
0.958923 0.443473 0.763699
0.21091 0.738491 0.711421
0.218494 0.746548 0.718441
0.220798 0.748638 0.720851
0.218601 0.746365 0.719371
0.204532 0.731655 0.708644
0.721141 0.781079 0.789395
0.968582 0.769345 0.781964
0.971176 0.760113 0.780148
0.959945 0.783902 0.80528
0.321126 0.873243 0.800748
0.327245 0.872648 0.802136
0.328298 0.87248 0.801892
0.32575 0.872282 0.797375
0.318288 0.870787 0.780606
0.569467 0.912856 0.805371
0.946838 0.955749 0.896376
0.983703 0.96141 0.914794
0.982269 0.965286 0.93135
0.325505 0.87483 0.814725
0.332113 0.874022 0.815488
0.332753 0.873701 0.814542
0.327565 0.873884 0.808438
0.319356 0.871611 0.787564
0.445869 0.911833 0.797696
0.939986 0.972503 0.936233
0.996307 0.983856 0.96437
0.993484 0.985626 0.975204
0.333547 0.878645 0.843275
0.340352 0.876936 0.842603
0.341939 0.876265 0.839887
0.335653 0.876341 0.830533
0.325795 0.874449 0.806256
0.64036 0.93315 0.862669
0.962768 0.977615 0.958724
0.992584 0.985229 0.973068
0.99025 0.986816 0.980148
0.0340276 0.301045 0.643961
0.034226 0.303914 0.646006
0.0362097 0.312108 0.653346
0.0424964 0.326299 0.668635
0.358328 0.348394 0.856123
0.833097 0.359121 0.872389
0.882246 0.38941 0.882063
0.883497 0.38912 0.880735
0.879271 0.390143 0.884779
0.0343481 0.30248 0.644816
0.0342107 0.304433 0.645823
0.0361639 0.313603 0.652399
0.0419623 0.336889 0.6701
0.360479 0.369192 0.867903
0.849729 0.378241 0.884825
0.88275 0.389303 0.881407
0.882582 0.389334 0.881758
0.8804 0.389883 0.883543
0.0352331 0.307668 0.647089
0.0345006 0.306081 0.646632
0.0344701 0.306096 0.646738
0.0406958 0.332982 0.666178
0.337224 0.373999 0.861326
0.845823 0.380926 0.889387
0.885786 0.388602 0.878096
0.884962 0.3888 0.878981
0.880537 0.389853 0.883375
0.0326696 0.303197 0.633295
0.034287 0.314717 0.64152
0.0361944 0.32108 0.648417
0.0376593 0.322988 0.655512
0.258366 0.374655 0.826093
0.809308 0.374945 0.896132
0.887587 0.38819 0.876249
0.887785 0.388159 0.875837
0.881178 0.3897 0.882734
0.0681621 0.489769 0.680034
0.0707256 0.498543 0.686458
0.0725261 0.500542 0.692134
0.0753796 0.499168 0.704463
0.155077 0.52604 0.781247
0.713588 0.519051 0.977172
0.951446 0.494011 0.915496
0.949691 0.485023 0.907378
0.9467 0.517617 0.930282
0.176806 0.721401 0.759823
0.183291 0.728069 0.763424
0.184146 0.729259 0.76553
0.181369 0.72488 0.766796
0.171344 0.705943 0.768887
0.642161 0.776715 0.936919
0.961776 0.766217 0.924559
0.971664 0.760494 0.917021
0.959487 0.785763 0.920882
0.332876 0.87451 0.854231
0.341695 0.877226 0.856413
0.343984 0.876921 0.856291
0.341726 0.877653 0.855146
0.325628 0.864805 0.840742
0.518059 0.911177 0.8963
0.934997 0.94464 0.948043
0.983307 0.949828 0.950088
0.981399 0.955383 0.957839
0.334325 0.877562 0.867521
0.339483 0.877348 0.866072
0.342367 0.876738 0.86508
0.339269 0.877806 0.862776
0.337499 0.87892 0.853681
0.382483 0.904021 0.864713
0.929229 0.973419 0.964797
0.994904 0.985824 0.98381
0.998886 0.98471 0.982712
0.332326 0.87808 0.871443
0.338338 0.877211 0.869795
0.342 0.876326 0.868757
0.338857 0.877287 0.869001
0.338155 0.878752 0.859236
0.480674 0.930831 0.901762
0.952804 0.977707 0.97467
0.992401 0.986786 0.988907
0.991836 0.987137 0.989471
0.0348516 0.305699 0.646601
0.0349126 0.307866 0.647913
0.0381323 0.321569 0.65864
0.0449836 0.339971 0.674601
0.348898 0.374044 0.865415
0.825956 0.379202 0.893599
0.882155 0.389441 0.882063
0.882322 0.389395 0.881987
0.881865 0.389532 0.882048
0.0349889 0.305531 0.646647
0.0345006 0.306081 0.646632
0.0361028 0.313649 0.652094
0.042298 0.338598 0.670787
0.357534 0.37319 0.86894
0.849409 0.382818 0.889754
0.882094 0.389471 0.882033
0.881727 0.389548 0.882475
0.878614 0.390295 0.885466
0.0357824 0.308446 0.648112
0.0345006 0.306081 0.646632
0.0344701 0.306096 0.646738
0.040528 0.33228 0.665629
0.334829 0.37409 0.860441
0.845518 0.381476 0.890822
0.884764 0.388846 0.879225
0.884443 0.388922 0.879469
0.879667 0.390066 0.884306
0.0442512 0.355734 0.666941
0.0421302 0.349264 0.66392
0.0394598 0.335393 0.658289
0.0372015 0.319509 0.654414
0.254688 0.374563 0.824445
0.80383 0.375189 0.898161
0.885527 0.388647 0.878584
0.886137 0.38854 0.877653
0.880964 0.389761 0.882902
0.0856489 0.518685 0.722637
0.0890364 0.529503 0.72842
0.0891737 0.529854 0.729061
0.085008 0.517876 0.724895
0.138888 0.524788 0.772885
0.679316 0.533684 0.989746
0.943084 0.507332 0.937957
0.941512 0.499977 0.931151
0.940734 0.523613 0.9402
0.184024 0.722988 0.787991
0.189807 0.728908 0.790417
0.192447 0.731014 0.792554
0.190219 0.727199 0.79382
0.177432 0.707652 0.787472
0.59382 0.784512 0.960235
0.939513 0.770871 0.958282
0.967803 0.76524 0.94789
0.955093 0.788266 0.945556
0.328176 0.874281 0.869047
0.338354 0.877256 0.869764
0.340352 0.876783 0.869123
0.336004 0.875959 0.868894
0.313603 0.859556 0.858763
0.460182 0.896803 0.917418
0.901762 0.933547 0.961929
0.981292 0.948318 0.966659
0.979919 0.953811 0.969284
0.332647 0.877745 0.871519
0.338338 0.877256 0.86978
0.340856 0.876646 0.869017
0.336919 0.877714 0.869886
0.333501 0.878569 0.87071
0.361944 0.895323 0.883665
0.88896 0.968887 0.968582
0.991455 0.984924 0.986389
0.992309 0.986664 0.988678
0.332219 0.878218 0.871397
0.338338 0.877256 0.86978
0.341436 0.876478 0.868879
0.338628 0.877241 0.869673
0.33402 0.878477 0.870619
0.426856 0.917281 0.909041
0.919249 0.972412 0.973419
0.991241 0.987121 0.989746
0.993759 0.986664 0.987686
0.0348516 0.305699 0.646601
0.0348669 0.307668 0.647791
0.0381476 0.321614 0.658701
0.0458686 0.340978 0.676158
0.361807 0.373297 0.8701
0.840772 0.381811 0.891386
0.882155 0.389441 0.882063
0.8822 0.389425 0.882078
0.881758 0.389563 0.882139
0.0349889 0.305531 0.646647
0.0345006 0.306081 0.646632
0.0361639 0.313909 0.652262
0.0424811 0.339117 0.671534
0.371832 0.372564 0.874052
0.865492 0.384726 0.884871
0.882094 0.389471 0.882033
0.881727 0.389548 0.882475
0.878218 0.390387 0.885893
0.0357977 0.308324 0.648096
0.0345006 0.306081 0.646632
0.0344701 0.306096 0.646738
0.0407263 0.333257 0.666148
0.350668 0.373663 0.866392
0.856474 0.382666 0.887922
0.884871 0.388815 0.879103
0.884443 0.388922 0.879454
0.879652 0.390066 0.884321
0.0445411 0.356802 0.667552
0.0425879 0.351995 0.664759
0.0404364 0.340459 0.660349
0.0380407 0.325124 0.656458
0.267185 0.375463 0.830716
0.81471 0.377508 0.897124
0.885618 0.388632 0.878492
0.886152 0.388525 0.877653
0.880964 0.389761 0.882887
0.0916457 0.532845 0.731212
0.0922866 0.537881 0.731929
0.0919356 0.537346 0.73164
0.0876173 0.525139 0.727642
0.149233 0.534707 0.780133
0.695109 0.540871 0.987961
0.949584 0.514946 0.938521
0.945846 0.508995 0.934646
0.943069 0.532799 0.942687
0.191562 0.73228 0.798199
0.197162 0.737774 0.799283
0.199786 0.739147 0.799802
0.196323 0.733898 0.797436
0.182315 0.713481 0.789471
0.61001 0.791028 0.956283
0.940612 0.779995 0.957458
0.968872 0.773724 0.949264
0.955505 0.797162 0.945357
0.331701 0.878325 0.871626
0.338277 0.877272 0.86978
0.341527 0.876463 0.868864
0.33991 0.874632 0.867704
0.322148 0.861082 0.859327
0.485679 0.90016 0.920256
0.903685 0.935515 0.963149
0.98143 0.950149 0.96994
0.980453 0.955444 0.971542
0.332464 0.877729 0.871611
0.338216 0.877287 0.869795
0.341527 0.876463 0.868864
0.342138 0.876295 0.868727
0.342138 0.876295 0.868727
0.374792 0.894621 0.885435
0.885512 0.966659 0.970108
0.992294 0.984283 0.985183
0.994461 0.986084 0.986603
0.327794 0.87924 0.872526
0.337469 0.877501 0.869871
0.341558 0.876448 0.868864
0.342138 0.876295 0.868727
0.342184 0.876326 0.868772
0.445533 0.915633 0.908064
0.910506 0.970245 0.973938
0.98793 0.987778 0.991867
0.995285 0.986328 0.986252
