luts/phantom/Jamaica V-Log Legacy.cube
TITLE "Generated by Resolve"
LUT_3D_SIZE 33
0.0315099 0.0431373 0.0315099
0.0315099 0.0431067 0.0315099
0.0315251 0.0430457 0.0314946
0.0433814 0.0436713 0.0312352
0.0595254 0.0447089 0.0311437
0.0778515 0.0457465 0.0313878
0.0958114 0.0461738 0.0312352
0.114534 0.0461738 0.0312352
0.136782 0.0455787 0.0312047
0.164706 0.0438697 0.0318608
0.199176 0.0430152 0.0350195
0.241566 0.0426337 0.0406958
0.294804 0.0413214 0.0461585
0.355383 0.0395972 0.0508736
0.416114 0.0382086 0.0603952
0.470741 0.0382086 0.0734417
0.51809 0.0401007 0.0896162
0.56109 0.0436713 0.108431
0.600076 0.0486152 0.129519
0.629389 0.0566873 0.154726
0.635966 0.0592508 0.165621
0.636576 0.0590982 0.167849
0.637171 0.0589303 0.170047
0.637659 0.0588083 0.171878
0.638041 0.0586862 0.173312
0.638361 0.0585794 0.174594
0.638529 0.0584115 0.17557
0.638819 0.058381 0.176547
0.639185 0.0585031 0.177356
0.639414 0.0585946 0.177798
0.639551 0.0586404 0.178103
0.639612 0.0586862 0.178134
0.639612 0.058732 0.178042
0.0315251 0.043061 0.0315099
0.0315099 0.0430762 0.0315099
0.0315251 0.0430457 0.0314946
0.0381323 0.0433204 0.0313726
0.0527657 0.0445411 0.0312505
0.0705272 0.0457008 0.0314031
0.0888228 0.0463569 0.0313573
0.108644 0.0466468 0.0315709
0.131579 0.0460059 0.0312963
0.15996 0.0442817 0.0319677
0.194797 0.0430762 0.0344854
0.237201 0.0421759 0.0387427
0.290059 0.0408484 0.0438544
0.35021 0.0383307 0.0451972
0.410117 0.0365148 0.052491
0.465202 0.0362554 0.0652323
0.514275 0.0378424 0.0826276
0.55726 0.0410468 0.101442
0.595239 0.0452583 0.122484
0.628016 0.0568093 0.150927
0.634958 0.0595102 0.162097
0.635676 0.0593423 0.164553
0.636271 0.0591897 0.166735
0.63679 0.0590524 0.168566
0.637217 0.0589303 0.170169
0.637568 0.0588388 0.17145
0.63769 0.0586709 0.17232
0.637797 0.0585336 0.172961
0.637888 0.0584573 0.173495
0.637949 0.0583963 0.173816
0.637964 0.0583505 0.173968
0.637934 0.05832 0.173938
0.637903 0.05832 0.173831
0.0315251 0.043061 0.0315099
0.0315099 0.0431067 0.0315099
0.0315099 0.0431067 0.0315099
0.0315251 0.0430457 0.0314946
0.0444495 0.0450141 0.0318914
0.0610208 0.0466773 0.0320897
0.0790723 0.0475471 0.0322423
0.100221 0.0479133 0.0322881
0.124407 0.0470588 0.0320134
0.153613 0.045304 0.031754
0.189532 0.0433509 0.0338445
0.232593 0.0422675 0.0381781
0.285649 0.0411383 0.0437781
0.347189 0.038941 0.0467842
0.407111 0.0366827 0.0524147
0.461463 0.035523 0.0604562
0.507774 0.0360418 0.0738842
0.552926 0.0384985 0.0940261
0.590509 0.0424048 0.11516
0.625742 0.0565499 0.145968
0.633906 0.0597238 0.158526
0.634607 0.0595865 0.160891
0.635279 0.0594339 0.163149
0.635828 0.0592966 0.165118
0.636255 0.0591745 0.166674
0.636591 0.0590982 0.16791
0.636881 0.0590219 0.168963
0.637095 0.0589609 0.169757
0.637263 0.0589151 0.170397
0.637385 0.0588846 0.170794
0.63743 0.058854 0.171008
0.63743 0.058854 0.170993
0.637369 0.058854 0.170825
0.031754 0.0445411 0.0328679
0.0312352 0.0441291 0.0315404
0.0317998 0.0439155 0.0317998
0.0323796 0.0437781 0.0315862
0.0397803 0.0454261 0.0319829
0.052491 0.0478218 0.0326848
0.0681468 0.0493629 0.0331579
0.0886244 0.0500343 0.0333867
0.113909 0.0494392 0.033402
0.143832 0.0475624 0.0330205
0.18204 0.0447547 0.0337835
0.226856 0.0428168 0.0374304
0.280674 0.0414282 0.0432593
0.342947 0.0390936 0.0464637
0.404349 0.0370031 0.052781
0.459937 0.0358892 0.0618753
0.506554 0.0360876 0.0735943
0.547707 0.0364996 0.0865797
0.58613 0.0397955 0.108171
0.617777 0.0508736 0.137148
0.632654 0.0599222 0.154559
0.633478 0.0598154 0.157122
0.63418 0.059678 0.159396
0.63473 0.0595712 0.161288
0.635218 0.0594492 0.162982
0.635615 0.0593576 0.164355
0.63592 0.0592813 0.165438
0.636133 0.0592203 0.166217
0.636286 0.0591745 0.166766
0.636378 0.0591592 0.167071
0.636439 0.059144 0.16733
0.636439 0.0591287 0.167346
0.636393 0.0591287 0.167193
0.0323033 0.0565499 0.038117
0.0307622 0.0556191 0.0352331
0.0314946 0.0543221 0.0349126
0.0362554 0.0523995 0.0330053
0.0407111 0.0504768 0.0329442
0.0491188 0.0514382 0.0339971
0.0602426 0.0522621 0.034165
0.0780346 0.0520943 0.0346227
0.10338 0.0518807 0.0346075
0.134264 0.0504005 0.0344854
0.17293 0.047715 0.0343938
0.219211 0.0444648 0.0365454
0.274617 0.0423438 0.0421149
0.338613 0.0392767 0.0460212
0.401083 0.0370947 0.0523384
0.457649 0.035935 0.0614023
0.504799 0.0362249 0.0736858
0.547524 0.0371862 0.0883955
0.583917 0.0389105 0.105104
0.608682 0.0449531 0.126726
0.629831 0.0587015 0.149599
0.632181 0.0599374 0.153231
0.632959 0.0598764 0.155489
0.633585 0.0597848 0.157473
0.634104 0.059678 0.159197
0.634485 0.059617 0.160418
0.634806 0.0595407 0.161563
0.635065 0.0594797 0.162448
0.635248 0.0594492 0.163088
0.635355 0.0594186 0.163439
0.635416 0.0594034 0.163684
0.635416 0.0593881 0.163699
0.63537 0.0593881 0.163546
0.0332341 0.0675822 0.0440986
0.0304417 0.0663767 0.0402075
0.0305028 0.0648661 0.0390173
0.0358129 0.0627604 0.0371557
0.0439307 0.0600443 0.0353399
0.0526284 0.0589761 0.0358282
0.0628519 0.0596475 0.0369116
0.0799115 0.0600443 0.0381018
0.102403 0.0593118 0.0377203
0.13109 0.0566262 0.0375372
0.165621 0.0518959 0.0361639
0.211963 0.0467231 0.0362707
0.268467 0.0436713 0.0400702
0.334066 0.0403296 0.0443885
0.397711 0.0374609 0.0514687
0.455085 0.0359503 0.0608682
0.502861 0.0362097 0.0731212
0.546105 0.0371405 0.0878157
0.583566 0.0392462 0.105791
0.608698 0.0450294 0.126757
0.622766 0.0536507 0.142367
0.62739 0.0570535 0.146792
0.631373 0.0597848 0.151354
0.632288 0.0599374 0.153506
0.632868 0.0598917 0.155215
0.633341 0.0598459 0.156649
0.633677 0.0597696 0.157794
0.633936 0.0597238 0.158648
0.634134 0.059678 0.159274
0.634241 0.0596628 0.15964
0.634302 0.0596475 0.159838
0.634302 0.0596475 0.159838
0.634256 0.0596323 0.159747
0.0328374 0.0822614 0.0463722
0.0290227 0.0810712 0.0431678
0.0288853 0.0789502 0.0425116
0.0317235 0.0762798 0.0417029
0.0424353 0.0724651 0.0383001
0.0515755 0.0696117 0.0367742
0.0648508 0.068864 0.0378271
0.0819867 0.0695506 0.0393835
0.104784 0.069337 0.0407721
0.133196 0.0667277 0.0412909
0.168765 0.0617533 0.0403906
0.211902 0.0547341 0.0384833
0.263905 0.0463722 0.0389258
0.328817 0.0416266 0.0420386
0.394034 0.0382239 0.049836
0.45243 0.0360418 0.0602579
0.500755 0.0361944 0.0725414
0.544594 0.0371252 0.0872053
0.582559 0.0391852 0.105241
0.60827 0.0448768 0.126375
0.62298 0.0536507 0.142977
0.621698 0.052842 0.141451
0.623346 0.054078 0.142901
0.627832 0.0573434 0.147326
0.630976 0.0595102 0.150881
0.631998 0.0599374 0.152712
0.632364 0.0599222 0.15375
0.63267 0.0598917 0.154665
0.632898 0.0598764 0.155352
0.633051 0.0598611 0.155795
0.633143 0.0598611 0.156054
0.633173 0.0598611 0.156146
0.633173 0.0598611 0.156146
0.031754 0.101442 0.0491035
0.0269017 0.100298 0.04477
0.0255894 0.098497 0.0433509
0.0265965 0.0961318 0.0435798
0.0367895 0.0927749 0.041474
0.0482338 0.0881361 0.0386969
0.0599527 0.086183 0.0373999
0.0818494 0.0849622 0.0387427
0.105303 0.0848096 0.0410925
0.133913 0.0843519 0.043122
0.173449 0.0773632 0.0443122
0.217334 0.0696574 0.0429236
0.270008 0.0590524 0.0396277
0.330388 0.0460059 0.0382849
0.389929 0.0400092 0.0466773
0.449653 0.0370184 0.0581369
0.498863 0.0361944 0.0719005
0.543099 0.0370794 0.0865339
0.581216 0.0390936 0.104479
0.60705 0.0442817 0.125002
0.624262 0.0545357 0.144289
0.62417 0.0544594 0.144183
0.623285 0.0538643 0.143221
0.622278 0.0532082 0.142107
0.622049 0.0531014 0.141741
0.623667 0.0542611 0.143328
0.626245 0.0560922 0.145937
0.628016 0.0574197 0.147662
0.629526 0.0584878 0.149279
0.630732 0.0593881 0.150469
0.631388 0.0598764 0.151202
0.63154 0.0599527 0.151415
0.63154 0.059968 0.151446
0.0300603 0.125612 0.052903
0.0248569 0.124773 0.0474556
0.0214847 0.123507 0.0444038
0.0222477 0.121416 0.0445258
0.0264134 0.119142 0.0436408
0.0402838 0.115312 0.0402533
0.0539406 0.110857 0.0383154
0.0728008 0.108721 0.0377966
0.101839 0.106538 0.0384985
0.133715 0.10576 0.0419623
0.171572 0.103288 0.0442206
0.225513 0.0897231 0.0463722
0.278416 0.0772106 0.0441901
0.338491 0.0626535 0.0403449
0.397543 0.046952 0.0391852
0.447456 0.0399481 0.0529335
0.496101 0.0373541 0.0689708
0.540841 0.0370489 0.0855879
0.579629 0.0390478 0.10367
0.605463 0.0434882 0.123308
0.624262 0.0545357 0.144274
0.624262 0.0545357 0.144274
0.624262 0.0545357 0.144274
0.623835 0.0542458 0.143801
0.623224 0.0538338 0.14316
0.622736 0.0535134 0.142611
0.622431 0.053315 0.142275
0.622248 0.053193 0.142061
0.622065 0.0530861 0.141833
0.621927 0.0530098 0.141665
0.621958 0.0530404 0.141665
0.622202 0.0532082 0.141863
0.622354 0.0533455 0.141955
0.0280919 0.155459 0.058793
0.0236362 0.154833 0.0514839
0.018265 0.154162 0.047303
0.0178836 0.153262 0.0444038
0.0187991 0.150881 0.045655
0.0257877 0.148272 0.0429084
0.0411841 0.144076 0.0384527
0.0612955 0.13959 0.0373236
0.0893263 0.136568 0.0372778
0.127031 0.133135 0.0377508
0.170733 0.130648 0.041413
0.2206 0.12578 0.0454108
0.287892 0.106004 0.0485695
0.349889 0.0890059 0.0468452
0.40914 0.0707713 0.0441138
0.460227 0.0519417 0.0450141
0.500587 0.0429694 0.0599985
0.539101 0.0392004 0.0816358
0.576974 0.0389715 0.100099
0.603525 0.0425116 0.121294
0.624262 0.0545357 0.144274
0.624262 0.0545357 0.144274
0.624262 0.0545357 0.144274
0.624262 0.0545357 0.144274
0.624262 0.0545357 0.144274
0.624262 0.0545357 0.144274
0.624048 0.0543984 0.144045
0.623713 0.0541695 0.143679
0.623484 0.0540169 0.14342
0.623255 0.0538796 0.14316
0.623072 0.0537575 0.142901
0.622934 0.0536965 0.142657
0.622873 0.0537118 0.142489
0.0248875 0.193912 0.0678874
0.0218051 0.193988 0.0591287
0.0164034 0.193088 0.0537881
0.0135653 0.192996 0.0493019
0.0133669 0.191653 0.0462959
0.014023 0.189014 0.047776
0.0202792 0.186877 0.0428473
0.0370031 0.182132 0.0363012
0.0705577 0.17702 0.0355077
0.108415 0.172488 0.0363165
0.158679 0.166979 0.0365454
0.218479 0.161913 0.0412604
0.281163 0.15465 0.0477455
0.361425 0.129397 0.0527352
0.425528 0.109773 0.0535134
0.477195 0.0886549 0.0534066
0.516686 0.0642252 0.056733
0.549752 0.0489815 0.070161
0.580682 0.0437476 0.0948501
0.602869 0.043122 0.117494
0.622248 0.0533608 0.142153
0.624063 0.0544137 0.14406
0.624262 0.0545357 0.144274
0.624262 0.0545357 0.144274
0.624262 0.0545357 0.144274
0.624262 0.0545357 0.144274
0.624262 0.0545357 0.144274
0.624262 0.0545357 0.144274
0.624262 0.0545357 0.144274
0.624247 0.0545357 0.144244
0.624231 0.0545357 0.144167
0.624186 0.054551 0.144015
0.62414 0.054551 0.143847
0.0202029 0.242573 0.0815747
0.0180362 0.242084 0.0723278
0.0144961 0.241291 0.064683
0.0105898 0.241062 0.0603494
0.00877394 0.241443 0.0535592
0.00840772 0.240391 0.049836
0.00915541 0.238193 0.0517891
0.012253 0.235462 0.0446174
0.0330205 0.229267 0.0348974
0.0824292 0.224704 0.033463
0.131579 0.218372 0.0348516
0.199878 0.209812 0.0348516
0.277882 0.203021 0.0416266
0.352392 0.19408 0.0515145
0.43772 0.164965 0.061387
0.501259 0.144259 0.0671397
0.54377 0.124727 0.0720531
0.576532 0.0933547 0.0748608
0.596735 0.061387 0.0825208
0.612329 0.0552834 0.111894
0.621653 0.0565652 0.136828
0.619867 0.0528573 0.138537
0.619699 0.0518807 0.139849
0.621393 0.0528573 0.141329
0.622873 0.0537423 0.142779
0.623926 0.0543374 0.143938
0.624262 0.0545357 0.144274
0.624262 0.0545357 0.144274
0.624262 0.0545357 0.144274
0.624247 0.0545357 0.144244
0.624231 0.0545357 0.144167
0.624186 0.054551 0.144015
0.62414 0.054551 0.143862
0.014435 0.300526 0.0981613
0.0131533 0.300267 0.0895094
0.01149 0.299641 0.0811017
0.00894179 0.299046 0.0755932
0.00636301 0.299916 0.0724193
0.00428779 0.300786 0.0640726
0.00381476 0.300069 0.0593881
0.00437934 0.296971 0.0607919
0.00700389 0.293202 0.0500496
0.0332494 0.287663 0.035111
0.0981003 0.284016 0.0320134
0.163149 0.274601 0.0336156
0.251789 0.262684 0.0331579
0.346059 0.253727 0.0432898
0.424994 0.246723 0.0574502
0.512917 0.220203 0.076173
0.575799 0.195102 0.0920424
0.615381 0.176562 0.100359
0.644312 0.1458 0.107271
0.638895 0.0970626 0.110613
0.632349 0.0743572 0.132143
0.628626 0.0667124 0.136568
0.62562 0.0630655 0.136156
0.623438 0.0592203 0.137163
0.621378 0.0556954 0.137499
0.620493 0.0542916 0.137484
0.620386 0.053727 0.138003
0.620233 0.0532998 0.138415
0.620188 0.0530404 0.138827
0.620172 0.0528573 0.139101
0.620142 0.0526741 0.139284
0.620096 0.0525368 0.139345
0.620081 0.052491 0.139315
0.0121309 0.365667 0.121859
0.010956 0.365515 0.113436
0.00953689 0.365026 0.104784
0.00820935 0.365133 0.0973068
0.00686656 0.365377 0.0932479
0.00563058 0.365972 0.0907301
0.00419623 0.367147 0.0847028
0.00358587 0.367102 0.0779126
0.00373846 0.36463 0.0770428
0.00518807 0.360678 0.0639811
0.0394751 0.356695 0.0393072
0.120607 0.352667 0.0326543
0.204196 0.33933 0.0350195
0.313436 0.324987 0.0332341
0.416556 0.315724 0.0476692
0.4981 0.31252 0.0682231
0.584634 0.292668 0.0991379
0.652506 0.26006 0.126864
0.6907 0.242435 0.139345
0.713573 0.212421 0.150607
0.693706 0.167239 0.153628
0.663279 0.116762 0.139895
0.64831 0.0948653 0.133211
0.642481 0.0855726 0.134844
0.637583 0.0784466 0.135744
0.633661 0.0731212 0.136049
0.630594 0.0691539 0.136095
0.628855 0.0670939 0.136309
0.628214 0.0661479 0.136751
0.627512 0.0652781 0.136721
0.626932 0.0646067 0.136599
0.626505 0.0640879 0.136492
0.626215 0.0637217 0.1364
0.0167239 0.434302 0.156817
0.0157168 0.434348 0.148775
0.0147555 0.43473 0.140383
0.0140383 0.434379 0.132052
0.0130465 0.434165 0.124605
0.0120241 0.434119 0.119738
0.0108797 0.434623 0.117952
0.00982681 0.436423 0.114519
0.009308 0.437385 0.106111
0.00900282 0.434943 0.103502
0.0106508 0.430228 0.0872816
0.0564279 0.428336 0.0508431
0.158145 0.424949 0.0402533
0.259617 0.40679 0.0439765
0.38175 0.390875 0.0395361
0.490242 0.382116 0.0598764
0.569863 0.381857 0.0880751
0.655665 0.369879 0.130083
0.73022 0.335958 0.168048
0.770062 0.316762 0.186831
0.779049 0.291661 0.20354
0.763058 0.25893 0.203082
0.746685 0.235599 0.192584
0.731517 0.214145 0.182788
0.7178 0.194812 0.173693
0.706035 0.179004 0.165484
0.697246 0.164218 0.162173
0.688701 0.152392 0.15668
0.681712 0.142473 0.152422
0.676249 0.13492 0.148989
0.672282 0.129381 0.146487
0.669779 0.125933 0.1449
0.667567 0.122988 0.143587
0.0323186 0.506722 0.205859
0.0316167 0.507271 0.19884
0.0306249 0.507164 0.19057
0.0299382 0.50695 0.18204
0.0293126 0.506645 0.173693
0.0288701 0.506508 0.166064
0.028687 0.506874 0.160327
0.0281987 0.507546 0.157244
0.0272984 0.508766 0.15436
0.0269474 0.510216 0.14696
0.0260471 0.507362 0.142855
0.0280766 0.501991 0.120699
0.0892195 0.504555 0.0735637
0.213107 0.500893 0.0585794
0.32752 0.47715 0.0619821
0.453574 0.459815 0.0573281
0.56257 0.452537 0.0849775
0.640787 0.454826 0.119158
0.727413 0.451499 0.166476
0.806394 0.423423 0.212863
0.838972 0.394064 0.240055
0.840192 0.374197 0.25156
0.829084 0.356985 0.244587
0.819699 0.342702 0.238636
0.811185 0.329778 0.233326
0.803616 0.318288 0.228656
0.796994 0.308568 0.224399
0.791592 0.300404 0.221134
0.786862 0.293446 0.218173
0.783627 0.288716 0.216129
0.780529 0.284245 0.214145
0.778347 0.280934 0.212879
0.775906 0.277638 0.211139
0.0619059 0.58201 0.27071
0.0610208 0.582193 0.264118
0.0600748 0.582162 0.256779
0.0595102 0.582071 0.249302
0.0590219 0.581857 0.241352
0.0591135 0.582223 0.234012
0.0590677 0.582162 0.226581
0.0590982 0.582086 0.218677
0.0589761 0.582315 0.211414
0.0585031 0.58349 0.208179
0.0586862 0.585336 0.202762
0.0576333 0.582498 0.198413
0.0606241 0.575906 0.166369
0.14493 0.584253 0.111299
0.288426 0.578241 0.0931411
0.4038 0.550042 0.0930037
0.528908 0.532113 0.0911269
0.634028 0.526009 0.12311
0.712062 0.529931 0.161517
0.793744 0.532052 0.208103
0.868055 0.513176 0.255543
0.898405 0.4813 0.287419
0.893614 0.463127 0.286763
0.886213 0.44947 0.281865
0.880018 0.439094 0.277562
0.874876 0.430442 0.274083
0.870787 0.42359 0.271366
0.867262 0.417624 0.269123
0.864881 0.413687 0.267567
0.862394 0.409689 0.265965
0.860441 0.406592 0.264683
0.85864 0.403937 0.263447
0.856992 0.401617 0.262211
0.102968 0.659403 0.347845
0.102068 0.659678 0.342275
0.101076 0.659709 0.335744
0.100404 0.659693 0.329442
0.100038 0.660014 0.323156
0.0997024 0.659724 0.315969
0.0995804 0.659586 0.308797
0.0996109 0.659632 0.30071
0.0997482 0.659815 0.290623
0.100023 0.660227 0.278859
0.0999924 0.661875 0.273533
0.0995193 0.662791 0.269413
0.097734 0.659297 0.264775
0.10454 0.652338 0.217273
0.224109 0.667933 0.161044
0.378134 0.654627 0.140536
0.486366 0.624033 0.135927
0.602823 0.604425 0.135561
0.703029 0.598276 0.168444
0.778073 0.603067 0.209979
0.851225 0.610117 0.25275
0.912184 0.600732 0.296803
0.932143 0.58262 0.313817
0.929763 0.569986 0.311269
0.927367 0.558694 0.309071
0.924941 0.548989 0.307012
0.923049 0.54136 0.305577
0.921324 0.53489 0.304356
0.919783 0.529824 0.303212
0.918471 0.525933 0.30222
0.917403 0.522881 0.301411
0.916289 0.520302 0.300496
0.915709 0.519219 0.299962
0.151156 0.735592 0.430381
0.150393 0.735866 0.426169
0.149538 0.735973 0.42121
0.149233 0.736446 0.416342
0.148684 0.7364 0.411017
0.148486 0.736324 0.405554
0.148165 0.73611 0.399542
0.147997 0.735988 0.392966
0.148608 0.736828 0.384726
0.149187 0.737316 0.372442
0.150027 0.737774 0.35697
0.150515 0.738842 0.345235
0.149325 0.737972 0.341588
0.147509 0.733364 0.332891
0.165774 0.731838 0.272953
0.323644 0.75256 0.220829
0.46952 0.730358 0.198199
0.565759 0.696605 0.187106
0.673701 0.675364 0.189212
0.766934 0.669535 0.223117
0.837476 0.674479 0.264652
0.896056 0.684382 0.302693
0.941268 0.682338 0.3364
0.943069 0.672786 0.335576
0.942687 0.664561 0.333501
0.942061 0.657954 0.331579
0.941604 0.652399 0.330037
0.941238 0.647257 0.328756
0.940536 0.643015 0.327352
0.940047 0.639811 0.326268
0.940169 0.637537 0.325963
0.939742 0.635981 0.325154
0.938949 0.634455 0.324071
0.207889 0.808331 0.516289
0.207767 0.809155 0.513542
0.20708 0.809308 0.509239
0.206516 0.809262 0.505226
0.206043 0.809232 0.500725
0.205615 0.80911 0.496666
0.205249 0.808988 0.492287
0.205402 0.8094 0.487892
0.205356 0.809522 0.481331
0.205829 0.810132 0.47274
0.206668 0.811063 0.460227
0.208103 0.812009 0.442634
0.210193 0.813123 0.423484
0.20856 0.810788 0.417029
0.207752 0.80592 0.403677
0.253071 0.816556 0.342031
0.431174 0.833875 0.295018
0.557137 0.805005 0.270726
0.642481 0.767498 0.250141
0.740001 0.7449 0.253803
0.827024 0.738827 0.288426
0.885679 0.743221 0.323537
0.931228 0.755383 0.359594
0.951553 0.755993 0.373892
0.950668 0.750011 0.369696
0.95021 0.744533 0.366552
0.949752 0.739895 0.363775
0.949386 0.736004 0.361608
0.949004 0.732525 0.359716
0.948989 0.730205 0.358465
0.948882 0.728786 0.357519
0.948409 0.727184 0.356298
0.948302 0.726116 0.355718
0.264637 0.870283 0.598764
0.264515 0.870542 0.596139
0.264195 0.870665 0.593057
0.263951 0.870802 0.589822
0.263706 0.870909 0.586709
0.263432 0.870878 0.583505
0.263615 0.871244 0.580697
0.263401 0.871214 0.577096
0.263218 0.87126 0.57229
0.263386 0.871595 0.566049
0.264073 0.872374 0.557595
0.265583 0.873762 0.546029
0.267948 0.875242 0.528038
0.269673 0.87541 0.510979
0.267185 0.872145 0.501045
0.272267 0.870802 0.474968
0.359411 0.89749 0.421057
0.536782 0.904372 0.38323
0.639582 0.874479 0.359762
0.713756 0.836942 0.331853
0.802502 0.814069 0.334829
0.879149 0.807797 0.365927
0.926909 0.811505 0.39559
0.960052 0.824765 0.426719
0.961654 0.821653 0.425162
0.960998 0.817502 0.421469
0.959991 0.81355 0.41799
0.959304 0.810269 0.41503
0.958816 0.808087 0.412909
0.958633 0.806653 0.411841
0.95848 0.804776 0.410346
0.95848 0.803159 0.409186
0.958694 0.801846 0.408408
0.315435 0.913558 0.672862
0.315236 0.913649 0.67071
0.315007 0.913802 0.668147
0.314809 0.913954 0.665599
0.314885 0.914305 0.663401
0.314778 0.914443 0.661295
0.314611 0.914549 0.658824
0.314412 0.914656 0.656016
0.314122 0.914717 0.652522
0.313985 0.914992 0.647974
0.314412 0.91577 0.642344
0.315221 0.91693 0.634379
0.316442 0.918395 0.622721
0.318914 0.920516 0.605463
0.317266 0.91899 0.594476
0.319127 0.918532 0.56733
0.33669 0.92546 0.5355
0.466087 0.959304 0.503151
0.630426 0.958785 0.478721
0.715343 0.930999 0.457908
0.780697 0.896498 0.429374
0.861189 0.8757 0.429755
0.928664 0.86865 0.455695
0.963912 0.872236 0.476036
0.978012 0.877867 0.486442
0.977707 0.87483 0.482582
0.976837 0.871809 0.478782
0.975692 0.869673 0.475517
0.97496 0.867948 0.472953
0.974029 0.866316 0.470771
0.973693 0.865125 0.4692
0.973449 0.863951 0.467933
0.973419 0.862989 0.467033
0.355352 0.940108 0.733455
0.355276 0.940276 0.732113
0.355047 0.940429 0.730053
0.354986 0.940642 0.728466
0.354864 0.940841 0.726665
0.35462 0.940948 0.724681
0.35436 0.941024 0.722896
0.354086 0.9411 0.720943
0.353719 0.941192 0.718364
0.353613 0.941558 0.715511
0.353384 0.941985 0.711177
0.353491 0.942855 0.705531
0.354009 0.944213 0.698085
0.354879 0.946029 0.687083
0.355383 0.947234 0.676738
0.353887 0.946792 0.66479
0.364385 0.954101 0.624048
0.419226 0.976822 0.596811
0.566857 0.998932 0.586282
0.711269 0.998932 0.570596
0.785718 0.974212 0.551064
0.842573 0.944427 0.524086
0.909102 0.926467 0.521294
0.964569 0.918807 0.540993
0.991958 0.921065 0.558358
0.996262 0.920073 0.557519
0.995102 0.917906 0.552895
0.993744 0.916091 0.548745
0.992706 0.914427 0.545357
0.991684 0.91313 0.542473
0.99086 0.91191 0.54023
0.99057 0.911101 0.538857
0.990662 0.910674 0.538552
0.376318 0.952789 0.766155
0.376196 0.95288 0.765103
0.376242 0.953201 0.763729
0.376425 0.953628 0.762539
0.376577 0.954025 0.761349
0.376715 0.954299 0.760571
0.376806 0.954604 0.759609
0.376913 0.95491 0.758602
0.377035 0.955322 0.757198
0.377218 0.955856 0.755505
0.377493 0.956588 0.753109
0.377874 0.957565 0.749859
0.378439 0.958953 0.745113
0.37969 0.961135 0.73904
0.38114 0.963592 0.731075
0.380255 0.963516 0.725643
0.380301 0.965743 0.705547
0.405585 0.983902 0.663294
0.505196 0.998932 0.652705
0.653986 0.998932 0.657908
0.783154 0.998932 0.648753
0.852232 0.992401 0.634211
0.8981 0.97351 0.612284
0.949294 0.963256 0.608545
0.987121 0.958602 0.622019
1 0.957046 0.631449
1 0.955062 0.628092
1 0.953277 0.62327
1 0.951736 0.619715
1 0.950607 0.616464
1 0.949813 0.614832
1 0.949142 0.613626
1 0.948486 0.613016
0.376394 0.952377 0.768383
0.376089 0.952331 0.76704
0.376043 0.952529 0.76585
0.376226 0.952956 0.764645
0.376394 0.953368 0.763439
0.376501 0.953704 0.762402
0.376608 0.953994 0.76144
0.376715 0.954284 0.760647
0.376822 0.954635 0.759548
0.376989 0.955184 0.757641
0.377234 0.955871 0.755474
0.3776 0.956863 0.752194
0.378012 0.958068 0.747845
0.378943 0.959976 0.741802
0.380606 0.962798 0.733272
0.381643 0.964355 0.728634
0.383978 0.96669 0.726436
0.397864 0.979934 0.710216
0.468666 0.998932 0.68719
0.593713 0.998932 0.6972
0.724163 0.998932 0.703578
0.839078 0.998932 0.698787
0.89984 0.991516 0.695827
0.939574 0.986145 0.691035
0.975998 0.983429 0.692744
0.998856 0.981582 0.706615
1 0.979828 0.706935
1 0.978805 0.701869
1 0.978103 0.697688
1 0.977523 0.694301
1 0.976974 0.691661
1 0.976638 0.690654
1 0.97612 0.689448
0.376776 0.952361 0.770214
0.376226 0.952102 0.768704
0.375998 0.952178 0.767147
0.376059 0.952438 0.76614
0.376211 0.952789 0.765194
0.376333 0.953155 0.764141
0.376455 0.953475 0.76318
0.376532 0.953765 0.762173
0.376669 0.954177 0.760983
0.376837 0.954635 0.759548
0.377035 0.955337 0.757168
0.377386 0.956268 0.754208
0.377813 0.957504 0.749905
0.378408 0.959091 0.744091
0.379843 0.9617 0.735973
0.381201 0.96379 0.729809
0.383078 0.965743 0.727626
0.393088 0.975753 0.716121
0.443412 0.998932 0.689204
0.560296 0.998932 0.69453
0.689097 0.998932 0.712108
0.808865 0.998932 0.71577
0.889479 0.995682 0.722103
0.9299 0.986954 0.727153
0.961227 0.986313 0.730098
0.987915 0.988266 0.749874
0.998856 0.989593 0.766552
1 0.989746 0.768139
1 0.989868 0.766629
1 0.990112 0.765362
1 0.990219 0.764416
1 0.990265 0.763897
1 0.990112 0.763043
0.37702 0.952407 0.770871
0.376501 0.952163 0.769497
0.37615 0.952071 0.768124
0.376074 0.952224 0.767102
0.376104 0.952438 0.766217
0.376196 0.952697 0.765499
0.376303 0.953002 0.764569
0.37641 0.953338 0.763577
0.376516 0.953719 0.76231
0.376699 0.954223 0.760845
0.376898 0.954894 0.758663
0.377203 0.95581 0.755581
0.377676 0.957076 0.751476
0.378119 0.958572 0.745525
