luts/phantom/Jamaica V-Log Legacy.cube
TITLE "Generated by Resolve"
LUT_3D_SIZE 5
0.0315099 0.0431373 0.0315099
0.136782 0.0455787 0.0312047
0.51809 0.0401007 0.0896162
0.638041 0.0586862 0.173312
0.639612 0.058732 0.178042
0.0300603 0.125612 0.052903
0.101839 0.106538 0.0384985
0.496101 0.0373541 0.0689708
0.623224 0.0538338 0.14316
0.622354 0.0533455 0.141955
0.0619059 0.58201 0.27071
0.0589761 0.582315 0.211414
0.528908 0.532113 0.0911269
0.880018 0.439094 0.277562
0.856992 0.401617 0.262211
0.376394 0.952377 0.768383
0.376822 0.954635 0.759548
0.383978 0.96669 0.726436
0.975998 0.983429 0.692744
1 0.97612 0.689448
0.378225 0.952773 0.774563
0.376211 0.952544 0.766613
0.380285 0.96318 0.728359
0.9402 0.985901 0.727916
0.997452 0.990799 0.769146
0.0324102 0.0471504 0.0880293
0.149447 0.0486152 0.102342
0.544518 0.0439765 0.142947
0.654246 0.0641947 0.211765
0.656916 0.0655985 0.217105
0.037995 0.111879 0.103944
0.0866712 0.0969253 0.0850385
0.512078 0.0436713 0.105318
0.639307 0.0587778 0.176928
0.640757 0.0590677 0.180682
0.0575875 0.56643 0.314626
0.0518807 0.56582 0.260105
0.520439 0.525689 0.0873426
0.87361 0.42829 0.273243
0.849592 0.389517 0.257542
0.375814 0.950164 0.774853
0.376089 0.952316 0.766629
0.382101 0.964797 0.728298
0.973159 0.981811 0.683818
1 0.972869 0.676112
0.377295 0.950179 0.780911
0.375509 0.950042 0.773953
0.379767 0.962203 0.732204
0.935561 0.986114 0.728283
0.997177 0.990921 0.768978
0.00694286 0.0664988 0.376974
0.116808 0.0526131 0.399756
0.591211 0.0619211 0.423545
0.722942 0.107012 0.399817
0.723476 0.107393 0.402548
0.0099031 0.0932631 0.359136
0.0149233 0.0666819 0.372442
0.573785 0.0584878 0.404166
0.716121 0.101518 0.372824
0.716823 0.102022 0.374548
0.0569924 0.510307 0.47483
0.050782 0.50399 0.460578
0.498436 0.504463 0.453376
0.925826 0.39266 0.419699
0.90544 0.356008 0.405905
0.374182 0.939178 0.804807
0.374502 0.941665 0.798093
0.37612 0.952361 0.766613
0.963851 0.973404 0.715877
1 0.963363 0.710994
0.374792 0.938354 0.809873
0.374258 0.939574 0.803281
0.375341 0.949935 0.773663
0.929366 0.98616 0.785306
0.996353 0.989059 0.824262
0.0377203 0.217563 0.639521
0.0392309 0.220859 0.64155
0.448386 0.245274 0.811505
0.871504 0.342535 0.88632
0.877455 0.35729 0.901244
0.0318151 0.206088 0.631495
0.0344549 0.210269 0.635004
0.400412 0.240299 0.797589
0.861387 0.324742 0.865583
0.866453 0.333288 0.874907
0.0685893 0.437949 0.682963
0.066743 0.424674 0.682689
0.264134 0.425742 0.803906
0.931579 0.394217 0.882429
0.911543 0.361898 0.858366
0.369528 0.893538 0.879423
0.365103 0.892821 0.871778
0.346242 0.880644 0.852598
0.932631 0.939284 0.921324
0.982773 0.93518 0.924361
0.379629 0.897414 0.893019
0.378882 0.899794 0.8878
0.376761 0.907927 0.872404
0.910109 0.985901 0.956054
0.993423 0.989593 0.987335
0.0509194 0.25214 0.657633
0.058793 0.267414 0.66656
0.412894 0.325093 0.854276
0.881956 0.37084 0.91516
0.881987 0.370825 0.91519
0.0528573 0.257053 0.660151
0.0507057 0.252247 0.657481
0.364645 0.322393 0.839429
0.882216 0.370718 0.91548
0.881727 0.370932 0.9149
0.120577 0.466743 0.736706
0.114748 0.454429 0.731334
0.169894 0.445914 0.78854
0.927123 0.454749 0.957443
0.917311 0.434256 0.948302
0.352575 0.86215 0.8934
0.34641 0.857572 0.88893
0.314488 0.825025 0.871397
0.877897 0.909499 0.964279
0.978469 0.921859 0.979782
0.376318 0.883848 0.907012
0.375616 0.884611 0.905287
0.375616 0.884611 0.905287
0.77232 0.978851 0.984588
0.995544 0.988815 0.994919
