luts/phantom/Jamaica V-Log Legacy.cube
TITLE "Generated by Resolve"
LUT_3D_SIZE 9
0.0315099 0.0431373 0.0315099
0.0595254 0.0447089 0.0311437
0.136782 0.0455787 0.0312047
0.294804 0.0413214 0.0461585
0.51809 0.0401007 0.0896162
0.635966 0.0592508 0.165621
0.638041 0.0586862 0.173312
0.639185 0.0585031 0.177356
0.639612 0.058732 0.178042
0.0323033 0.0565499 0.038117
0.0407111 0.0504768 0.0329442
0.10338 0.0518807 0.0346075
0.274617 0.0423438 0.0421149
0.504799 0.0362249 0.0736858
0.629831 0.0587015 0.149599
0.634104 0.059678 0.159197
0.635248 0.0594492 0.163088
0.63537 0.0593881 0.163546
0.0300603 0.125612 0.052903
0.0264134 0.119142 0.0436408
0.101839 0.106538 0.0384985
0.278416 0.0772106 0.0441901
0.496101 0.0373541 0.0689708
0.624262 0.0545357 0.144274
0.623224 0.0538338 0.14316
0.622065 0.0530861 0.141833
0.622354 0.0533455 0.141955
0.014435 0.300526 0.0981613
0.00636301 0.299916 0.0724193
0.00700389 0.293202 0.0500496
0.251789 0.262684 0.0331579
0.575799 0.195102 0.0920424
0.632349 0.0743572 0.132143
0.621378 0.0556954 0.137499
0.620188 0.0530404 0.138827
0.620081 0.052491 0.139315
0.0619059 0.58201 0.27071
0.0590219 0.581857 0.241352
0.0589761 0.582315 0.211414
0.0606241 0.575906 0.166369
0.528908 0.532113 0.0911269
0.868055 0.513176 0.255543
0.880018 0.439094 0.277562
0.864881 0.413687 0.267567
0.856992 0.401617 0.262211
0.264637 0.870283 0.598764
0.263706 0.870909 0.586709
0.263218 0.87126 0.57229
0.267948 0.875242 0.528038
0.359411 0.89749 0.421057
0.802502 0.814069 0.334829
0.961654 0.821653 0.425162
0.958816 0.808087 0.412909
0.958694 0.801846 0.408408
0.376394 0.952377 0.768383
0.376394 0.953368 0.763439
0.376822 0.954635 0.759548
0.378012 0.958068 0.747845
0.383978 0.96669 0.726436
0.724163 0.998932 0.703578
0.975998 0.983429 0.692744
1 0.978103 0.697688
1 0.97612 0.689448
0.377096 0.952056 0.772747
0.375998 0.951751 0.769039
0.376059 0.952697 0.76527
0.377111 0.955978 0.754772
0.380438 0.963302 0.728511
0.636698 0.998932 0.70396
0.946899 0.98497 0.72845
1 0.98883 0.772839
0.99855 0.99028 0.770596
0.378225 0.952773 0.774563
0.37644 0.951965 0.769955
0.376211 0.952544 0.766613
0.376959 0.955581 0.755993
0.380285 0.96318 0.728359
0.621714 0.998932 0.698573
0.9402 0.985901 0.727916
1 0.989425 0.771649
0.997452 0.990799 0.769146
0.0316167 0.0434882 0.038941
0.0588235 0.044358 0.0497902
0.141115 0.0475319 0.059205
0.310185 0.0457771 0.0759747
0.529137 0.0430762 0.114916
0.640879 0.0590524 0.181125
0.644663 0.0601511 0.190326
0.646235 0.0606241 0.194247
0.646647 0.0607767 0.19501
0.0332799 0.0525673 0.0439918
0.0315862 0.0448615 0.0322423
0.111803 0.0465705 0.0329137
0.276326 0.0429694 0.0472114
0.511254 0.0411536 0.090425
0.636194 0.0591745 0.166491
0.638254 0.0585946 0.174212
0.639811 0.0587472 0.178561
0.640208 0.0588846 0.179416
0.0359045 0.117311 0.07776
0.0310674 0.112062 0.0526589
0.0936599 0.101579 0.0384375
0.277836 0.0663157 0.0416571
0.495018 0.0364691 0.0710765
0.631754 0.0593423 0.153429
0.63415 0.0596475 0.159411
0.634913 0.0595102 0.161975
0.635035 0.0594644 0.162387
0.0189822 0.291798 0.130083
0.0146487 0.288701 0.0982223
0.00569162 0.288167 0.0610513
0.244327 0.258473 0.0326543
0.571893 0.182147 0.0888075
0.629999 0.0710002 0.132342
0.620386 0.0540322 0.137667
0.620172 0.0522927 0.140047
0.621225 0.0528725 0.140887
0.0596933 0.575174 0.291936
0.0561379 0.575097 0.265415
0.0553445 0.573861 0.229389
0.0562295 0.57409 0.180392
0.524773 0.528801 0.0892042
0.869291 0.503487 0.256535
0.877272 0.434195 0.275807
0.861585 0.408362 0.265415
0.854047 0.396536 0.26038
0.261158 0.865721 0.603586
0.259617 0.866148 0.59173
0.258701 0.86627 0.578012
0.261601 0.869856 0.536553
0.336812 0.891157 0.426871
0.799954 0.81178 0.331701
0.960983 0.818357 0.422065
0.958129 0.803906 0.409537
0.957748 0.797589 0.404715
0.376104 0.951354 0.771374
0.376043 0.95227 0.766705
0.376471 0.953567 0.76286
0.37763 0.956924 0.751949
0.382879 0.96556 0.727611
0.714275 0.998932 0.702953
0.97467 0.982681 0.689067
1 0.977005 0.693004
1 0.974502 0.682857
0.376715 0.950896 0.775723
0.375616 0.95053 0.772442
0.375723 0.951568 0.768627
0.376699 0.954803 0.758602
0.380438 0.963302 0.728511
0.625559 0.998932 0.703014
0.944732 0.985077 0.728573
1 0.98883 0.772854
0.99855 0.990265 0.770596
0.377722 0.951522 0.777447
0.375586 0.950286 0.773083
0.375906 0.9514 0.770138
0.376562 0.95433 0.760113
0.380179 0.962982 0.729122
0.611215 0.998932 0.69662
0.938048 0.985992 0.72813
1 0.989425 0.771649
0.997452 0.990799 0.769146
0.0324102 0.0471504 0.0880293
0.0760052 0.0454566 0.0883497
0.149447 0.0486152 0.102342
0.329137 0.0461585 0.115282
0.544518 0.0439765 0.142947
0.649577 0.0619669 0.201831
0.654246 0.0641947 0.211765
0.656275 0.0652323 0.216236
0.656916 0.0655985 0.217105
0.034699 0.054902 0.0673686
0.0325628 0.0475929 0.0795453
0.122148 0.0476081 0.0844892
0.299641 0.0463111 0.0896925
0.527886 0.0432746 0.121752
0.642985 0.0596323 0.186358
0.646464 0.0607004 0.194827
0.648356 0.0614481 0.199023
0.648783 0.0616922 0.199557
0.037995 0.111879 0.103944
0.0374456 0.104845 0.0944228
0.0866712 0.0969253 0.0850385
0.283787 0.0673381 0.0708019
0.512078 0.0436713 0.105318
0.637598 0.0587778 0.171695
0.639307 0.0587778 0.176928
0.640406 0.0589761 0.179828
0.640757 0.0590677 0.180682
0.0240787 0.282765 0.163317
0.0213931 0.27834 0.140185
0.0169985 0.274495 0.10016
0.240299 0.254566 0.054902
0.567193 0.17229 0.0909438
0.628244 0.0669566 0.135332
0.625315 0.0557412 0.145495
0.634516 0.0606394 0.15819
0.635157 0.0603494 0.160586
0.0575875 0.56643 0.314626
0.0535134 0.566384 0.291295
0.0518807 0.56582 0.260105
0.0517433 0.569711 0.190509
0.520439 0.525689 0.0873426
0.867948 0.496498 0.255558
0.87361 0.42829 0.273243
0.856855 0.400732 0.262333
0.849592 0.389517 0.257542
0.256596 0.859754 0.608454
0.255299 0.860471 0.59765
0.254261 0.86067 0.584787
0.254047 0.862669 0.544762
0.310521 0.882704 0.433204
0.797177 0.809018 0.327977
0.960143 0.814221 0.418555
0.957122 0.799359 0.4056
0.95642 0.793271 0.400778
0.375814 0.950164 0.774853
0.375753 0.951049 0.770504
0.376089 0.952316 0.766629
0.377127 0.955596 0.756298
0.382101 0.964797 0.728298
0.703777 0.998932 0.702434
0.973159 0.981811 0.683818
1 0.97528 0.686656
1 0.972869 0.676112
0.376364 0.949706 0.778866
0.375326 0.949432 0.775387
0.375448 0.950378 0.772366
0.376303 0.953536 0.762646
0.380026 0.96257 0.731273
0.613504 0.998932 0.70074
0.942733 0.985214 0.728725
1 0.98883 0.772854
0.99855 0.990265 0.770596
0.377295 0.950179 0.780911
0.375387 0.949248 0.776043
0.375509 0.950042 0.773953
0.376165 0.953048 0.764111
0.379767 0.962203 0.732204
0.59794 0.998932 0.694041
0.935561 0.986114 0.728283
1 0.989425 0.771649
0.997177 0.990921 0.768978
0.029984 0.0548867 0.192264
0.0690166 0.0513771 0.197559
0.177981 0.0496986 0.203098
0.350225 0.0483406 0.219257
0.57261 0.049134 0.225834
0.676371 0.0760052 0.261646
0.680598 0.0783398 0.271427
0.68217 0.0792248 0.275624
0.682414 0.0793317 0.275669
0.0309911 0.061738 0.173129
0.0303044 0.0548714 0.186099
0.123735 0.049958 0.202136
0.32929 0.0485389 0.203952
0.56112 0.0473487 0.20499
0.669657 0.072343 0.245884
0.673564 0.074403 0.255131
0.675441 0.0754406 0.259174
0.675746 0.0756237 0.259251
0.0313268 0.111742 0.181964
0.0315251 0.0989853 0.187808
0.0640726 0.0829938 0.199985
0.30309 0.0588388 0.194141
0.54786 0.0456855 0.183948
0.66096 0.067689 0.226459
0.664454 0.0694896 0.234424
0.666392 0.0705577 0.23859
0.666697 0.0707713 0.238849
0.0273594 0.265339 0.236667
0.0271153 0.259617 0.227359
0.0279545 0.252506 0.216052
0.232563 0.246677 0.213519
0.57763 0.179416 0.181735
0.656565 0.075349 0.193423
0.652338 0.0644999 0.204685
0.654231 0.0641794 0.212024
0.655253 0.064744 0.213916
0.0565957 0.548562 0.371328
0.0521401 0.548272 0.355093
0.0497139 0.546563 0.334081
0.044007 0.546151 0.252476
0.520211 0.523171 0.170581
0.878004 0.475242 0.283177
0.872358 0.400229 0.284535
0.851347 0.367941 0.271626
0.842054 0.354788 0.265675
0.247272 0.845808 0.622583
0.245182 0.846281 0.612192
0.243336 0.845899 0.600717
0.240925 0.847013 0.56759
0.280125 0.867567 0.445441
0.792432 0.803754 0.332372
0.960906 0.806958 0.418616
0.958129 0.791638 0.405173
0.957198 0.785351 0.399664
0.375113 0.94725 0.782956
0.375204 0.948348 0.778637
0.375372 0.949371 0.775662
0.376135 0.952438 0.766354
0.380453 0.9626 0.733791
0.683574 0.998932 0.698833
0.969757 0.979492 0.671229
1 0.97174 0.672999
1 0.968719 0.662409
0.375631 0.946746 0.786786
0.374929 0.946944 0.782712
0.374884 0.947494 0.781003
0.375463 0.950469 0.772015
0.378607 0.959991 0.740139
0.587762 0.998932 0.694469
0.937652 0.985565 0.729137
1 0.98883 0.772854
0.99855 0.990265 0.770611
0.376394 0.947051 0.788785
0.374853 0.946349 0.784451
0.37496 0.94728 0.78175
0.375357 0.949935 0.773724
0.378393 0.959533 0.741711
0.563989 0.998932 0.689891
0.929381 0.986557 0.72842
1 0.989456 0.770642
0.997452 0.990814 0.769146
0.00694286 0.0664988 0.376974
0.0377966 0.0623026 0.385809
0.116808 0.0526131 0.399756
0.37232 0.0498665 0.419684
0.591211 0.0619211 0.423545
0.720348 0.104829 0.389838
0.722942 0.107012 0.399817
0.72343 0.107469 0.403464
0.723476 0.107393 0.402548
0.00746166 0.0714275 0.369238
0.00756847 0.0661326 0.373281
0.0690013 0.0584726 0.389914
0.342641 0.0487373 0.419471
0.583703 0.0605173 0.415381
0.717678 0.102663 0.379004
0.719844 0.104402 0.387717
0.720836 0.105196 0.39089
0.721035 0.105272 0.38996
0.0099031 0.0932631 0.359136
0.00807202 0.0808118 0.362936
0.0149233 0.0666819 0.372442
0.288258 0.0480964 0.417929
0.573785 0.0584878 0.404166
0.714168 0.100053 0.365484
0.716121 0.101518 0.372824
0.716838 0.102052 0.375372
0.716823 0.102022 0.374548
0 0.239429 0.381964
0 0.22829 0.38352
0 0.21239 0.388617
0.160616 0.194705 0.4224
0.588617 0.147921 0.431632
0.702678 0.0901503 0.335225
0.708858 0.0961624 0.348013
0.709484 0.0966049 0.350042
0.709346 0.0965133 0.349126
0.0569924 0.510307 0.47483
0.0533761 0.50837 0.467887
0.050782 0.50399 0.460578
0.0453651 0.493553 0.44094
0.498436 0.504463 0.453376
0.900069 0.459251 0.43859
0.925826 0.39266 0.419699
0.911849 0.366567 0.410285
0.90544 0.356008 0.405905
0.2336 0.816236 0.664775
0.230655 0.816312 0.655802
0.228061 0.815 0.647547
0.222431 0.812467 0.625406
0.273106 0.838666 0.558953
0.78378 0.792752 0.489281
0.991211 0.785473 0.551186
0.990875 0.767483 0.536645
0.989624 0.760586 0.531014
0.374182 0.939178 0.804807
0.374334 0.940566 0.800855
0.374502 0.941665 0.798093
0.374517 0.943999 0.791119
0.37612 0.952361 0.766613
0.669779 0.998932 0.741009
0.963851 0.973404 0.715877
1 0.966278 0.720974
1 0.963363 0.710994
0.374472 0.938537 0.807919
0.374166 0.939208 0.804166
0.374334 0.940352 0.801373
0.374472 0.94258 0.795666
0.375463 0.950469 0.772045
0.562066 0.998932 0.732509
0.937926 0.984848 0.788449
0.999176 0.987747 0.828336
0.996277 0.989059 0.82504
0.374792 0.938354 0.809873
0.37409 0.938384 0.806165
0.374258 0.939574 0.803281
0.374441 0.942 0.797269
0.375341 0.949935 0.773663
0.537469 0.998932 0.729122
0.929366 0.98616 0.785306
0.997955 0.987716 0.824659
0.996353 0.989059 0.824262
0 0.115312 0.524804
0 0.114443 0.527871
0.0460059 0.107286 0.546059
0.22472 0.0836652 0.589685
0.591318 0.104845 0.620752
0.729976 0.135302 0.574136
0.734646 0.144106 0.59295
0.736324 0.147143 0.599283
0.7364 0.146777 0.59762
0 0.114839 0.523522
0 0.114427 0.522255
0.00610361 0.111116 0.53109
0.190219 0.0865187 0.582086
0.580163 0.10161 0.619333
0.72813 0.13193 0.566552
0.731762 0.138827 0.582116
0.732677 0.140871 0.58645
0.732921 0.140673 0.584924
0 0.11989 0.515587
0 0.11548 0.518624
0 0.113115 0.519799
0.143084 0.0935988 0.571572
0.564172 0.0973678 0.617533
0.726299 0.129458 0.561166
0.728725 0.133135 0.569665
0.72929 0.134447 0.5729
0.729198 0.134096 0.571023
0.00230411 0.200412 0.52694
0.00141909 0.189883 0.527504
0.00128176 0.176684 0.530922
0.0470283 0.158358 0.554208
0.519921 0.11017 0.625086
0.722377 0.124315 0.553628
0.726497 0.124971 0.543053
0.726268 0.124834 0.543206
0.725887 0.124224 0.541054
0.0327306 0.468711 0.588937
0.0295262 0.463767 0.585809
0.0278477 0.455421 0.585153
0.0248722 0.429923 0.587488
0.412589 0.44567 0.694209
0.908766 0.414679 0.711345
0.945144 0.35082 0.664088
0.926574 0.321782 0.648417
0.918074 0.309972 0.639139
0.218219 0.763302 0.73138
0.214343 0.762112 0.724712
0.210758 0.758663 0.719768
0.203845 0.751492 0.709712
0.217914 0.75079 0.69601
0.754971 0.758679 0.711727
0.982483 0.745159 0.710079
0.984771 0.726055 0.700343
0.984344 0.71899 0.694789
0.373693 0.922087 0.842466
0.373571 0.923583 0.838895
0.373541 0.924712 0.8365
0.372747 0.92639 0.831205
0.364034 0.926375 0.809415
0.648295 0.991211 0.819608
0.949722 0.957473 0.828122
0.990936 0.959228 0.843687
0.989944 0.956207 0.836286
0.373587 0.92018 0.846906
0.373541 0.921614 0.842634
0.37351 0.922896 0.840024
0.37351 0.925521 0.834806
0.373587 0.932204 0.820691
0.487434 0.998306 0.830076
0.925597 0.987594 0.899245
0.996002 0.985519 0.938033
0.994812 0.986633 0.938842
0.373388 0.919692 0.847684
0.373541 0.920424 0.844892
0.373526 0.921645 0.842481
0.373556 0.924514 0.836957
0.373541 0.931579 0.82208
0.473136 0.994186 0.828229
0.910918 0.988617 0.895506
0.991852 0.985565 0.928237
0.992584 0.987579 0.936843
0.0377203 0.217563 0.639521
0.0379492 0.21828 0.639902
0.0392309 0.220859 0.64155
0.114412 0.231846 0.695872
0.448386 0.245274 0.811505
0.849958 0.308598 0.845457
0.871504 0.342535 0.88632
0.876524 0.353521 0.898421
0.877455 0.35729 0.901244
0.0367285 0.215183 0.638132
0.035874 0.214252 0.637201
0.0380102 0.217609 0.639796
0.0800336 0.228473 0.673472
0.426917 0.243748 0.805783
0.842847 0.302113 0.839399
0.867201 0.334554 0.877073
0.87187 0.343694 0.887373
0.872679 0.346288 0.889036
0.0318151 0.206088 0.631495
0.0347448 0.211093 0.635447
0.0344549 0.210269 0.635004
0.0509957 0.223102 0.651133
0.400412 0.240299 0.797589
0.834241 0.294575 0.83267
0.861387 0.324742 0.865583
0.865675 0.331655 0.873854
0.866453 0.333288 0.874907
0.0272068 0.226459 0.628016
0.0280766 0.22385 0.629725
0.0305943 0.221103 0.632792
0.0333562 0.213306 0.634607
0.338003 0.224018 0.771862
0.809247 0.27483 0.81677
0.838285 0.291752 0.823056
0.84097 0.295216 0.827573
0.841611 0.295216 0.826841
0.0685893 0.437949 0.682963
0.0668345 0.432609 0.681697
0.066743 0.424674 0.682689
0.0692607 0.404974 0.687602
0.264134 0.425742 0.803906
0.844907 0.415045 0.903746
0.931579 0.394217 0.882429
0.918029 0.371481 0.867033
0.911543 0.361898 0.858366
0.202335 0.703105 0.769879
0.197711 0.69987 0.764324
0.193881 0.69453 0.761639
0.184375 0.680491 0.755291
0.171908 0.651759 0.752926
0.694408 0.717891 0.877333
0.986542 0.709773 0.905241
0.989075 0.691646 0.902907
0.988663 0.684428 0.899626
0.369528 0.893538 0.879423
0.367163 0.893904 0.874189
0.365103 0.892821 0.871778
0.360235 0.889906 0.866575
0.346242 0.880644 0.852598
0.571069 0.940291 0.898878
0.932631 0.939284 0.921324
0.984878 0.939559 0.930419
0.982773 0.93518 0.924361
0.379339 0.898711 0.890715
0.37879 0.900404 0.886854
0.378592 0.90135 0.885176
0.378103 0.903563 0.881239
0.376516 0.908598 0.870909
0.407736 0.942794 0.88333
0.924498 0.985275 0.95964
0.994446 0.986816 0.984024
0.99559 0.987091 0.984375
0.379629 0.897414 0.893019
0.379095 0.89868 0.889693
0.378882 0.899794 0.8878
0.378454 0.90219 0.883772
0.376761 0.907927 0.872404
0.405356 0.940444 0.882155
0.910109 0.985901 0.956054
0.99089 0.988174 0.9841
0.993423 0.989593 0.987335
0.0511482 0.252049 0.657786
0.0520027 0.254795 0.658991
0.0589151 0.267659 0.666697
0.0827039 0.290181 0.690181
0.414755 0.325307 0.85481
0.876783 0.369162 0.91487
0.881956 0.37084 0.91516
0.882063 0.370794 0.915251
0.882078 0.370794 0.915251
0.0510719 0.252079 0.65774
0.0507057 0.252247 0.657481
0.0549783 0.261143 0.662501
0.0678111 0.284153 0.676356
0.394934 0.323461 0.848814
0.868818 0.365942 0.914168
0.881956 0.37084 0.91516
0.881941 0.37084 0.91516
0.881804 0.370901 0.915038
0.053193 0.258137 0.660639
0.0507057 0.252262 0.657496
0.0507057 0.252247 0.657481
0.0641031 0.279057 0.67274
0.367666 0.32253 0.840314
0.857114 0.362325 0.914122
0.882261 0.370703 0.915541
0.882216 0.370718 0.915465
0.881743 0.370916 0.914931
0.0672313 0.307347 0.680461
0.0640574 0.298344 0.676493
0.0592203 0.282475 0.669993
0.05626 0.264149 0.664088
0.293553 0.319112 0.816327
0.810239 0.352911 0.914382
0.882307 0.370672 0.915694
0.882322 0.370672 0.915709
0.881834 0.370871 0.915084
0.10605 0.450797 0.723033
0.10663 0.449378 0.723583
0.108858 0.448066 0.725795
0.109087 0.438819 0.726223
0.177783 0.452583 0.795758
0.682612 0.474098 0.951064
0.929686 0.459907 0.959762
0.923919 0.445121 0.954757
0.919966 0.440024 0.950866
0.208026 0.681468 0.794537
0.205509 0.678279 0.792355
0.202914 0.672969 0.791074
0.198352 0.661204 0.78996
0.190158 0.631693 0.790906
0.585016 0.696025 0.942046
0.966613 0.719615 0.976211
0.972457 0.70222 0.97969
0.970016 0.696635 0.977142
0.357122 0.86688 0.89163
0.354513 0.866011 0.888182
0.351949 0.863722 0.886213
0.345953 0.857954 0.881971
0.325765 0.837324 0.869261
0.461265 0.887953 0.94049
0.912245 0.924117 0.958831
0.983337 0.930541 0.97351
0.981659 0.925811 0.970596
0.376959 0.883436 0.908232
0.375891 0.884825 0.905211
0.375937 0.885008 0.904982
0.376562 0.885908 0.904265
0.378424 0.889632 0.900786
0.398062 0.909972 0.909682
0.886671 0.979446 0.975525
0.993301 0.984237 0.992432
1 0.983536 0.994705
0.376379 0.883772 0.907179
0.375662 0.88455 0.905394
0.375677 0.884672 0.905272
0.37583 0.884855 0.905104
0.378088 0.888945 0.901259
0.395926 0.908629 0.907408
0.854826 0.982788 0.975494
0.992432 0.988602 0.99321
0.996445 0.988449 0.995544
0.0509194 0.25214 0.657633
0.0517281 0.254276 0.658686
0.058793 0.267414 0.66656
0.0808423 0.289525 0.688426
0.412894 0.325093 0.854276
0.876631 0.369192 0.914916
0.881956 0.37084 0.91516
0.881956 0.370825 0.915175
0.881987 0.370825 0.91519
0.0510567 0.252079 0.657725
0.0507057 0.252247 0.657481
0.054551 0.260273 0.662013
0.0674449 0.28365 0.67599
0.392889 0.323491 0.848264
0.868345 0.365789 0.914412
0.881956 0.37084 0.91516
0.881895 0.370855 0.915129
0.88159 0.370993 0.914672
0.0528573 0.257053 0.660151
0.0507057 0.252247 0.657481
0.0507057 0.252247 0.657481
0.0639506 0.278752 0.672587
0.364645 0.322393 0.839429
0.855756 0.362005 0.914061
0.882216 0.370718 0.91548
0.882185 0.370733 0.915419
0.881727 0.370932 0.9149
0.0662852 0.30341 0.679088
0.0619059 0.291707 0.673686
0.0573587 0.275914 0.667338
0.0558633 0.263142 0.663584
0.288884 0.3187 0.814572
0.805203 0.352377 0.914473
0.882277 0.370703 0.915557
0.882307 0.370687 0.915648
0.881834 0.370871 0.915084
0.120577 0.466743 0.736706
0.117678 0.461799 0.733974
0.114748 0.454429 0.731334
0.107546 0.434791 0.724788
0.169894 0.445914 0.78854
0.671946 0.468299 0.948257
0.927123 0.454749 0.957443
0.920989 0.440208 0.952132
0.917311 0.434256 0.948302
0.214633 0.679881 0.807828
0.212375 0.67686 0.805905
0.209934 0.671977 0.80441
0.203647 0.659678 0.800122
0.188663 0.62768 0.790234
0.57673 0.691264 0.942306
0.960113 0.715618 0.977539
0.967575 0.700496 0.981277
0.966079 0.694163 0.980591
0.352575 0.86215 0.8934
0.349599 0.860502 0.89073
0.34641 0.857572 0.88893
0.337911 0.849149 0.884352
0.314488 0.825025 0.871397
0.405249 0.863706 0.941054
0.877897 0.909499 0.964279
0.979477 0.927428 0.980682
0.978469 0.921859 0.979782
0.376532 0.883589 0.907607
0.375662 0.884565 0.905394
0.375631 0.884611 0.905303
0.375631 0.884611 0.905303
0.375616 0.884611 0.905287
0.385199 0.892836 0.911452
0.830259 0.970825 0.981445
0.987716 0.983795 0.990433
0.992447 0.985656 0.99237
0.376318 0.883848 0.907012
0.375662 0.88455 0.905394
0.375616 0.884611 0.905287
0.375616 0.884611 0.905287
0.375616 0.884611 0.905287
0.384192 0.892134 0.910628
0.77232 0.978851 0.984588
0.988312 0.989456 0.991699
0.995544 0.988815 0.994919
