luts/phantom/Neutral V-Log Legacy.cube
TITLE "Generated by Resolve"
LUT_3D_SIZE 33
0.0319524 0.0319524 0.0319524
0.0319524 0.0319524 0.0319524
0.0319524 0.0319524 0.0319524
0.0487373 0.0332494 0.0314336
0.0646525 0.0351568 0.0316777
0.08336 0.0363317 0.0318761
0.100801 0.0368963 0.0321813
0.119524 0.0367132 0.0327916
0.142092 0.035462 0.0336309
0.170214 0.0327459 0.0354009
0.204761 0.0316167 0.04094
0.247105 0.0313726 0.0496986
0.299351 0.028809 0.057084
0.357504 0.025803 0.0645457
0.415961 0.023331 0.0776837
0.471122 0.021973 0.092256
0.523522 0.0231174 0.109712
0.579019 0.0248264 0.129686
0.641855 0.0241703 0.151354
0.716579 0.0193332 0.176898
0.740261 0.0168002 0.18851
0.740871 0.0165103 0.191379
0.74136 0.0162661 0.194018
0.741726 0.0160678 0.196277
0.741955 0.0158846 0.19826
0.742138 0.0157473 0.199832
0.74226 0.0156405 0.201144
0.742885 0.0155642 0.202335
0.743984 0.0155337 0.203387
0.744854 0.0155184 0.204105
0.745449 0.0154726 0.2047
0.745892 0.0154421 0.205142
0.746242 0.0154116 0.205493
0.0319524 0.0319524 0.0319524
0.0319524 0.0319524 0.0319524
0.0319524 0.0319524 0.0319524
0.0420539 0.032639 0.031693
0.0585946 0.0344244 0.0315099
0.0766155 0.0357671 0.0317388
0.0945602 0.0366827 0.0319524
0.113893 0.0368353 0.032578
0.136995 0.035996 0.0334325
0.165316 0.0332189 0.03505
0.200046 0.0313726 0.0394903
0.242008 0.0298772 0.0458839
0.293355 0.0276646 0.0531472
0.351537 0.0238193 0.0582284
0.409506 0.020325 0.0687419
0.465629 0.0187686 0.0834974
0.519829 0.0191196 0.102052
0.575784 0.020264 0.122072
0.638132 0.0187381 0.143542
0.712535 0.0199283 0.171603
0.739162 0.017258 0.184115
0.73994 0.0169528 0.187076
0.740551 0.0166781 0.1897
0.741009 0.0164492 0.192096
0.74136 0.0162661 0.194034
0.741604 0.0161288 0.195682
0.741802 0.0160067 0.196902
0.741924 0.0159152 0.197955
0.742 0.0158389 0.198795
0.742077 0.0157931 0.199435
0.742138 0.0157473 0.199832
0.742168 0.0157321 0.200183
0.742199 0.0157015 0.200458
0.0319524 0.0319524 0.0319524
0.0319524 0.0319524 0.0319524
0.0319524 0.0319524 0.0319524
0.0319524 0.0319524 0.0319524
0.0501564 0.0357061 0.0319524
0.0662547 0.0374762 0.0319829
0.0851301 0.0384833 0.0322881
0.106172 0.0387427 0.0325933
0.130907 0.0370794 0.0332647
0.160479 0.033814 0.0348669
0.195438 0.0313878 0.0386053
0.23772 0.029984 0.0451972
0.289067 0.027985 0.0527504
0.347951 0.0240787 0.0578164
0.405936 0.019852 0.0664988
0.461753 0.0168154 0.0774853
0.514565 0.0158541 0.0932937
0.572747 0.0158541 0.114473
0.635309 0.0138552 0.135927
0.707942 0.0204318 0.166033
0.738048 0.0176852 0.179629
0.738735 0.0174258 0.18262
0.739467 0.0171359 0.185336
0.740078 0.0168917 0.187701
0.740536 0.0166781 0.189624
0.740856 0.0165103 0.191287
0.741115 0.0163882 0.19263
0.741299 0.0162966 0.193637
0.741421 0.0162203 0.194461
0.741512 0.0161746 0.195102
0.741588 0.0161288 0.195575
0.741634 0.0160983 0.195941
0.741695 0.016083 0.196155
0.0319524 0.0319524 0.0319524
0.0319524 0.0319524 0.0319524
0.0319524 0.0319524 0.0319524
0.0319524 0.0319524 0.0319524
0.0424048 0.0357824 0.0319677
0.0563973 0.0396124 0.0324254
0.0727092 0.0416571 0.0329442
0.0948959 0.0421912 0.0330816
0.120684 0.0407111 0.0339361
0.151034 0.0374456 0.0351263
0.189136 0.0327306 0.0374914
0.232929 0.0303197 0.0444038
0.284901 0.0282139 0.0522774
0.344396 0.0243076 0.0574197
0.403326 0.0200961 0.0661021
0.459464 0.0169223 0.0769513
0.511925 0.0152285 0.0909438
0.568383 0.0121614 0.106523
0.633509 0.00921645 0.128618
0.704524 0.0137179 0.157855
0.736584 0.0181277 0.174884
0.737652 0.0178378 0.177951
0.738308 0.0176089 0.180682
0.738888 0.01738 0.183078
0.739437 0.0171511 0.185168
0.739879 0.0169833 0.186801
0.740185 0.016846 0.188174
0.740429 0.0167391 0.189151
0.740612 0.0166476 0.189975
0.740734 0.0165866 0.1906
0.740841 0.0165408 0.191104
0.740902 0.0165103 0.191485
0.740948 0.0164797 0.191775
0.033051 0.0492409 0.0368505
0.0318761 0.0478065 0.0346532
0.0327001 0.0459907 0.034226
0.03682 0.043534 0.0328374
0.0416419 0.0412909 0.0327306
0.0513313 0.0442664 0.0337224
0.0630961 0.0451209 0.0332799
0.0825666 0.0444038 0.0336004
0.109789 0.0441291 0.0343328
0.141375 0.0413519 0.0355077
0.180209 0.0369421 0.0376135
0.226154 0.0326085 0.04271
0.279835 0.0293126 0.0510414
0.340719 0.0245518 0.057023
0.400412 0.0202945 0.0656138
0.45713 0.0170138 0.0764324
0.509819 0.0153201 0.0903944
0.566491 0.0122988 0.105989
0.631769 0.00706493 0.124681
0.700755 0.00463874 0.147875
0.734737 0.016434 0.169162
0.735821 0.0183261 0.173083
0.73698 0.0180209 0.175967
0.737789 0.017792 0.178393
0.738247 0.0176242 0.180407
0.738628 0.0174716 0.182162
0.738994 0.0173342 0.183474
0.739284 0.0172122 0.184573
0.739498 0.0171359 0.185443
0.739696 0.0170596 0.186038
0.739803 0.0170138 0.186526
0.739895 0.016968 0.186908
0.739956 0.0169375 0.187198
0.0343023 0.0627756 0.0426947
0.0320592 0.0613107 0.0386664
0.0320745 0.0594949 0.0382544
0.0385901 0.0568093 0.0364843
0.045655 0.0536812 0.0350195
0.0544747 0.0537423 0.0350805
0.0649577 0.0551766 0.0361028
0.0840009 0.0552682 0.0373083
0.107454 0.0539254 0.0365301
0.136812 0.049546 0.0370642
0.172534 0.0423285 0.0379492
0.218921 0.034699 0.0404669
0.273945 0.0313573 0.0486305
0.336599 0.0259098 0.055314
0.397391 0.0204929 0.0651408
0.454902 0.0170748 0.0758984
0.507851 0.0153811 0.0898604
0.564675 0.0124056 0.105455
0.629526 0.00732433 0.124117
0.698436 0.00289921 0.145434
0.733837 0.00958267 0.162478
0.734356 0.0133364 0.166155
0.734905 0.0182193 0.170855
0.735988 0.0182803 0.173495
0.736873 0.0180514 0.175647
0.737484 0.0178988 0.177356
0.737881 0.0177615 0.178759
0.738109 0.0176699 0.179873
0.738308 0.0176089 0.180667
0.738445 0.0175479 0.181338
0.738567 0.0174868 0.181857
0.738659 0.0174563 0.182239
0.73872 0.0174258 0.182528
0.0347295 0.079408 0.0447395
0.0311284 0.0777905 0.0417639
0.0312963 0.0754864 0.0414282
0.0352636 0.0724346 0.0408484
0.0460059 0.0681621 0.0378424
0.053315 0.0664378 0.0367742
0.0673686 0.0662547 0.0368811
0.0851606 0.0674144 0.0381018
0.109361 0.0669413 0.0395361
0.138903 0.0629129 0.0400549
0.174273 0.0561379 0.0398871
0.218402 0.0457008 0.0413825
0.268757 0.0335393 0.0454414
0.331441 0.0277867 0.0527504
0.394217 0.0217136 0.0632181
0.452567 0.0171817 0.0753796
0.505745 0.0154726 0.0893111
0.562799 0.0125277 0.104906
0.627268 0.00758373 0.123537
0.696376 0.00260929 0.144549
0.733837 0.00958267 0.162478
0.733837 0.00958267 0.162478
0.733867 0.00978103 0.162676
0.734432 0.0140536 0.166857
0.734844 0.0177005 0.170352
0.735531 0.0183871 0.172427
0.736141 0.0182345 0.173907
0.736645 0.0181125 0.175021
0.736965 0.0180209 0.175921
0.737194 0.0179599 0.176608
0.737377 0.0179141 0.177081
0.737499 0.0178836 0.177432
0.737591 0.0178531 0.177722
0.0341802 0.0992599 0.0465248
0.0294652 0.0978561 0.0429541
0.0291447 0.0961013 0.0423285
0.0300603 0.093904 0.0423133
0.0423285 0.0902724 0.0406043
0.0521096 0.0851606 0.0383001
0.0623636 0.0859083 0.0375219
0.0853132 0.0851301 0.0365759
0.109453 0.0853285 0.0392462
0.138277 0.0844587 0.0409094
0.180362 0.074464 0.0431067
0.22179 0.0657054 0.0422065
0.274113 0.0510872 0.0428321
0.33257 0.0319219 0.0458991
0.389761 0.0239109 0.0597086
0.449973 0.0184939 0.0732738
0.503182 0.0155795 0.0886549
0.560433 0.0126955 0.104234
0.624582 0.00787366 0.12282
0.69369 0.00222782 0.143374
0.733837 0.00958267 0.162478
0.733837 0.00958267 0.162478
0.733837 0.00958267 0.162478
0.733837 0.00958267 0.162478
0.733837 0.00958267 0.162478
0.733944 0.0104524 0.163317
0.734295 0.0128328 0.165667
0.734508 0.0148013 0.16759
0.734722 0.0162356 0.168978
0.734829 0.0174411 0.170108
0.734905 0.0183413 0.170977
0.735058 0.0184939 0.17145
0.735195 0.0184482 0.171756
0.0333562 0.122454 0.0494087
0.027924 0.121462 0.0449836
0.0265965 0.11986 0.0427405
0.0268864 0.118074 0.042771
0.0329595 0.115984 0.0416876
0.0465248 0.112032 0.0396429
0.0594034 0.108736 0.0386053
0.076112 0.10869 0.0376287
0.105974 0.107683 0.0352789
0.138384 0.106722 0.0391546
0.175616 0.104265 0.0412757
0.231769 0.0870375 0.0448615
0.280629 0.0744488 0.0438087
0.339635 0.055436 0.0445563
0.397375 0.0325628 0.047776
0.446998 0.0219577 0.0674601
0.500328 0.0173648 0.0856641
0.557443 0.0128634 0.103365
0.621164 0.00822461 0.121904
0.690135 0.00172427 0.141787
0.733837 0.00958267 0.162478
0.733837 0.00958267 0.162478
0.733837 0.00958267 0.162478
0.733837 0.00958267 0.162478
0.733837 0.00958267 0.162478
0.733837 0.00958267 0.162478
0.733837 0.00958267 0.162478
0.733837 0.00958267 0.162478
0.733837 0.00958267 0.162478
0.733837 0.00958267 0.162478
0.733837 0.00958267 0.162478
0.733867 0.00984207 0.162722
0.733913 0.0101625 0.163043
0.0330358 0.150851 0.0543069
0.0279698 0.149966 0.0485542
0.0243076 0.149203 0.0438239
0.0244755 0.147677 0.0431983
0.0246433 0.14583 0.0431983
0.0351415 0.143603 0.0396735
0.0487221 0.139406 0.038117
0.0694438 0.136736 0.0380407
0.0937362 0.136095 0.0370947
0.131197 0.134371 0.0332952
0.17615 0.131594 0.0377661
0.223697 0.126558 0.0421302
0.291615 0.103563 0.0466468
0.348638 0.0872969 0.0462348
0.405722 0.0648661 0.0481117
0.459663 0.0382696 0.0536355
0.505196 0.0251469 0.0748608
0.554742 0.0162966 0.0987411
0.617044 0.00848402 0.117952
0.685618 0.00105287 0.139773
0.733837 0.00958267 0.162478
0.733837 0.00958267 0.162478
0.733837 0.00958267 0.162478
0.733837 0.00958267 0.162478
0.733837 0.00958267 0.162478
0.733837 0.00958267 0.162478
0.733837 0.00958267 0.162478
0.733837 0.00958267 0.162478
0.733837 0.00958267 0.162478
0.733837 0.00958267 0.162478
0.733837 0.00958267 0.162478
0.733837 0.00958267 0.162478
0.733837 0.00958267 0.162478
0.0312047 0.18706 0.0619364
0.0281071 0.186267 0.0537881
0.0229038 0.18529 0.0497444
0.0217746 0.185214 0.0445563
0.0218967 0.183413 0.04448
0.0220951 0.18172 0.0444343
0.0314946 0.179721 0.0382391
0.049012 0.174746 0.0360418
0.0828717 0.172488 0.0366522
0.113588 0.171191 0.0365148
0.163226 0.168017 0.0308232
0.223804 0.162936 0.0367437
0.282048 0.155398 0.0441749
0.360067 0.126802 0.0500954
0.418601 0.108431 0.0515145
0.471626 0.0850385 0.0551766
0.52015 0.0530861 0.0634318
0.570138 0.0294499 0.0829938
0.623072 0.0150149 0.110658
0.687648 0.00129702 0.134905
0.741375 0.0052491 0.160281
0.734676 0.00910964 0.162234
0.733837 0.00958267 0.162478
0.733837 0.00958267 0.162478
0.733837 0.00958267 0.162478
0.733837 0.00958267 0.162478
0.733837 0.00958267 0.162478
0.733837 0.00958267 0.162478
0.733837 0.00958267 0.162478
0.733837 0.00958267 0.162478
0.733837 0.00958267 0.162478
0.733837 0.00958267 0.162478
0.733837 0.00958267 0.162478
0.027924 0.231724 0.0731212
0.0258488 0.230732 0.0640116
0.0221103 0.229648 0.0578927
0.0195773 0.229648 0.0531014
0.0184176 0.229603 0.0466011
0.0186465 0.228046 0.0465705
0.0188754 0.22649 0.04654
0.0237888 0.223972 0.0374914
0.0490272 0.218372 0.033814
0.0978561 0.217594 0.0349126
0.137377 0.215412 0.0353246
0.204059 0.210529 0.0281682
0.280949 0.203494 0.0360113
0.348165 0.194781 0.0467384
0.429725 0.162936 0.0571756
0.49041 0.142748 0.0623026
0.537926 0.121157 0.0683146
0.590158 0.0828412 0.0767987
0.654154 0.0350652 0.0877241
0.721126 0.0119936 0.12137
0.77409 0 0.150546
0.755306 0 0.155154
0.749706 0 0.157412
0.74432 0.0033875 0.159274
0.739864 0.00627146 0.160891
0.735943 0.00854505 0.162036
0.733837 0.00958267 0.162478
0.733837 0.00958267 0.162478
0.733837 0.00958267 0.162478
0.733837 0.00958267 0.162478
0.733837 0.00958267 0.162478
0.733837 0.00958267 0.162478
0.733837 0.00958267 0.162478
0.0221714 0.284566 0.0854658
0.0217441 0.28394 0.0775616
0.0207828 0.283024 0.0699474
0.0180514 0.282612 0.0664225
0.0158541 0.283238 0.0610361
0.0142214 0.283711 0.0521553
0.014313 0.282139 0.0519417
0.0144503 0.280201 0.0516823
0.0183566 0.276402 0.038468
0.0516976 0.272145 0.0304723
0.115328 0.272099 0.03299
0.1691 0.269093 0.0344396
0.254414 0.262623 0.0250248
0.344854 0.253727 0.0357671
0.414023 0.247852 0.05037
0.498314 0.219074 0.0687724
0.563088 0.192187 0.0816052
0.612345 0.171481 0.0873274
0.673396 0.131868 0.0949264
0.756558 0.0589303 0.0975052
0.831388 0.00975052 0.130037
0.828931 0 0.141558
0.809842 0 0.144839
0.789715 0 0.148486
0.770184 0 0.151843
0.762051 0 0.152667
0.758999 0 0.153674
0.756756 0 0.154528
0.755123 0 0.155261
0.75407 0 0.155749
0.752972 0 0.156176
0.752148 0 0.156497
0.751522 0 0.156741
0.0183108 0.343526 0.103105
0.0178836 0.342824 0.0953078
0.0171664 0.342107 0.0875715
0.0162966 0.341619 0.0806744
0.0151064 0.342061 0.0785992
0.013962 0.342794 0.074815
0.0128481 0.343679 0.0668498
0.0123293 0.342733 0.0630655
0.0125277 0.340856 0.0627298
0.0148165 0.336355 0.0455634
0.0588693 0.333806 0.027985
0.138994 0.334524 0.0318761
0.209445 0.330541 0.0348669
0.313466 0.323735 0.0229496
0.408881 0.314717 0.0374914
0.479912 0.312535 0.0562142
0.564935 0.29099 0.0858167
0.640055 0.255192 0.108492
0.69424 0.234333 0.113008
0.77499 0.190051 0.11281
0.86183 0.115526 0.113085
0.887343 0.0494087 0.110628
0.877867 0.0252689 0.114015
0.866697 0.016556 0.123827
0.856504 0.0100099 0.130846
0.84715 0.00485237 0.135378
0.839628 0.00129702 0.138537
0.833188 0 0.140505
0.827848 0 0.141817
0.82359 0 0.142718
0.820188 0 0.143236
0.817685 0 0.143587
0.815641 0 0.143938
0.018555 0.404929 0.129854
0.0183566 0.404456 0.12224
0.0181125 0.404028 0.114412
0.0177462 0.403693 0.107301
0.0172427 0.403525 0.100587
0.0163882 0.40383 0.0973831
0.0151522 0.404654 0.0962234
0.0140688 0.405676 0.0893721
0.0134279 0.405676 0.0816663
0.0132906 0.40325 0.0807813
0.0160067 0.398337 0.0606851
0.0746777 0.39765 0.0308385
0.17496 0.399496 0.0362097
0.260639 0.394202 0.0416114
0.37528 0.38735 0.0256504
0.474495 0.379217 0.0442969
0.546197 0.37995 0.0687419
0.63122 0.366567 0.108034
0.719448 0.327459 0.136492
0.79292 0.301106 0.136309
0.87335 0.259373 0.13167
0.918975 0.212482 0.127886
0.914199 0.187396 0.124468
0.909834 0.164141 0.121859
0.905821 0.142672 0.119493
0.901915 0.124056 0.117479
0.898772 0.108034 0.115938
0.896239 0.094667 0.114717
0.894301 0.0834211 0.113741
0.89247 0.0747539 0.112917
0.891218 0.0681163 0.112261
0.890684 0.0634928 0.111986
0.889647 0.0599374 0.111574
0.0264439 0.469963 0.169421
0.0263218 0.469612 0.162371
0.0262303 0.469261 0.154803
0.0261692 0.468925 0.146975
0.0260471 0.46865 0.139605
0.0258183 0.468559 0.132662
0.025452 0.468742 0.127214
0.0243076 0.46949 0.125444
0.0230411 0.470802 0.12079
0.022446 0.471489 0.111254
0.0217899 0.468757 0.109651
0.0257267 0.462638 0.0829938
0.103609 0.465187 0.0433356
0.224811 0.467292 0.0489815
0.322515 0.46099 0.0556802
0.439246 0.453254 0.0377813
0.539773 0.446464 0.0614023
0.612314 0.44892 0.0897536
0.69929 0.442924 0.130144
0.798581 0.40914 0.160433
0.883543 0.368978 0.160723
0.941634 0.337224 0.152544
0.938323 0.320195 0.14815
0.935393 0.305425 0.144717
0.932891 0.292454 0.141802
0.930846 0.281331 0.139483
0.929198 0.272023 0.137636
0.927749 0.264408 0.136172
0.926574 0.258213 0.135027
0.925704 0.253147 0.134157
0.925063 0.24921 0.133516
0.924727 0.246647 0.13312
0.924376 0.244343 0.132738
0.0436713 0.537591 0.222232
0.0436408 0.537316 0.215763
0.0436866 0.537163 0.209201
0.0437934 0.537072 0.202243
0.0438849 0.536858 0.194842
0.0439765 0.536645 0.187457
0.0440223 0.536507 0.180652
0.0440223 0.536461 0.172625
0.0435645 0.536889 0.165866
0.0421759 0.538643 0.16405
0.0415503 0.539452 0.153979
0.040528 0.536156 0.151919
0.0462806 0.528984 0.113802
0.152804 0.535775 0.0699626
0.290288 0.537804 0.0758831
0.389227 0.52929 0.0800336
0.504784 0.520623 0.0636454
0.604395 0.514611 0.0889601
0.679301 0.51812 0.119417
0.765728 0.517647 0.15494
0.865385 0.4925 0.179431
0.947677 0.450034 0.186206
0.95935 0.429328 0.181582
0.957107 0.416236 0.177493
0.954894 0.406455 0.17406
0.953048 0.398352 0.171099
0.951812 0.39202 0.168887
0.950484 0.386709 0.167071
0.94995 0.382696 0.165866
0.949142 0.379431 0.164721
0.948653 0.376837 0.163897
0.948302 0.374853 0.163256
0.948058 0.373342 0.162799
0.0689403 0.608454 0.286244
0.0687724 0.608316 0.28043
0.0686046 0.608179 0.274571
0.0684367 0.608057 0.268437
0.0682994 0.607965 0.261936
0.0681926 0.607904 0.2551
0.068101 0.607874 0.248005
0.0679942 0.607843 0.239673
0.0677043 0.60798 0.228977
0.0670939 0.608454 0.216251
0.0650034 0.61059 0.212375
0.0635843 0.610986 0.205097
0.0624704 0.607355 0.202121
0.0724498 0.599527 0.145403
0.224689 0.609445 0.109697
0.366796 0.609247 0.11487
0.459678 0.598688 0.114046
0.570428 0.58851 0.0979782
0.668605 0.582834 0.120531
0.744152 0.586297 0.152209
0.827588 0.590188 0.175357
0.911437 0.574655 0.199176
0.955505 0.552102 0.205753
0.957168 0.540215 0.203738
0.958206 0.529366 0.201953
0.959228 0.520394 0.200397
0.960006 0.512871 0.199145
0.960479 0.506767 0.198322
0.96083 0.502174 0.197589
0.960861 0.498802 0.196902
0.961303 0.496422 0.196597
0.961425 0.494392 0.196246
0.961501 0.492866 0.195987
0.0966201 0.681544 0.354345
0.0963912 0.681453 0.34995
0.0961929 0.681392 0.345037
0.0959793 0.681315 0.340093
0.0957656 0.68127 0.334874
0.0955825 0.68127 0.329274
0.0953994 0.681254 0.323705
0.095201 0.681285 0.316472
0.0950332 0.681483 0.306249
0.0948806 0.681895 0.292348
0.0942397 0.68246 0.274968
0.0917983 0.684581 0.263096
0.0894179 0.683207 0.260807
0.0899977 0.677943 0.25095
0.11249 0.674327 0.17525
0.314076 0.685039 0.157488
0.442344 0.681559 0.160449
0.529381 0.668132 0.152499
0.635203 0.656367 0.13814
0.73022 0.650217 0.158251
0.804883 0.652995 0.187121
0.874952 0.659922 0.205707
0.93843 0.653346 0.225956
0.943542 0.644282 0.224582
0.94461 0.63682 0.222827
0.945251 0.630289 0.221012
0.945998 0.625193 0.219699
0.946517 0.620722 0.218875
0.94696 0.617258 0.218067
0.947082 0.614649 0.217258
0.947631 0.612818 0.216953
0.947845 0.611231 0.216617
0.948013 0.61001 0.216358
0.124361 0.755779 0.421775
0.124071 0.755779 0.418006
0.123766 0.755779 0.414313
0.123445 0.75581 0.410285
0.12311 0.755871 0.40621
0.122774 0.755947 0.402045
0.122423 0.756054 0.397543
0.121965 0.756191 0.392081
0.121416 0.75642 0.384405
0.120668 0.757137 0.373693
0.119432 0.75816 0.357839
0.11751 0.759594 0.335439
0.113619 0.76228 0.31133
0.1122 0.757519 0.307897
0.118608 0.750011 0.297322
0.183886 0.754971 0.218097
0.409689 0.759243 0.217655
0.515496 0.752972 0.217807
0.597467 0.735988 0.199054
0.697414 0.722133 0.187793
0.789548 0.715724 0.209705
0.85449 0.718441 0.232898
0.908339 0.728222 0.259663
0.936126 0.726802 0.267857
0.936553 0.720821 0.262837
0.937087 0.715602 0.259022
0.937667 0.711635 0.255802
0.937972 0.708263 0.253071
0.938247 0.705531 0.251225
0.938491 0.703426 0.249592
0.938979 0.702098 0.2486
0.938811 0.701015 0.247745
0.938827 0.70013 0.247242
0.140047 0.826032 0.48455
0.139849 0.826017 0.481712
0.139651 0.826047 0.478569
0.139422 0.826062 0.475502
0.139193 0.826108 0.472129
0.138949 0.826169 0.468849
0.138705 0.826246 0.465278
0.138399 0.826368 0.461036
0.137972 0.826596 0.454902
0.137346 0.826932 0.446815
0.136446 0.827573 0.434958
0.135225 0.828641 0.41799
0.133516 0.830533 0.392706
0.131884 0.830396 0.373693
0.132265 0.824994 0.365423
0.151598 0.817914 0.339498
0.302098 0.82652 0.288365
0.498283 0.825299 0.291157
0.585245 0.818723 0.290608
0.663569 0.801968 0.265415
0.759258 0.788052 0.259602
0.841947 0.781704 0.280583
0.895155 0.784512 0.300008
0.934905 0.795697 0.325109
0.936645 0.79202 0.322423
0.936385 0.78819 0.318593
0.936034 0.78468 0.315633
0.935805 0.781872 0.313054
0.935424 0.779736 0.31078
0.935576 0.778271 0.309758
0.9355 0.776928 0.308583
0.935424 0.775906 0.307683
0.935378 0.775113 0.307027
0.147601 0.88191 0.544442
0.147555 0.88188 0.54197
0.147524 0.881895 0.539467
0.147494 0.881956 0.537057
0.147463 0.882033 0.534386
0.147417 0.882109 0.531868
0.147372 0.882216 0.529107
0.147295 0.882307 0.525628
0.147127 0.882414 0.52105
0.146899 0.882597 0.514687
0.146548 0.882994 0.505806
0.145983 0.88368 0.493462
0.145174 0.884947 0.475425
0.143969 0.887175 0.448478
0.143297 0.883192 0.441825
0.162463 0.875273 0.404959
0.197848 0.874678 0.377966
0.420142 0.881697 0.366552
0.578637 0.880034 0.37615
0.652781 0.874479 0.375784
0.727794 0.860273 0.351644
0.818967 0.848325 0.348959
0.892027 0.840345 0.369711
0.930434 0.844083 0.382254
0.947265 0.848981 0.388098
0.946441 0.845579 0.383246
0.945724 0.842786 0.379263
0.945037 0.840589 0.375845
0.944915 0.839078 0.373541
0.944595 0.837659 0.371633
0.944366 0.836576 0.370092
0.944183 0.835737 0.368917
0.94403 0.835126 0.368032
0.147173 0.923552 0.602365
0.147021 0.923491 0.600275
0.146838 0.923415 0.598337
0.146685 0.923369 0.596124
0.146517 0.923339 0.593866
0.14638 0.923278 0.59176
0.146258 0.923247 0.58941
0.146105 0.923217 0.586542
0.145892 0.923171 0.582864
0.145586 0.923217 0.577585
0.145205 0.923354 0.570611
0.144793 0.923827 0.561303
0.144137 0.924514 0.547768
0.144167 0.925658 0.528511
0.144915 0.924559 0.514092
0.152239 0.920348 0.499947
0.206012 0.913558 0.439475
0.323278 0.915801 0.447974
0.521584 0.924193 0.446189
0.653498 0.924559 0.459876
0.719661 0.920546 0.459556
0.791882 0.909163 0.438727
0.870481 0.898482 0.439368
0.933257 0.889342 0.458213
0.963638 0.891966 0.469505
0.964019 0.890242 0.46482
0.962631 0.888029 0.459663
0.9617 0.886122 0.455833
0.960952 0.884627 0.452644
0.960403 0.883421 0.45034
0.959976 0.882506 0.448493
0.959686 0.881865 0.447089
0.959564 0.881483 0.446113
0.160922 0.94342 0.643824
0.160952 0.943572 0.642527
0.160983 0.94374 0.641184
0.161013 0.943893 0.639826
0.161028 0.94403 0.638636
0.161074 0.944198 0.637217
0.161105 0.94435 0.635767
0.161135 0.944564 0.633951
0.161135 0.944839 0.631586
0.161135 0.945235 0.628351
0.161151 0.945769 0.623941
0.161166 0.946548 0.617731
0.161181 0.947616 0.609293
0.161151 0.949126 0.597528
0.161074 0.950698 0.585153
0.158679 0.948013 0.576699
0.180652 0.94258 0.530907
0.272892 0.94229 0.477897
0.44892 0.948394 0.519417
0.611124 0.955215 0.523827
0.735134 0.955016 0.54728
0.793622 0.953368 0.545296
0.852811 0.946166 0.524712
0.914199 0.939254 0.52398
0.959777 0.932494 0.53933
0.97406 0.930892 0.542962
0.973617 0.928527 0.537957
0.973465 0.926513 0.533898
0.973312 0.924895 0.530892
0.97322 0.923629 0.52845
0.973144 0.922621 0.526802
0.973251 0.922026 0.52549
0.973281 0.921538 0.524483
0.160891 0.943008 0.647196
0.160906 0.94316 0.64596
0.160922 0.943328 0.644617
0.160937 0.943496 0.643244
0.160967 0.943648 0.641855
0.160998 0.943816 0.640436
0.161028 0.943969 0.639094
0.161074 0.944167 0.637491
0.16112 0.944427 0.635081
0.161135 0.944808 0.631815
0.161135 0.945342 0.627527
0.161151 0.946059 0.621622
0.161166 0.947097 0.613428
0.161181 0.948562 0.601877
0.161089 0.950637 0.585641
0.161089 0.950698 0.585168
0.162432 0.954223 0.575357
0.233936 0.953063 0.545373
0.410727 0.953109 0.541405
0.536751 0.961196 0.577295
0.688807 0.96437 0.592279
0.807263 0.966064 0.621653
0.854963 0.968551 0.621134
0.906157 0.971847 0.616754
0.947799 0.968353 0.61651
0.975494 0.964446 0.629816
0.975341 0.962356 0.623362
0.975494 0.960922 0.618189
0.975265 0.959579 0.613947
0.97525 0.95848 0.610651
0.975204 0.957595 0.608331
0.975204 0.956939 0.606424
0.975174 0.956436 0.604959
0.160876 0.942687 0.649866
0.160891 0.94284 0.648539
0.160891 0.942992 0.647349
0.160906 0.943145 0.646082
0.160922 0.943328 0.644678
0.160937 0.943496 0.643259
0.160967 0.943648 0.641855
0.161013 0.943862 0.640116
0.161059 0.944106 0.637995
0.16112 0.944472 0.634775
0.161135 0.944961 0.630594
0.161151 0.945693 0.624552
0.161166 0.94667 0.616663
0.161181 0.948089 0.605524
0.161135 0.950134 0.5897
0.161089 0.950698 0.585168
0.162112 0.953002 0.579797
0.214084 0.953658 0.553124
0.372503 0.951064 0.531914
0.510369 0.959686 0.578058
0.649241 0.96463 0.599786
0.780133 0.96614 0.636088
0.861143 0.969863 0.666331
0.894087 0.972274 0.666346
0.93492 0.976181 0.670939
0.968536 0.979492 0.697139
0.976318 0.980499 0.70724
0.976623 0.980423 0.705104
0.976852 0.980362 0.703456
0.977035 0.980316 0.702174
0.977172 0.980285 0.701183
0.977279 0.980255 0.700465
0.977234 0.979934 0.69897
0.160861 0.942412 0.652155
0.160861 0.942565 0.650843
0.160876 0.942733 0.6495
0.160891 0.942885 0.648127
0.160891 0.943038 0.646967
0.160906 0.943206 0.645563
0.160922 0.943389 0.644144
0.160952 0.943587 0.642405
0.161013 0.943862 0.640085
0.161074 0.944213 0.637156
0.161135 0.944686 0.632807
