luts/phantom/Neutral V-Log Legacy.cube
TITLE "Generated by Resolve"
LUT_3D_SIZE 9
0.0319524 0.0319524 0.0319524
0.0646525 0.0351568 0.0316777
0.142092 0.035462 0.0336309
0.299351 0.028809 0.057084
0.523522 0.0231174 0.109712
0.740261 0.0168002 0.18851
0.741955 0.0158846 0.19826
0.743984 0.0155337 0.203387
0.746242 0.0154116 0.205493
0.033051 0.0492409 0.0368505
0.0416419 0.0412909 0.0327306
0.109789 0.0441291 0.0343328
0.279835 0.0293126 0.0510414
0.509819 0.0153201 0.0903944
0.734737 0.016434 0.169162
0.738247 0.0176242 0.180407
0.739498 0.0171359 0.185443
0.739956 0.0169375 0.187198
0.0333562 0.122454 0.0494087
0.0329595 0.115984 0.0416876
0.105974 0.107683 0.0352789
0.280629 0.0744488 0.0438087
0.500328 0.0173648 0.0856641
0.733837 0.00958267 0.162478
0.733837 0.00958267 0.162478
0.733837 0.00958267 0.162478
0.733913 0.0101625 0.163043
0.0221714 0.284566 0.0854658
0.0158541 0.283238 0.0610361
0.0183566 0.276402 0.038468
0.254414 0.262623 0.0250248
0.563088 0.192187 0.0816052
0.831388 0.00975052 0.130037
0.770184 0 0.151843
0.755123 0 0.155261
0.751522 0 0.156741
0.0436713 0.537591 0.222232
0.0438849 0.536858 0.194842
0.0435645 0.536889 0.165866
0.0462806 0.528984 0.113802
0.504784 0.520623 0.0636454
0.865385 0.4925 0.179431
0.954894 0.406455 0.17406
0.94995 0.382696 0.165866
0.948058 0.373342 0.162799
0.140047 0.826032 0.48455
0.139193 0.826108 0.472129
0.137972 0.826596 0.454902
0.133516 0.830533 0.392706
0.302098 0.82652 0.288365
0.759258 0.788052 0.259602
0.936645 0.79202 0.322423
0.935424 0.779736 0.31078
0.935378 0.775113 0.307027
0.160891 0.943008 0.647196
0.160967 0.943648 0.641855
0.16112 0.944427 0.635081
0.161166 0.947097 0.613428
0.162432 0.954223 0.575357
0.688807 0.96437 0.592279
0.947799 0.968353 0.61651
0.975265 0.959579 0.613947
0.975174 0.956436 0.604959
0.160845 0.942092 0.655253
0.160876 0.942672 0.649958
0.160937 0.943481 0.643305
0.161151 0.945907 0.622858
0.161089 0.950698 0.585168
0.595071 0.963668 0.590967
0.911116 0.973739 0.664698
0.975921 0.980636 0.710338
0.975921 0.980636 0.710338
0.160815 0.941741 0.658183
0.160845 0.942321 0.652995
0.160891 0.943114 0.646342
0.161151 0.94551 0.626032
0.161089 0.950698 0.585168
0.569345 0.96257 0.586984
0.899779 0.972793 0.665217
0.975921 0.980636 0.710338
0.975921 0.980636 0.710338
0.0321965 0.0322423 0.0437476
0.0641031 0.0346838 0.0531014
0.146471 0.0389715 0.0666514
0.313954 0.0352178 0.0905928
0.532341 0.0269169 0.136141
0.750103 0.015198 0.209354
0.757397 0.0153353 0.22005
0.760021 0.0154726 0.224887
0.760861 0.0155489 0.226703
0.0329747 0.0438544 0.0426795
0.0319524 0.0319524 0.0319524
0.119265 0.0361639 0.0355993
0.282902 0.0318303 0.0593729
0.515419 0.0257877 0.111467
0.740749 0.0165713 0.190692
0.742199 0.0157015 0.200458
0.746868 0.0153506 0.206149
0.74905 0.0152132 0.208362
0.0373999 0.1149 0.0744793
0.0345617 0.108995 0.0510872
0.100572 0.101579 0.0355535
0.280339 0.0607004 0.0431525
0.498772 0.0161898 0.0880598
0.73666 0.0181125 0.175097
0.738537 0.0175021 0.18172
0.739376 0.0171817 0.184909
0.739681 0.0170596 0.186023
0.0259403 0.277409 0.117784
0.0236973 0.273701 0.0886091
0.0149996 0.272923 0.0507515
0.249592 0.25771 0.0253605
0.559197 0.180636 0.0786908
0.82533 0.00656138 0.132906
0.760647 0 0.153124
0.749905 0 0.157336
0.745739 0.00248722 0.15877
0.0420691 0.532433 0.245899
0.0416419 0.531273 0.221347
0.0417945 0.530205 0.185153
0.0410468 0.528267 0.134066
0.502037 0.517571 0.0621805
0.870039 0.482597 0.179385
0.95375 0.401221 0.172168
0.948684 0.377111 0.163973
0.947234 0.367834 0.16112
0.139773 0.820874 0.493141
0.138979 0.820752 0.481605
0.137865 0.820966 0.465644
0.13402 0.824353 0.409339
0.263661 0.824704 0.289799
0.756741 0.785611 0.256352
0.936416 0.788525 0.318898
0.935409 0.775525 0.307362
0.934997 0.770413 0.302922
0.160845 0.942336 0.652857
0.160891 0.942962 0.647608
0.160983 0.94374 0.641047
0.161151 0.946197 0.620508
0.162127 0.953033 0.57969
0.679011 0.964111 0.588373
0.945922 0.966949 0.610468
0.975204 0.957244 0.60734
0.97499 0.953948 0.598077
0.160784 0.941421 0.66096
0.160845 0.942031 0.655741
0.160876 0.942763 0.649165
0.161135 0.945083 0.629633
0.161089 0.950698 0.585168
0.582315 0.963195 0.589181
0.908263 0.973526 0.66453
0.975921 0.980636 0.710338
0.975921 0.980636 0.710338
0.160769 0.941115 0.663676
0.160815 0.94168 0.658717
0.160845 0.942412 0.652201
0.161135 0.944701 0.6327
0.161089 0.950698 0.585168
0.556664 0.962203 0.585138
0.897185 0.972519 0.665675
0.975921 0.980636 0.710338
0.975921 0.980636 0.710338
0.033402 0.038056 0.0992905
0.0876478 0.035523 0.0948806
0.154238 0.0414282 0.108217
0.327474 0.0379034 0.130968
0.545403 0.0294041 0.167559
0.770489 0.0161135 0.236698
0.781659 0.0167697 0.248753
0.786801 0.017258 0.254688
0.788708 0.0174105 0.256855
0.0341039 0.0477455 0.074403
0.0333867 0.0372473 0.0922866
0.127901 0.039765 0.0925612
0.302785 0.0370642 0.106874
0.529534 0.0281224 0.145525
0.756329 0.0152895 0.218067
0.761395 0.01561 0.227787
0.767163 0.0159304 0.233433
0.769268 0.0160525 0.235431
0.0374151 0.110445 0.104051
0.0372473 0.103319 0.0977493
0.0960403 0.0960403 0.0960403
0.287602 0.0680705 0.0892195
0.51342 0.0272679 0.127886
0.742061 0.0158083 0.199268
0.746731 0.0153658 0.205997
0.750668 0.0152132 0.21004
0.75288 0.0151675 0.212253
0.0284581 0.270649 0.153552
0.0283665 0.266117 0.133867
0.0261997 0.261769 0.0966659
0.249439 0.253986 0.0600443
0.555886 0.170031 0.0868238
0.816663 0.00428779 0.146075
0.751339 0.0101167 0.167559
0.744869 0.0178073 0.181842
0.741405 0.0172122 0.185489
0.0404669 0.525841 0.272908
0.039704 0.524437 0.251545
0.0392462 0.523369 0.220798
0.0370489 0.525856 0.144594
0.49868 0.514107 0.0605631
0.869551 0.475807 0.178637
0.952453 0.395041 0.16994
0.947753 0.369879 0.161822
0.945876 0.360021 0.158785
0.139452 0.814496 0.503502
0.138811 0.814267 0.492744
0.137942 0.814435 0.478401
0.134356 0.81648 0.427436
0.212238 0.822828 0.289006
0.754101 0.782467 0.252644
0.935958 0.783856 0.31487
0.935119 0.771008 0.303502
0.934905 0.766293 0.299641
0.1608 0.941573 0.659693
0.160845 0.942138 0.65481
0.160891 0.942885 0.648249
0.161135 0.945159 0.628962
0.161303 0.951156 0.58436
0.666697 0.96405 0.583917
0.943618 0.965194 0.603235
0.975036 0.954391 0.599313
0.975036 0.951125 0.590005
0.160708 0.940658 0.667659
0.160769 0.941222 0.662745
0.160845 0.941955 0.656413
0.161059 0.944152 0.63769
0.161089 0.950698 0.585168
0.566888 0.962493 0.586603
0.904433 0.97319 0.664622
0.975921 0.980636 0.710338
0.975921 0.980636 0.710338
0.160678 0.940337 0.670497
0.160739 0.940887 0.665568
0.1608 0.941604 0.659403
0.160998 0.943801 0.640574
0.161089 0.950698 0.585168
0.539834 0.961318 0.582834
0.893828 0.972259 0.666407
0.975921 0.980636 0.710338
0.975921 0.980636 0.710338
0.0322881 0.0493324 0.218982
0.0797284 0.0427253 0.225238
0.194415 0.0409094 0.218616
0.348959 0.0436408 0.233555
0.56965 0.0414435 0.260334
0.833143 0.024155 0.320684
0.839994 0.025864 0.333043
0.842863 0.0265812 0.33872
0.843778 0.0267948 0.340688
0.0318761 0.0577401 0.201221
0.0324712 0.049012 0.213657
0.1364 0.0400397 0.227497
0.329686 0.0435798 0.220615
0.557488 0.0386511 0.240879
0.822248 0.021912 0.302129
0.829099 0.0232853 0.313878
0.832532 0.0240177 0.319615
0.833738 0.0242924 0.321736
0.0287175 0.11043 0.202441
0.0307774 0.0965133 0.212863
0.0706798 0.0784466 0.228595
0.304585 0.0528878 0.211093
0.543801 0.0360418 0.220142
0.805722 0.0192111 0.27779
0.813855 0.0203861 0.289082
0.817441 0.021088 0.294743
0.81883 0.0213169 0.296681
0.0271763 0.256168 0.238575
0.0277867 0.250797 0.234058
0.0284276 0.243793 0.228229
0.244327 0.244327 0.244327
0.565072 0.185534 0.2177
0.818448 0.0208591 0.234073
0.792538 0.0174716 0.252277
0.793881 0.0178683 0.262715
0.797101 0.0182498 0.266773
0.0396277 0.513924 0.342931
0.0385138 0.511757 0.329931
0.0371557 0.509316 0.31136
0.0344396 0.50544 0.23386
0.505043 0.510628 0.192584
0.861601 0.460365 0.248249
0.960418 0.366079 0.219226
0.959228 0.332738 0.209323
0.958694 0.320241 0.205982
0.138552 0.799756 0.531838
0.137972 0.79881 0.522972
0.137209 0.797879 0.511162
0.134936 0.797482 0.472816
0.186511 0.807858 0.341894
0.751049 0.775906 0.29456
0.940017 0.77557 0.352056
0.938811 0.761059 0.337087
0.938521 0.756039 0.331365
0.160586 0.939544 0.677607
0.160647 0.940047 0.673106
0.160723 0.940673 0.667521
0.160876 0.942641 0.650263
0.161135 0.949783 0.59234
0.646632 0.963409 0.574624
0.938064 0.95993 0.585382
0.974624 0.947723 0.580926
0.974441 0.943877 0.571771
0.160464 0.938674 0.685496
0.16054 0.939178 0.680903
0.160616 0.939803 0.675334
0.160815 0.941726 0.658381
0.161166 0.948669 0.601068
0.538125 0.961181 0.582513
0.897368 0.972549 0.665629
0.975921 0.980636 0.710338
0.975921 0.980636 0.710338
0.160433 0.938369 0.688182
0.160494 0.938842 0.683833
0.160571 0.939483 0.678218
0.160784 0.94139 0.661341
0.161166 0.948119 0.605386
0.509819 0.959655 0.577935
0.887251 0.971695 0.667857
0.975921 0.980636 0.710338
0.975921 0.980636 0.710338
0.0091249 0.0681468 0.417777
0.0459297 0.0619211 0.429206
0.130938 0.0464485 0.441733
0.392081 0.042359 0.435828
0.596246 0.0637827 0.443946
0.894072 0.0476081 0.483146
0.896941 0.0480354 0.495689
0.898222 0.0482032 0.501106
0.898665 0.0482643 0.503014
0.009308 0.0725261 0.411551
0.00962844 0.0676127 0.415061
0.0792859 0.0564889 0.433356
0.361898 0.0394141 0.439078
0.586511 0.0624704 0.436667
0.891325 0.0473182 0.47158
0.894026 0.0476081 0.482841
0.895048 0.047776 0.487846
0.89546 0.047837 0.489693
0.0104524 0.0919356 0.395758
0.00994888 0.0784161 0.403326
0.0196994 0.0652476 0.416938
0.301671 0.0374151 0.446708
0.574136 0.0607462 0.427451
0.887495 0.0469062 0.456779
0.890105 0.0471962 0.466545
0.891203 0.047303 0.471015
0.891524 0.0473182 0.472602
0 0.234913 0.408484
0 0.223728 0.413718
0 0.208118 0.422232
0.169558 0.188922 0.463844
0.57171 0.148302 0.450294
0.844175 0.045594 0.418082
0.882582 0.04477 0.439551
0.883406 0.0453193 0.441947
0.88365 0.0455482 0.442893
0.0413672 0.488258 0.465721
0.0402228 0.484947 0.462699
0.038819 0.480903 0.458915
0.0353552 0.469963 0.449531
0.493492 0.493492 0.493492
0.868345 0.441611 0.465827
0.938811 0.371191 0.455543
0.936095 0.341268 0.450019
0.93576 0.329412 0.447715
0.13576 0.773159 0.601068
0.135409 0.77116 0.59527
0.134997 0.769268 0.588006
0.13341 0.763745 0.565164
0.235218 0.771267 0.505913
0.752132 0.761517 0.504387
0.963561 0.749706 0.527108
0.960571 0.735042 0.514061
0.959548 0.729763 0.509377
0.159518 0.934401 0.723079
0.159655 0.934768 0.71986
0.159823 0.935286 0.715343
0.160143 0.936782 0.702525
0.160723 0.941375 0.66041
0.624887 0.958236 0.663676
0.937469 0.954086 0.674464
0.976242 0.946365 0.680522
0.976135 0.942992 0.673213
0.159167 0.933486 0.730968
0.159289 0.933913 0.727398
0.159533 0.934447 0.722713
0.159976 0.935988 0.709346
0.160708 0.940642 0.667872
0.551369 0.963272 0.65037
0.91693 0.976608 0.780972
0.981857 0.984543 0.815595
0.981857 0.984543 0.815427
0.159045 0.93312 0.73402
0.159197 0.933593 0.730053
0.159396 0.934142 0.72546
0.159899 0.935683 0.711925
0.160678 0.940337 0.670497
0.515175 0.961624 0.639963
0.904295 0.975464 0.77348
0.981598 0.984451 0.812802
0.981704 0.984451 0.812665
0 0.130541 0.589609
0 0.131273 0.595651
0.0444343 0.124132 0.611856
0.249424 0.0950332 0.646738
0.631662 0.108522 0.654231
0.934966 0.0895552 0.710552
0.938827 0.104387 0.73724
0.939513 0.111421 0.747311
0.939666 0.11371 0.750454
0 0.129732 0.587625
0 0.12961 0.587289
0.00221256 0.127169 0.598077
0.21207 0.100633 0.640986
0.617746 0.104677 0.652293
0.933257 0.0845197 0.701259
0.937346 0.0967117 0.724483
0.938552 0.101915 0.733715
0.938796 0.104112 0.736828
0 0.133303 0.575723
0 0.129412 0.583352
0 0.128511 0.584527
0.158373 0.112078 0.632837
0.598306 0.0999161 0.650752
0.922881 0.0852064 0.69189
0.93463 0.0884108 0.708461
0.935805 0.0924086 0.716197
0.936263 0.093904 0.718654
0 0.205692 0.573724
0 0.195682 0.578927
0 0.183673 0.586084
0.0456703 0.167346 0.612497
0.534401 0.104631 0.651957
0.890608 0.0881056 0.669337
0.928771 0.0691539 0.672892
0.929442 0.0706035 0.676112
0.929442 0.071107 0.677028
0 0.469566 0.610758
0 0.463462 0.61297
0 0.455161 0.615518
0 0.430365 0.627253
0.417838 0.443091 0.732891
0.867338 0.410803 0.717433
0.945159 0.340917 0.690227
0.941634 0.312215 0.682643
0.941741 0.300893 0.680537
0.124712 0.735225 0.707393
0.124132 0.732464 0.705028
0.123522 0.729244 0.702403
0.12166 0.720623 0.694667
0.161608 0.7093 0.687099
0.735622 0.735622 0.735622
0.965011 0.70605 0.718105
0.966247 0.688731 0.712764
0.966674 0.682231 0.71075
0.155596 0.925368 0.799771
0.155749 0.925612 0.797116
0.155215 0.924926 0.793347
0.15288 0.921172 0.782269
0.147646 0.912734 0.747173
0.637858 0.932174 0.774975
0.931334 0.937835 0.817182
0.974197 0.941253 0.832578
0.973205 0.93727 0.827558
0.155032 0.924239 0.811704
0.155184 0.924544 0.808331
0.155383 0.924926 0.80444
0.155978 0.925994 0.793057
0.157748 0.929641 0.762432
0.449653 0.954681 0.764385
0.913512 0.98088 0.900694
0.987915 0.98912 0.942779
0.988388 0.989242 0.943648
0.154818 0.923858 0.816129
0.154986 0.924163 0.812573
0.1552 0.924559 0.808133
0.155795 0.925689 0.796307
0.157641 0.929412 0.764233
0.384863 0.948837 0.751385
0.893339 0.979614 0.892363
0.982467 0.987335 0.928512
0.988235 0.989166 0.94226
0 0.259052 0.799985
0 0.261448 0.804089
0 0.262089 0.809934
0.0733349 0.276356 0.839811
0.473472 0.295293 0.888212
0.93283 0.319738 0.911894
0.927398 0.351598 0.925383
0.927398 0.351598 0.925383
0.927398 0.351598 0.925383
0 0.255314 0.796948
0 0.254749 0.796292
0 0.260243 0.805966
0.0263828 0.272114 0.835767
0.455024 0.290181 0.883574
0.926925 0.310491 0.908202
0.927398 0.351598 0.925383
0.927398 0.351598 0.925383
0.927398 0.351598 0.925383
0 0.243366 0.782742
0 0.250614 0.792874
0 0.249912 0.792279
0 0.266621 0.821576
0.43061 0.283879 0.877775
0.918868 0.301442 0.90454
0.928939 0.347524 0.923659
0.927398 0.351598 0.925383
0.927398 0.351598 0.925383
0 0.249378 0.743221
0 0.248631 0.754009
0 0.249104 0.767163
0 0.244953 0.787518
0.364843 0.268956 0.860853
0.892164 0.279347 0.895369
0.940108 0.302098 0.902434
0.938857 0.309468 0.906188
0.938308 0.312245 0.907576
0 0.458747 0.769619
0 0.453574 0.774792
0 0.447532 0.781521
0 0.433448 0.805646
0.259113 0.450233 0.858228
0.824765 0.422309 0.909483
0.949615 0.406622 0.881453
0.946502 0.38616 0.875151
0.945205 0.378332 0.872679
0 0.720562 0.819287
0 0.717113 0.819409
0 0.712779 0.820035
0 0.700771 0.823117
0 0.672541 0.837125
0.682826 0.703349 0.902495
0.966949 0.694011 0.896605
0.967636 0.677974 0.893599
0.968109 0.672282 0.89276
0.138872 0.902831 0.875486
0.137819 0.900832 0.87361
0.136477 0.898161 0.871153
0.133303 0.891737 0.865324
0.126421 0.876204 0.851499
0.581552 0.898344 0.884474
0.922515 0.922515 0.922515
0.972717 0.918914 0.921569
0.972183 0.913802 0.918914
0.144411 0.917815 0.900999
0.145083 0.917998 0.898466
0.145907 0.918227 0.895369
0.148104 0.918791 0.886763
0.152773 0.920317 0.863859
0.253437 0.939025 0.85745
0.91989 0.981735 0.953368
0.987442 0.988174 0.976898
0.989837 0.988266 0.978332
0.143847 0.917037 0.907408
0.14342 0.917525 0.904738
0.144411 0.9178 0.901061
0.14699 0.918486 0.891203
0.152605 0.920226 0.865385
0.22855 0.938811 0.85507
0.895949 0.980941 0.947478
0.987442 0.991211 0.983322
0.993423 0.989471 0.990799
0 0.267872 0.806668
0 0.271824 0.811688
0 0.285267 0.829038
0.026276 0.309407 0.862104
0.45655 0.333272 0.908186
0.923888 0.350637 0.925475
0.927398 0.351598 0.925383
0.927398 0.351598 0.925383
0.927398 0.351598 0.925383
0 0.267872 0.806668
0 0.267872 0.806668
0 0.279744 0.82005
0 0.304006 0.853025
0.43534 0.331716 0.904402
0.914107 0.348104 0.925704
0.927398 0.351598 0.925383
0.927398 0.351598 0.925383
0.927398 0.351598 0.925383
0 0.272953 0.808988
0 0.267872 0.806668
0 0.267872 0.806668
0 0.299168 0.841428
0.406271 0.331304 0.898878
0.900557 0.345388 0.926421
0.927398 0.351598 0.925383
0.927398 0.351598 0.925383
0.927398 0.351598 0.925383
0 0.326879 0.83006
0 0.314199 0.825391
0 0.297063 0.818311
0 0.280903 0.821881
0.325628 0.328893 0.887373
0.845747 0.340948 0.927169
0.927398 0.351598 0.925383
0.927398 0.351598 0.925383
0.927398 0.351598 0.925383
0 0.484504 0.859083
0 0.484794 0.86598
0 0.487068 0.875044
0 0.467567 0.870466
0.147585 0.473625 0.894743
0.701335 0.479912 0.962768
0.938994 0.453147 0.937697
0.936522 0.439017 0.935073
0.935424 0.433738 0.933928
0 0.713603 0.8851
0 0.710246 0.886412
0 0.706172 0.88835
0 0.694926 0.89575
0 0.666163 0.908705
0.601617 0.698238 0.960632
0.960647 0.703944 0.960403
0.963012 0.691249 0.960143
0.962753 0.686259 0.959915
0.0838788 0.894392 0.926421
0.0808423 0.891722 0.925322
0.0769513 0.889036 0.924468
0.068101 0.880781 0.921736
0.0456703 0.860136 0.920058
0.48603 0.865904 0.939116
0.89572 0.905898 0.96112
0.974304 0.915007 0.965606
0.973571 0.910323 0.964202
0.112032 0.918502 0.937316
0.112032 0.918502 0.937316
0.112032 0.918502 0.937316
0.112032 0.918502 0.937316
0.121981 0.917906 0.928008
0.179797 0.931212 0.924453
0.887266 0.971527 0.968872
0.985504 0.985504 0.985504
0.987884 0.985351 0.987961
0.112032 0.918502 0.937316
0.112032 0.918502 0.937316
0.112032 0.918502 0.937316
0.112032 0.918502 0.937316
0.120653 0.917998 0.929274
0.165637 0.930755 0.920928
0.834455 0.974258 0.963058
0.989807 0.990723 0.991562
0.991241 0.991241 0.991241
0 0.267872 0.806668
0 0.271122 0.810788
0 0.285039 0.828763
0.0234836 0.30901 0.861799
0.455573 0.33312 0.908019
0.9243 0.350744 0.92546
0.927398 0.351598 0.925383
0.927398 0.351598 0.925383
0.927398 0.351598 0.925383
0 0.267872 0.806668
0 0.267872 0.806668
0 0.278935 0.819181
0 0.303609 0.852171
0.433936 0.331701 0.904143
0.914153 0.348104 0.925704
0.927398 0.351598 0.925383
0.927398 0.351598 0.925383
0.927398 0.351598 0.925383
0 0.271931 0.808576
0 0.267872 0.806668
0 0.267872 0.806668
0 0.298894 0.840986
0.404334 0.331273 0.898497
0.900069 0.345296 0.926436
0.927398 0.351598 0.925383
0.927398 0.351598 0.925383
0.927398 0.351598 0.925383
0 0.321538 0.828214
0 0.308324 0.822782
0 0.291341 0.816037
0 0.280842 0.821729
0.321675 0.328695 0.8869
0.84242 0.340932 0.927169
0.927398 0.351598 0.925383
0.927398 0.351598 0.925383
0.927398 0.351598 0.925383
0 0.49723 0.878126
0 0.491798 0.876631
0 0.48513 0.875105
0 0.464286 0.869657
0.136019 0.468894 0.893767
0.694591 0.475975 0.961807
0.938094 0.448814 0.936782
0.935622 0.434577 0.934127
0.934951 0.429496 0.933379
0 0.716182 0.909545
0 0.712657 0.90901
0 0.708003 0.908537
0 0.695232 0.907423
0 0.662364 0.907759
0.596506 0.694652 0.960525
0.958221 0.699138 0.960708
0.962768 0.687282 0.959915
0.963012 0.682521 0.960204
0.0757763 0.894331 0.932235
0.0720836 0.891539 0.93167
0.0675822 0.888548 0.931563
0.0566567 0.879774 0.930739
0.034165 0.85655 0.928634
0.461707 0.85684 0.942596
0.876616 0.898054 0.966461
0.973602 0.909255 0.971679
0.973266 0.904356 0.971054
0.112032 0.918502 0.937316
0.112032 0.918502 0.937316
0.112032 0.918502 0.937316
0.112032 0.918502 0.937316
0.112032 0.918502 0.937316
0.127749 0.929335 0.943664
0.847715 0.962036 0.97377
0.982361 0.982818 0.986816
0.987945 0.98471 0.988388
0.112032 0.918502 0.937316
0.112032 0.918502 0.937316
0.112032 0.918502 0.937316
0.112032 0.918502 0.937316
0.112032 0.918502 0.937316
0.122835 0.92813 0.943145
0.763394 0.967178 0.970138
0.985748 0.990951 0.991043
0.991241 0.991241 0.991241
