luts/phantom/Neutral V-Log Legacy.cube
TITLE "Generated by Resolve"
LUT_3D_SIZE 5
0.0319524 0.0319524 0.0319524
0.142092 0.035462 0.0336309
0.523522 0.0231174 0.109712
0.741955 0.0158846 0.19826
0.746242 0.0154116 0.205493
0.0333562 0.122454 0.0494087
0.105974 0.107683 0.0352789
0.500328 0.0173648 0.0856641
0.733837 0.00958267 0.162478
0.733913 0.0101625 0.163043
0.0436713 0.537591 0.222232
0.0435645 0.536889 0.165866
0.504784 0.520623 0.0636454
0.954894 0.406455 0.17406
0.948058 0.373342 0.162799
0.160891 0.943008 0.647196
0.16112 0.944427 0.635081
0.162432 0.954223 0.575357
0.947799 0.968353 0.61651
0.975174 0.956436 0.604959
0.160815 0.941741 0.658183
0.160891 0.943114 0.646342
0.161089 0.950698 0.585168
0.899779 0.972793 0.665217
0.975921 0.980636 0.710338
0.033402 0.038056 0.0992905
0.154238 0.0414282 0.108217
0.545403 0.0294041 0.167559
0.781659 0.0167697 0.248753
0.788708 0.0174105 0.256855
0.0374151 0.110445 0.104051
0.0960403 0.0960403 0.0960403
0.51342 0.0272679 0.127886
0.746731 0.0153658 0.205997
0.75288 0.0151675 0.212253
0.0404669 0.525841 0.272908
0.0392462 0.523369 0.220798
0.49868 0.514107 0.0605631
0.952453 0.395041 0.16994
0.945876 0.360021 0.158785
0.1608 0.941573 0.659693
0.160891 0.942885 0.648249
0.161303 0.951156 0.58436
0.943618 0.965194 0.603235
0.975036 0.951125 0.590005
0.160678 0.940337 0.670497
0.1608 0.941604 0.659403
0.161089 0.950698 0.585168
0.893828 0.972259 0.666407
0.975921 0.980636 0.710338
0.0091249 0.0681468 0.417777
0.130938 0.0464485 0.441733
0.596246 0.0637827 0.443946
0.896941 0.0480354 0.495689
0.898665 0.0482643 0.503014
0.0104524 0.0919356 0.395758
0.0196994 0.0652476 0.416938
0.574136 0.0607462 0.427451
0.890105 0.0471962 0.466545
0.891524 0.0473182 0.472602
0.0413672 0.488258 0.465721
0.038819 0.480903 0.458915
0.493492 0.493492 0.493492
0.938811 0.371191 0.455543
0.93576 0.329412 0.447715
0.159518 0.934401 0.723079
0.159823 0.935286 0.715343
0.160723 0.941375 0.66041
0.937469 0.954086 0.674464
0.976135 0.942992 0.673213
0.159045 0.93312 0.73402
0.159396 0.934142 0.72546
0.160678 0.940337 0.670497
0.904295 0.975464 0.77348
0.981704 0.984451 0.812665
0 0.259052 0.799985
0 0.262089 0.809934
0.473472 0.295293 0.888212
0.927398 0.351598 0.925383
0.927398 0.351598 0.925383
0 0.243366 0.782742
0 0.249912 0.792279
0.43061 0.283879 0.877775
0.928939 0.347524 0.923659
0.927398 0.351598 0.925383
0 0.458747 0.769619
0 0.447532 0.781521
0.259113 0.450233 0.858228
0.949615 0.406622 0.881453
0.945205 0.378332 0.872679
0.138872 0.902831 0.875486
0.136477 0.898161 0.871153
0.126421 0.876204 0.851499
0.922515 0.922515 0.922515
0.972183 0.913802 0.918914
0.143847 0.917037 0.907408
0.144411 0.9178 0.901061
0.152605 0.920226 0.865385
0.895949 0.980941 0.947478
0.993423 0.989471 0.990799
0 0.267872 0.806668
0 0.285039 0.828763
0.455573 0.33312 0.908019
0.927398 0.351598 0.925383
0.927398 0.351598 0.925383
0 0.271931 0.808576
0 0.267872 0.806668
0.404334 0.331273 0.898497
0.927398 0.351598 0.925383
0.927398 0.351598 0.925383
0 0.49723 0.878126
0 0.48513 0.875105
0.136019 0.468894 0.893767
0.938094 0.448814 0.936782
0.934951 0.429496 0.933379
0.0757763 0.894331 0.932235
0.0675822 0.888548 0.931563
0.034165 0.85655 0.928634
0.876616 0.898054 0.966461
0.973266 0.904356 0.971054
0.112032 0.918502 0.937316
0.112032 0.918502 0.937316
0.112032 0.918502 0.937316
0.763394 0.967178 0.970138
0.991241 0.991241 0.991241
