luts/phantom/Tungsten V-Log Legacy.cube
TITLE "Generated by Resolve"
LUT_3D_SIZE 5
0.0306401 0.0310674 0.0375219
0.120226 0.0364691 0.0419471
0.503624 0.0391241 0.126665
0.669215 0.0486915 0.207797
0.674052 0.0499428 0.216739
0.0433051 0.115267 0.0676738
0.0977798 0.103944 0.0498054
0.480674 0.0298161 0.102998
0.659373 0.0437781 0.177752
0.664057 0.0484932 0.183978
0 0.448798 0.17673
0 0.448508 0.12604
0.520409 0.465309 0.0429389
0.922316 0.434836 0.252247
0.924376 0.445396 0.253376
0.144076 0.805463 0.5841
0.14107 0.804044 0.57467
0.124666 0.795254 0.508675
0.94551 0.913832 0.653452
0.964797 0.922286 0.67718
0.148669 0.808331 0.598581
0.143648 0.805325 0.582834
0.123384 0.794537 0.50251
0.923156 0.908248 0.640589
0.963989 0.926162 0.691341
0.0255741 0.0411688 0.0957809
0.123735 0.0450904 0.100099
0.520958 0.0459907 0.175097
0.693309 0.0554971 0.248997
0.698619 0.0575875 0.25771
0.044358 0.108034 0.1093
0.0810101 0.0973373 0.103105
0.495811 0.0413825 0.141253
0.67248 0.0493019 0.214099
0.676921 0.0504921 0.221088
0 0.448615 0.231006
0 0.447868 0.188968
0.517678 0.463249 0.0419623
0.921263 0.434302 0.251118
0.924361 0.443885 0.253529
0.148348 0.807889 0.597208
0.145342 0.806409 0.588296
0.125322 0.79498 0.513008
0.944198 0.913039 0.649836
0.964355 0.917296 0.662043
0.153323 0.811002 0.612528
0.148562 0.808026 0.597879
0.124758 0.794919 0.511955
0.914061 0.905165 0.633036
0.963958 0.926192 0.691417
0 0.0962844 0.386877
0.0778515 0.0768444 0.427436
0.548302 0.0834974 0.411765
0.769009 0.0998398 0.439872
0.771038 0.101259 0.450446
0 0.1205 0.369253
0 0.0966201 0.386862
0.531136 0.0805371 0.399237
0.765316 0.0969863 0.421622
0.768063 0.0991226 0.433722
0.0296788 0.473075 0.447639
0.0294041 0.475181 0.450202
0.500908 0.503731 0.492561
0.964157 0.414298 0.492287
0.967758 0.419364 0.506661
0.172534 0.82153 0.663706
0.171618 0.821225 0.661723
0.14931 0.808743 0.599878
0.94728 0.926741 0.720974
0.976562 0.930907 0.742336
0.184558 0.828305 0.693492
0.181323 0.826612 0.685756
0.153017 0.810559 0.611261
0.921935 0.939101 0.77467
0.980362 0.958328 0.822492
0.0059205 0.329732 0.699916
0.0116121 0.341726 0.709728
0.452049 0.393286 0.955367
0.88542 0.377249 0.905959
0.885237 0.37763 0.906767
0.00457771 0.327489 0.697414
0.00502022 0.327031 0.698436
0.410315 0.396017 0.944396
0.885756 0.376013 0.904112
0.885298 0.377493 0.906477
0.0460365 0.513832 0.725231
0.0506905 0.515541 0.73518
0.243458 0.570413 0.890761
0.922866 0.453651 0.891981
0.92401 0.4645 0.900862
0.254902 0.863157 0.842786
0.258701 0.866697 0.847211
0.241306 0.851301 0.826413
0.943923 0.945296 0.94168
0.975021 0.947127 0.946242
0.269886 0.87393 0.872953
0.269917 0.874037 0.871687
0.256931 0.866972 0.841123
0.950713 0.980591 0.969375
0.991196 0.989197 0.988342
0.00740063 0.333989 0.702373
0.0150759 0.350958 0.714961
0.446494 0.419272 0.968017
0.885405 0.377295 0.90605
0.885191 0.377707 0.906905
0.00875868 0.33814 0.70428
0.00743114 0.334081 0.70248
0.403296 0.421668 0.953918
0.885588 0.376913 0.905241
0.885252 0.377584 0.906661
0.0842298 0.556023 0.782544
0.0834363 0.553811 0.782177
0.19617 0.577111 0.875792
0.916533 0.48423 0.932906
0.917388 0.489967 0.934951
0.265949 0.869612 0.876249
0.27126 0.874784 0.879301
0.247791 0.851469 0.867765
0.914748 0.936477 0.96791
0.972213 0.942794 0.970764
0.271748 0.875349 0.878965
0.272206 0.875715 0.879744
0.272206 0.875715 0.879744
0.887388 0.974227 0.974304
0.990707 0.990021 0.989242
