luts/phantom/Tungsten V-Log Legacy.cube
TITLE "Generated by Resolve"
LUT_3D_SIZE 9
0.0306401 0.0310674 0.0375219
0.0459144 0.0320439 0.0368658
0.120226 0.0364691 0.0419471
0.278569 0.0346838 0.068452
0.503624 0.0391241 0.126665
0.667903 0.0490425 0.199878
0.669215 0.0486915 0.207797
0.671138 0.0489662 0.212039
0.674052 0.0499428 0.216739
0.0354925 0.0490578 0.0473487
0.0377661 0.0433356 0.0410468
0.092546 0.0446479 0.0422827
0.259785 0.0333257 0.0613565
0.488151 0.0286107 0.105989
0.66482 0.0492409 0.186191
0.667033 0.049424 0.19443
0.66772 0.0492561 0.197986
0.669657 0.0499886 0.20238
0.0433051 0.115267 0.0676738
0.0353399 0.111727 0.0584421
0.0977798 0.103944 0.0498054
0.270237 0.0766918 0.0589609
0.480674 0.0298161 0.102998
0.65803 0.0422827 0.176043
0.659373 0.0437781 0.177752
0.662104 0.0469215 0.181048
0.664057 0.0484932 0.183978
0.0176242 0.253101 0.0940108
0.0124971 0.251621 0.0720989
0.00894179 0.24802 0.0515602
0.265324 0.240757 0.0311894
0.579568 0.193988 0.107561
0.691096 0.053315 0.165194
0.664973 0.0392004 0.170321
0.66157 0.0381933 0.171939
0.662318 0.0375067 0.172839
0 0.448798 0.17673
0 0.449577 0.15964
0 0.448508 0.12604
0 0.443503 0.0791943
0.520409 0.465309 0.0429389
0.893965 0.48896 0.234394
0.922316 0.434836 0.252247
0.918074 0.425681 0.248859
0.924376 0.445396 0.253376
0.0729992 0.700984 0.420829
0.0729686 0.704128 0.41886
0.0712902 0.706218 0.408835
0.0635233 0.70457 0.361776
0.129 0.689555 0.232013
0.771984 0.725444 0.260975
0.946395 0.768521 0.367727
0.945296 0.764431 0.362585
0.947524 0.771649 0.370352
0.144076 0.805463 0.5841
0.143175 0.805188 0.58146
0.14107 0.804044 0.57467
0.134478 0.800336 0.551949
0.124666 0.795254 0.508675
0.600137 0.831968 0.501427
0.94551 0.913832 0.653452
0.964874 0.920378 0.672541
0.964797 0.922286 0.67718
0.147204 0.807416 0.594064
0.145708 0.806424 0.589181
0.143282 0.805051 0.581552
0.136355 0.801114 0.558282
0.124926 0.794629 0.510643
0.54374 0.820371 0.484001
0.913573 0.904646 0.631464
0.964477 0.925338 0.689632
0.964096 0.925963 0.690944
0.148669 0.808331 0.598581
0.146593 0.807126 0.592279
0.143648 0.805325 0.582834
0.135149 0.800443 0.554055
0.123384 0.794537 0.50251
0.615503 0.835416 0.507668
0.923156 0.908248 0.640589
0.964309 0.925628 0.690211
0.963989 0.926162 0.691341
0.0296635 0.0328832 0.0496223
0.0450294 0.0328374 0.0497292
0.121202 0.0406348 0.0685435
0.291676 0.0416571 0.0973831
0.511376 0.0421149 0.14873
0.675059 0.0499123 0.217914
0.679469 0.0510719 0.226734
0.681056 0.0515908 0.230533
0.682628 0.0522774 0.233799
0.0348211 0.0454719 0.0510719
0.0322576 0.0374914 0.0445106
0.0992752 0.0386206 0.0474708
0.26482 0.0378576 0.0720073
0.498894 0.0411078 0.12961
0.669169 0.0494392 0.203174
0.670451 0.0491188 0.211093
0.673503 0.0496223 0.215702
0.675593 0.050309 0.21915
0.0459754 0.11014 0.0872969
0.0440375 0.105989 0.0738079
0.0881971 0.10016 0.051606
0.268589 0.0655528 0.0589456
0.48159 0.0307774 0.1084
0.666651 0.0500649 0.190311
0.667735 0.0497597 0.195529
0.668147 0.0495918 0.197955
0.669245 0.0500191 0.200336
0.0236667 0.250355 0.124743
0.0208743 0.248112 0.105379
0.0111543 0.244373 0.0640726
0.261387 0.237705 0.0319371
0.575708 0.18497 0.105715
0.68838 0.0511177 0.165408
0.663539 0.039353 0.172015
0.661097 0.039292 0.174228
0.662577 0.0395209 0.174304
0 0.449042 0.20209
0 0.449516 0.18677
0 0.447807 0.152621
0 0.444831 0.0940871
0.519295 0.464363 0.0425422
0.897871 0.485756 0.236774
0.921996 0.43537 0.251743
0.918013 0.426032 0.248722
0.924681 0.446006 0.253635
0.0748455 0.700847 0.431464
0.0748455 0.704326 0.429892
0.0736095 0.706722 0.420844
0.0658732 0.705242 0.377096
0.115297 0.691341 0.242542
0.772396 0.726101 0.261906
0.946227 0.768032 0.367071
0.944839 0.763272 0.361028
0.947005 0.770901 0.368826
0.145968 0.806531 0.589975
0.145052 0.806195 0.587518
0.142947 0.805081 0.58085
0.136477 0.801434 0.558923
0.125399 0.795041 0.511452
0.592447 0.830335 0.499199
0.945235 0.913725 0.652628
0.96495 0.919844 0.670375
0.964508 0.919921 0.670405
0.149157 0.80853 0.599954
0.147616 0.807477 0.595117
0.145174 0.806073 0.587625
0.138323 0.802182 0.565042
0.124529 0.79472 0.511467
0.535103 0.818387 0.480583
0.911147 0.903868 0.629709
0.964477 0.925338 0.689632
0.964096 0.925963 0.690944
0.150561 0.8094 0.604166
0.148455 0.808103 0.597803
0.145586 0.806394 0.58883
0.137087 0.801526 0.560769
0.123995 0.794842 0.506386
0.603906 0.832914 0.503349
0.919631 0.907103 0.637827
0.964309 0.925628 0.690211
0.963989 0.926162 0.691341
0.0255741 0.0411688 0.0957809
0.0552834 0.038056 0.0981308
0.123735 0.0450904 0.100099
0.298329 0.0466468 0.131029
0.520958 0.0459907 0.175097
0.686687 0.053254 0.239261
0.693309 0.0554971 0.248997
0.696178 0.0565805 0.253544
0.698619 0.0575875 0.25771
0.0316167 0.0510109 0.0764477
0.0275578 0.0451057 0.0867323
0.102647 0.0428321 0.0901045
0.27953 0.0442512 0.111528
0.509331 0.0434272 0.156847
0.678477 0.0508125 0.224567
0.682109 0.0518654 0.232471
0.684825 0.0527047 0.236561
0.687236 0.0536507 0.240467
0.044358 0.108034 0.1093
0.0436103 0.103578 0.106279
0.0810101 0.0973373 0.103105
0.27483 0.0743572 0.102205
0.495811 0.0413825 0.141253
0.669306 0.0488899 0.208255
0.67248 0.0493019 0.214099
0.6748 0.0497749 0.217456
0.676921 0.0504921 0.221088
0.0290074 0.247807 0.158343
0.0282292 0.245731 0.146471
0.0250095 0.240543 0.113527
0.259632 0.238926 0.0720684
0.573693 0.174197 0.116167
0.687022 0.0496376 0.173495
0.671901 0.0509194 0.189532
0.670253 0.0505074 0.196094
0.670924 0.0493782 0.196948
0 0.448615 0.231006
0 0.449546 0.21828
0 0.447868 0.188968
0 0.443549 0.104479
0.517678 0.463249 0.0419623
0.898634 0.483131 0.237278
0.921263 0.434302 0.251118
0.917189 0.423468 0.248188
0.924361 0.443885 0.253529
0.0772259 0.700343 0.443198
0.0774395 0.704219 0.44271
0.0766003 0.707256 0.43534
0.0684672 0.704738 0.393805
0.0983139 0.692775 0.254246
0.772152 0.725917 0.261769
0.945922 0.766751 0.365438
0.944442 0.761913 0.359106
0.946761 0.769818 0.367178
0.148348 0.807889 0.597208
0.147524 0.807599 0.595102
0.145342 0.806409 0.588296
0.138979 0.802808 0.567452
0.125322 0.79498 0.513008
0.579751 0.828077 0.495674
0.944198 0.913039 0.649836
0.964843 0.91751 0.662928
0.964355 0.917296 0.662043
0.151492 0.809873 0.607111
0.150286 0.809125 0.603265
0.147768 0.807507 0.595529
0.140841 0.803662 0.573632
0.124834 0.794812 0.513176
0.520287 0.815259 0.475578
0.907103 0.902632 0.626886
0.964477 0.925338 0.689632
0.964096 0.925963 0.690944
0.153323 0.811002 0.612528
0.151415 0.809903 0.606928
0.148562 0.808026 0.597879
0.140139 0.803235 0.571267
0.124758 0.794919 0.511955
0.583444 0.828321 0.495277
0.914061 0.905165 0.633036
0.964309 0.925628 0.690211
0.963958 0.926192 0.691417
0.0130007 0.0591135 0.199634
0.040238 0.0544289 0.20827
0.155947 0.0472725 0.204822
0.306432 0.0558785 0.212451
0.530312 0.0610208 0.250019
0.722927 0.0682689 0.30277
0.726757 0.0703899 0.31104
0.728374 0.0712902 0.314656
0.730877 0.0728008 0.320638
0.0157931 0.0666209 0.182162
0.0138247 0.0590219 0.194736
0.0957809 0.0489204 0.217563
0.29015 0.055375 0.202472
0.522515 0.0576486 0.234394
0.716167 0.0649119 0.288884
0.720241 0.0669871 0.297154
0.722118 0.0679484 0.300847
0.724834 0.0693523 0.306828
0.021561 0.11841 0.184939
0.0190738 0.110155 0.193469
0.040238 0.0929885 0.212177
0.27042 0.0665141 0.197131
0.512795 0.0540169 0.216938
0.70605 0.0603647 0.269627
0.710536 0.0623026 0.277501
0.712551 0.0631418 0.28159
0.715648 0.0647135 0.287602
0.0309911 0.246799 0.234043
0.0309758 0.244785 0.233021
0.032166 0.239246 0.227497
0.239368 0.244205 0.243091
0.586145 0.190845 0.233448
0.711666 0.0632181 0.240085
0.697063 0.056733 0.250584
0.69894 0.057435 0.257588
0.704219 0.0595254 0.263478
0 0.45391 0.305074
0 0.454841 0.29897
0 0.452567 0.281559
0 0.439796 0.200092
0.520439 0.476875 0.163867
0.914458 0.474845 0.288472
0.936477 0.413458 0.287922
0.931792 0.398199 0.285679
0.941649 0.421302 0.297124
0.0830549 0.698436 0.471397
0.0835126 0.7028 0.472297
0.0827039 0.705592 0.466896
0.0751507 0.702495 0.433997
0.0903639 0.688258 0.27837
0.76791 0.724132 0.283116
0.946838 0.766705 0.3832
0.945541 0.761913 0.376989
0.947784 0.770687 0.390097
0.154162 0.811215 0.614633
0.153689 0.8112 0.613596
0.151858 0.810101 0.60824
0.145724 0.806607 0.589487
0.126375 0.79588 0.519966
0.55314 0.822385 0.486976
0.939315 0.908904 0.635203
0.964157 0.909926 0.640604
0.964218 0.910918 0.644663
0.158022 0.813581 0.62565
0.156985 0.813046 0.622919
0.15465 0.811521 0.616098
0.148028 0.807675 0.59617
0.128603 0.796765 0.529107
0.487633 0.808911 0.466331
0.89778 0.899672 0.620905
0.964477 0.925338 0.689632
0.964294 0.926314 0.692348
0.161242 0.815427 0.63444
0.159686 0.814572 0.630365
0.157031 0.813016 0.622965
0.148882 0.808148 0.59881
0.128023 0.796429 0.526986
0.542412 0.821347 0.488914
0.901427 0.902174 0.628717
0.964797 0.926482 0.693736
0.964431 0.926955 0.694575
0 0.0962844 0.386877
0 0.0933547 0.399451
0.0778515 0.0768444 0.427436
0.346532 0.0567636 0.410422
0.548302 0.0834974 0.411765
0.767559 0.0986496 0.433783
0.769009 0.0998398 0.439872
0.769497 0.10016 0.442405
0.771038 0.101259 0.450446
0 0.101381 0.38143
0 0.0957961 0.385733
0.0250858 0.0875715 0.411109
0.319005 0.0541238 0.419471
0.541283 0.0822614 0.40679
0.766201 0.0976425 0.426886
0.767208 0.0983749 0.432303
0.767819 0.0988937 0.434943
0.769772 0.100328 0.443748
0 0.1205 0.369253
0 0.110918 0.375601
0 0.0966201 0.386862
0.260273 0.0542153 0.437339
0.531136 0.0805371 0.399237
0.764523 0.0965591 0.41651
0.765316 0.0969863 0.421622
0.765713 0.097261 0.424125
0.768063 0.0991226 0.433722
0 0.261814 0.391989
0 0.25658 0.398383
0 0.244434 0.406958
0.142336 0.223896 0.474861
0.549783 0.160952 0.43505
0.752087 0.090959 0.393057
0.761318 0.0942092 0.403769
0.762432 0.09514 0.407004
0.765454 0.0974441 0.417395
0.0296788 0.473075 0.447639
0.0294652 0.475349 0.450614
0.0294041 0.475181 0.450202
0.0266423 0.467323 0.441901
0.500908 0.503731 0.492561
0.937667 0.473213 0.504128
0.964157 0.414298 0.492287
0.960388 0.39942 0.490501
0.967758 0.419364 0.506661
0.103212 0.702068 0.549111
0.104494 0.70695 0.552972
0.104784 0.709987 0.552026
0.098909 0.705669 0.533227
0.127703 0.684581 0.443
0.774914 0.75021 0.489219
0.965881 0.784665 0.552132
0.966461 0.778103 0.548943
0.967453 0.788571 0.565332
0.172534 0.82153 0.663706
0.172732 0.821851 0.664485
0.171618 0.821225 0.661723
0.166278 0.818235 0.647868
0.14931 0.808743 0.599878
0.558984 0.844678 0.596948
0.94728 0.926741 0.720974
0.976013 0.927916 0.731517
0.976562 0.930907 0.742336
0.177661 0.824537 0.676738
0.177325 0.82443 0.676066
0.175845 0.82359 0.672297
0.169757 0.82005 0.656748
0.151324 0.809583 0.606332
0.492119 0.827497 0.57055
0.915618 0.93344 0.754574
0.980041 0.955932 0.813367
0.980133 0.957595 0.819013
0.184558 0.828305 0.693492
0.183444 0.827726 0.690867
0.181323 0.826612 0.685756
0.173693 0.822232 0.666773
0.153017 0.810559 0.611261
0.549981 0.84506 0.609506
0.921935 0.939101 0.77467
0.980865 0.95819 0.823407
0.980362 0.958328 0.822492
0 0.185336 0.55967
0 0.18616 0.561181
0 0.182956 0.578592
0.189792 0.155856 0.6654
0.582406 0.131807 0.646555
0.804593 0.14815 0.64065
0.810376 0.157565 0.659144
0.812253 0.161074 0.665141
0.816663 0.168948 0.679805
0 0.184604 0.55848
0 0.184939 0.559197
0 0.185992 0.564095
0.151629 0.164981 0.655558
0.569757 0.129564 0.649638
0.803159 0.146212 0.636469
0.808057 0.153735 0.652094
0.809979 0.156817 0.658289
0.815396 0.166278 0.674617
0 0.186389 0.548898
0 0.185077 0.555535
0 0.183917 0.557504
0.0970016 0.176638 0.636744
0.550759 0.126864 0.653956
0.800626 0.144869 0.632181
0.805234 0.149203 0.641932
0.807431 0.152667 0.648615
0.813153 0.162432 0.666316
0 0.254215 0.557412
0 0.249134 0.562509
0 0.2392 0.568231
0 0.223987 0.593271
0.489616 0.129915 0.666606
0.791287 0.13901 0.619944
0.796048 0.135119 0.614511
0.798215 0.138384 0.620844
0.803769 0.147311 0.639155
0.015198 0.499321 0.604334
0.0157778 0.500954 0.610452
0.0163729 0.499672 0.616526
0.0145418 0.485588 0.628214
0.421759 0.525795 0.808759
0.879881 0.438163 0.732631
0.919066 0.382239 0.706706
0.915862 0.369238 0.704982
0.922408 0.390585 0.723659
0.143877 0.719051 0.687694
0.146624 0.72459 0.693767
0.148516 0.727916 0.697307
0.147295 0.725994 0.69514
0.166094 0.717861 0.68748
0.767208 0.771603 0.760601
0.981018 0.76701 0.767865
0.98262 0.757321 0.768292
0.97969 0.767544 0.779049
0.212863 0.843229 0.756283
0.214221 0.844129 0.759228
0.21387 0.843931 0.758587
0.209964 0.841764 0.750652
0.196109 0.834226 0.720958
0.601343 0.870024 0.748913
0.953445 0.946715 0.862486
0.98204 0.954223 0.882078
0.982177 0.955673 0.88838
0.221866 0.848051 0.77438
0.222461 0.848585 0.775586
0.22153 0.848051 0.773831
0.215976 0.84509 0.762722
0.198657 0.83563 0.726024
0.456931 0.852186 0.715969
0.944457 0.973083 0.922072
0.990967 0.984955 0.954345
0.990997 0.986038 0.957885
0.233494 0.85449 0.796765
0.23267 0.854002 0.79527
0.230686 0.852979 0.791501
0.223239 0.848997 0.777157
0.20293 0.837934 0.735271
0.516732 0.867948 0.747738
0.945205 0.974655 0.929244
0.990036 0.985275 0.955657
0.990799 0.986603 0.959319
0.0059205 0.329732 0.699916
0.00598154 0.329854 0.700114
0.0116121 0.341726 0.709728
0.0455329 0.365362 0.745769
0.452049 0.393286 0.955367
0.883787 0.358007 0.892546
0.88542 0.377249 0.905959
0.885527 0.37705 0.905547
0.885237 0.37763 0.906767
0.00556954 0.328557 0.69926
0.00556954 0.328695 0.699382
0.00865187 0.335988 0.704662
0.0248264 0.358892 0.727245
0.434958 0.394491 0.951461
0.878935 0.354345 0.891173
0.885466 0.377172 0.905776
0.885405 0.377279 0.90602
0.885267 0.377554 0.906615
0.00457771 0.327489 0.697414
0.00502022 0.327047 0.698451
0.00502022 0.327031 0.698436
0.0167391 0.353735 0.717861
0.410315 0.396017 0.944396
0.874052 0.352331 0.89102
0.885756 0.376013 0.904112
0.885649 0.376822 0.905028
0.885298 0.377493 0.906477
0 0.322438 0.680842
0 0.326787 0.686473
0.00323491 0.332494 0.694133
0.00872816 0.337102 0.704646
0.338872 0.395758 0.918853
0.859327 0.347417 0.891752
0.886183 0.358495 0.890303
0.886213 0.362997 0.894102
0.885695 0.372488 0.902647
0.0460365 0.513832 0.725231
0.0482795 0.515663 0.729671
0.0506905 0.515541 0.73518
0.0568704 0.5122 0.749752
0.243458 0.570413 0.890761
0.833997 0.469657 0.935637
0.922866 0.453651 0.891981
0.920577 0.446082 0.889723
0.92401 0.4645 0.900862
0.135348 0.72221 0.772473
0.139467 0.726818 0.777234
0.141482 0.729137 0.780316
0.142412 0.726879 0.784512
0.142885 0.714061 0.794965
0.725902 0.792508 0.951843
0.952117 0.747707 0.906355
0.952453 0.739254 0.905699
0.951675 0.750927 0.910887
0.254902 0.863157 0.842786
0.257542 0.865415 0.846357
0.258701 0.866697 0.847211
0.258335 0.867155 0.844907
0.241306 0.851301 0.826413
0.58912 0.900496 0.882948
0.943923 0.945296 0.94168
0.975219 0.945541 0.942306
0.975021 0.947127 0.946242
0.266789 0.871992 0.862837
0.267247 0.872297 0.863737
0.266987 0.872084 0.862654
0.265278 0.871199 0.857267
0.25417 0.865507 0.835767
0.346151 0.892638 0.84036
0.951202 0.980468 0.968017
0.991058 0.98938 0.98468
0.991089 0.989776 0.985931
0.269886 0.87393 0.872953
0.270542 0.874449 0.873793
0.269917 0.874037 0.871687
0.267903 0.872694 0.864469
0.256931 0.866972 0.841123
0.357931 0.893797 0.845411
0.950713 0.980591 0.969375
0.992065 0.988205 0.988083
0.991196 0.989197 0.988342
0.00740063 0.333989 0.702373
0.00743114 0.334081 0.70248
0.0151064 0.351049 0.715023
0.0386358 0.378225 0.743435
0.443275 0.419821 0.967269
0.882811 0.376684 0.906676
0.885405 0.377295 0.90605
0.885451 0.377203 0.905837
0.885374 0.37734 0.906157
0.00737011 0.333928 0.702281
0.00743114 0.334081 0.70248
0.0101472 0.340612 0.707042
0.0244755 0.371359 0.729549
0.425269 0.419715 0.961486
0.877028 0.37499 0.90753
0.885405 0.377295 0.90605
0.885374 0.37734 0.906157
0.885206 0.377691 0.906889
0.00891127 0.338689 0.704494
0.00743114 0.334081 0.70248
0.00743114 0.334081 0.70248
0.0210575 0.365652 0.724132
0.399664 0.421286 0.952651
0.870405 0.373327 0.908782
0.885588 0.376913 0.905241
0.885557 0.376974 0.905379
0.885283 0.377523 0.906538
0.0241093 0.389639 0.725658
0.0215763 0.381186 0.72256
0.0161898 0.364248 0.715297
0.0131228 0.347417 0.711757
0.322454 0.420829 0.923125
0.847959 0.370901 0.91371
0.885679 0.376761 0.904891
0.885679 0.376745 0.904875
0.885344 0.377432 0.906325
0.0773022 0.545342 0.77435
0.0809949 0.550408 0.779019
0.0823224 0.551324 0.781125
0.0769513 0.53782 0.777218
0.191348 0.574639 0.872847
0.774334 0.520317 1
0.915953 0.482338 0.932647
0.914473 0.476127 0.930724
0.916838 0.487678 0.934493
0.158755 0.730846 0.816052
0.161807 0.734936 0.819226
0.164523 0.737835 0.822446
0.165881 0.735927 0.8271
0.159701 0.71957 0.827634
0.677989 0.821408 1
0.949554 0.75378 0.954467
0.950179 0.745525 0.953002
0.949874 0.755337 0.953902
0.264088 0.867796 0.874083
0.266972 0.870512 0.876417
0.269322 0.872938 0.877821
0.268833 0.87245 0.877546
0.247807 0.851514 0.866835
0.532479 0.918303 0.952285
0.92256 0.937758 0.965057
0.972488 0.943542 0.966659
0.9729 0.944686 0.967819
0.271717 0.875334 0.878904
0.272175 0.8757 0.879698
0.272206 0.875715 0.879744
0.272206 0.875715 0.879744
0.271931 0.875486 0.878782
0.309453 0.898436 0.891157
0.92491 0.976028 0.973022
0.989029 0.988464 0.987961
0.990066 0.989334 0.989471
0.271763 0.875364 0.878996
0.272175 0.8757 0.879698
0.272206 0.875715 0.879744
0.272206 0.875715 0.879744
0.271962 0.875517 0.878874
0.319081 0.902617 0.895415
0.91873 0.976959 0.97293
0.990509 0.990326 0.989837
0.990738 0.98996 0.98912
0.00740063 0.333989 0.702373
0.00743114 0.334081 0.70248
0.0150759 0.350958 0.714961
0.037995 0.37818 0.742992
0.446494 0.419272 0.968017
0.883177 0.376822 0.906645
0.885405 0.377295 0.90605
0.88542 0.377279 0.906004
0.885191 0.377707 0.906905
0.00737011 0.333928 0.702296
0.00743114 0.334081 0.70248
0.0100252 0.340246 0.706828
0.024445 0.371298 0.729503
0.428824 0.420005 0.962539
0.877577 0.374914 0.907134
0.885405 0.377295 0.90605
0.885374 0.377356 0.906172
0.885161 0.377768 0.907042
0.00875868 0.33814 0.70428
0.00743114 0.334081 0.70248
0.00743114 0.334081 0.70248
0.0211032 0.36585 0.724193
0.403296 0.421668 0.953918
0.871229 0.373556 0.908629
0.885588 0.376913 0.905241
0.885557 0.376974 0.905379
0.885252 0.377584 0.906661
0.0233158 0.38703 0.724666
0.0204013 0.378042 0.721019
0.015259 0.360861 0.713985
0.0133516 0.348043 0.712108
0.325734 0.42089 0.924743
0.850462 0.371572 0.913252
0.885649 0.376791 0.904982
0.885664 0.376761 0.904921
0.885344 0.377432 0.906325
0.0842298 0.556023 0.782544
0.0843824 0.556161 0.782849
0.0834363 0.553811 0.782177
0.0775311 0.539269 0.777661
0.19617 0.577111 0.875792
0.778286 0.521126 1
0.916533 0.48423 0.932906
0.915099 0.47837 0.931273
0.917388 0.489967 0.934951
0.168307 0.73846 0.829938
0.170596 0.742199 0.831678
0.17145 0.743786 0.832181
0.16936 0.739467 0.831388
0.160159 0.720653 0.827771
0.680827 0.822446 1
0.949798 0.755932 0.95462
0.950103 0.747631 0.953201
0.950088 0.757519 0.954116
0.265949 0.869612 0.876249
0.268849 0.872419 0.878065
0.27126 0.874784 0.879301
0.268788 0.872389 0.877943
0.247791 0.851469 0.867765
0.529961 0.919295 0.957839
0.914748 0.936477 0.96791
0.971771 0.941695 0.970016
0.972213 0.942794 0.970764
0.271855 0.875441 0.879149
0.272175 0.8757 0.879698
0.272206 0.875715 0.879744
0.272206 0.875715 0.879744
0.272206 0.875715 0.879744
0.306447 0.897734 0.898802
0.903929 0.973053 0.975418
0.987457 0.987335 0.988159
0.989807 0.988998 0.989578
0.271748 0.875349 0.878965
0.272175 0.8757 0.879698
0.272206 0.875715 0.879744
0.272206 0.875715 0.879744
0.272206 0.875715 0.879744
0.314412 0.901427 0.902312
0.887388 0.974227 0.974304
0.990112 0.990692 0.990478
0.990707 0.990021 0.989242
