luts/phantom/Tungsten V-Log Legacy.cube
TITLE "Generated by Resolve"
LUT_3D_SIZE 33
0.0306401 0.0310674 0.0375219
0.0306401 0.0309758 0.0373388
0.0306706 0.0307774 0.0368963
0.0321965 0.0305333 0.0361334
0.0459144 0.0320439 0.0368658
0.06215 0.0339818 0.0375219
0.0800183 0.0354162 0.0384527
0.098909 0.0362554 0.0399634
0.120226 0.0364691 0.0419471
0.14725 0.0355993 0.0452888
0.181842 0.0352483 0.0511025
0.224994 0.0354162 0.0594339
0.278569 0.0346838 0.068452
0.337255 0.0337682 0.0782025
0.394965 0.0335393 0.0918288
0.450706 0.0350195 0.107759
0.503624 0.0391241 0.126665
0.558648 0.0433356 0.147845
0.615625 0.0456703 0.170611
0.659022 0.0486458 0.192386
0.667903 0.0490425 0.199878
0.668177 0.0488746 0.202335
0.668391 0.0487373 0.204303
0.668772 0.0487068 0.206195
0.669215 0.0486915 0.207797
0.669551 0.0486458 0.209125
0.669978 0.0486915 0.210178
0.670512 0.0488136 0.211109
0.671138 0.0489662 0.212039
0.671809 0.0491493 0.213046
0.672435 0.0493324 0.213962
0.673243 0.0496376 0.21532
0.674052 0.0499428 0.216739
0.0306706 0.0307927 0.0369116
0.0306401 0.0309758 0.0373388
0.0306401 0.0309758 0.0373388
0.0306706 0.0307774 0.0368963
0.0401465 0.0317388 0.0367132
0.0562295 0.0337682 0.0370794
0.0736858 0.0352483 0.0376135
0.0932021 0.0363012 0.0386053
0.115084 0.0363165 0.0397955
0.14229 0.0350042 0.0426337
0.176745 0.0336309 0.0472419
0.21973 0.0336919 0.0552529
0.272648 0.0326848 0.0638285
0.331685 0.0312657 0.071809
0.390082 0.0306249 0.0849622
0.445823 0.0315099 0.100572
0.499352 0.0349889 0.119829
0.554482 0.0394141 0.141375
0.612482 0.0437324 0.16553
0.657511 0.0487221 0.188708
0.66743 0.0492714 0.19675
0.667796 0.0491035 0.199054
0.66807 0.0489662 0.201175
0.668254 0.0488289 0.203037
0.668406 0.0487373 0.20441
0.668467 0.0486458 0.205646
0.668803 0.0486763 0.206546
0.669108 0.0487068 0.207446
0.669383 0.0487373 0.20824
0.669779 0.0488441 0.209155
0.670176 0.0489815 0.21004
0.670756 0.0492714 0.211276
0.671427 0.049546 0.21265
0.0306706 0.0307927 0.0369116
0.0306401 0.0309758 0.0373388
0.0306401 0.0309758 0.0373388
0.0306706 0.0307774 0.0368963
0.0334325 0.031281 0.0363165
0.0493324 0.0345617 0.0371252
0.0661784 0.0365606 0.0383917
0.0860151 0.0377966 0.0392309
0.109056 0.037583 0.0401007
0.137148 0.0359197 0.0419471
0.172045 0.033402 0.0460975
0.215045 0.0328832 0.0534066
0.268406 0.0324865 0.0623331
0.327092 0.0303807 0.0693523
0.385367 0.0289158 0.0805219
0.441077 0.0289158 0.0942245
0.494453 0.0313878 0.112764
0.550362 0.0350652 0.134524
0.608377 0.040177 0.159396
0.655451 0.0487221 0.184833
0.666865 0.0494698 0.193484
0.667262 0.0493324 0.195758
0.667597 0.0491646 0.197986
0.667887 0.049073 0.199664
0.668055 0.0489662 0.20116
0.668193 0.0488594 0.202396
0.668284 0.0488136 0.20325
0.668391 0.0487831 0.203983
0.668513 0.0487831 0.204685
0.668788 0.0488594 0.205554
0.669154 0.0489815 0.206485
0.669764 0.0492256 0.207828
0.67039 0.0495003 0.209171
0.0319524 0.0353857 0.0397955
0.0319066 0.035584 0.0401617
0.0315251 0.0350958 0.0391546
0.031693 0.034165 0.0383307
0.0330053 0.0328985 0.0374914
0.0431678 0.0361486 0.0380407
0.0572061 0.0391546 0.0390021
0.0762493 0.0404822 0.0399329
0.100664 0.0404822 0.0408942
0.130022 0.0383917 0.0426947
0.166232 0.0349126 0.0458839
0.210697 0.0332494 0.052781
0.264439 0.0326543 0.0619669
0.323766 0.030518 0.0691081
0.382376 0.0285801 0.079118
0.437888 0.0279545 0.091371
0.490608 0.0290684 0.107454
0.546395 0.0311437 0.127825
0.603891 0.0357519 0.152575
0.651789 0.046067 0.179095
0.666087 0.0496681 0.189975
0.666667 0.0495308 0.192523
0.667079 0.0494087 0.194644
0.667369 0.0493019 0.196307
0.667597 0.0491798 0.197879
0.667796 0.0491188 0.198962
0.667918 0.0490578 0.199847
0.66804 0.0490272 0.200656
0.668193 0.049012 0.201373
0.668482 0.0490883 0.202228
0.668849 0.0492256 0.203082
0.669474 0.049485 0.204273
0.670085 0.0497597 0.205646
0.0354925 0.0490578 0.0473487
0.0354314 0.0492714 0.0477607
0.0343023 0.0477607 0.0446632
0.0338598 0.0461738 0.0432288
0.0377661 0.0433356 0.0410468
0.0438392 0.0416571 0.04065
0.0537118 0.0443427 0.0411231
0.0694438 0.045243 0.0415961
0.092546 0.0446479 0.0422827
0.122118 0.0425727 0.0436866
0.15877 0.0383612 0.0454414
0.204791 0.0348516 0.0518654
0.259785 0.0333257 0.0613565
0.320165 0.0306706 0.0688029
0.379461 0.028748 0.0787823
0.43621 0.0279393 0.0910201
0.488151 0.0286107 0.105989
0.542779 0.0288243 0.123308
0.600259 0.0318914 0.146975
0.646479 0.0411231 0.171984
0.66482 0.0492409 0.186191
0.665797 0.0497597 0.188769
0.666346 0.0496071 0.191104
0.666773 0.0495155 0.192889
0.667033 0.049424 0.19443
0.667231 0.0493477 0.195544
0.667399 0.0492866 0.196445
0.667552 0.0492561 0.197269
0.66772 0.0492561 0.197986
0.668025 0.0493172 0.19884
0.668391 0.0494392 0.199756
0.669047 0.0496986 0.201053
0.669657 0.0499886 0.20238
0.0387579 0.0615549 0.0537728
0.0386969 0.0618143 0.0542306
0.0370336 0.0601968 0.0508125
0.0353094 0.0582284 0.048188
0.0396277 0.0560922 0.0467079
0.0482032 0.0534676 0.0445106
0.0583963 0.0532998 0.0452735
0.0710918 0.0550088 0.045304
0.0927749 0.0544289 0.046067
0.119982 0.0513619 0.0462959
0.154482 0.0449989 0.0472877
0.199817 0.0383307 0.0514382
0.254292 0.0348058 0.0597391
0.316716 0.0313115 0.0679026
0.376913 0.0288396 0.0784009
0.433951 0.027985 0.0906844
0.486275 0.0286107 0.105669
0.541115 0.028748 0.122805
0.596948 0.0294652 0.143236
0.642527 0.0377356 0.166812
0.661753 0.0465095 0.180972
0.6636 0.048127 0.184192
0.6654 0.0497444 0.187396
0.665919 0.0497444 0.189212
0.6663 0.0496376 0.19086
0.66659 0.0495613 0.192142
0.666789 0.0495155 0.192981
0.666957 0.049485 0.193805
0.66714 0.049485 0.194507
0.667445 0.0495613 0.1953
0.667826 0.0496986 0.196078
0.668482 0.049958 0.197436
0.669123 0.0502327 0.198779
0.041062 0.0767224 0.0587167
0.041001 0.0771191 0.0592203
0.0391241 0.075288 0.0555428
0.0364843 0.0730297 0.0530404
0.0391089 0.0702068 0.0518196
0.0488136 0.0665599 0.0481422
0.0590372 0.0652171 0.0463111
0.0758984 0.065507 0.0478218
0.0955215 0.0665141 0.0483558
0.122835 0.0644694 0.0495003
0.158145 0.0579385 0.0504311
0.201266 0.0488136 0.0522164
0.251911 0.0385443 0.0579385
0.313436 0.0330816 0.0658732
0.374075 0.0293431 0.0775616
0.431846 0.027985 0.0903182
0.48452 0.0286717 0.105348
0.539803 0.0288243 0.122683
0.595712 0.0291142 0.142672
0.639933 0.0351568 0.164065
0.659251 0.0438239 0.177508
0.661662 0.0465705 0.180484
0.662531 0.0472267 0.182177
0.664393 0.0489052 0.185321
0.665446 0.0497444 0.187304
0.665843 0.0498207 0.18854
0.666087 0.0497749 0.189517
0.6663 0.0497444 0.190372
0.666484 0.0497292 0.191073
0.666743 0.0497749 0.191821
0.667033 0.0498512 0.192538
0.667475 0.0500191 0.193469
0.667918 0.0501869 0.194385
0.0425269 0.094316 0.0624247
0.0424048 0.0948196 0.0630655
0.0401617 0.09337 0.0589914
0.0365606 0.0917372 0.0564126
0.0375219 0.0896468 0.0560311
0.0469978 0.0866102 0.0538949
0.0580148 0.0834974 0.0507515
0.0753185 0.0829938 0.0488441
0.099794 0.0827192 0.0509346
0.125063 0.0835584 0.0519112
0.162493 0.0770886 0.0538949
0.208179 0.067628 0.054963
0.260487 0.0541238 0.0564889
0.315999 0.0383917 0.062562
0.371527 0.0315557 0.0746929
0.429618 0.0284733 0.0892653
0.482643 0.0286564 0.104814
0.538323 0.0289006 0.122347
0.594049 0.0290074 0.142138
0.638956 0.0348058 0.163607
0.657984 0.0422675 0.175952
0.658106 0.0424048 0.17612
0.659403 0.0438544 0.177783
0.661311 0.0460517 0.180056
0.662669 0.0475929 0.181827
0.663478 0.0482338 0.183383
0.664317 0.0489052 0.184955
0.664973 0.0493629 0.18613
0.665324 0.0496223 0.186831
0.665629 0.0498665 0.187411
0.66598 0.0500801 0.188113
0.666423 0.050309 0.1888
0.666865 0.0504768 0.189639
0.0433051 0.115267 0.0676738
0.0431525 0.115816 0.0686046
0.0405737 0.114626 0.0634928
0.0360876 0.113268 0.0595865
0.0353399 0.111727 0.0584421
0.0403906 0.109636 0.0568399
0.0546731 0.106371 0.0539712
0.0699168 0.104799 0.0519112
0.0977798 0.103944 0.0498054
0.129366 0.103517 0.0529793
0.163607 0.102678 0.0537881
0.216968 0.090013 0.0574655
0.270237 0.0766918 0.0589609
0.327779 0.0595102 0.0616007
0.381109 0.0394903 0.0677806
0.427985 0.0312657 0.0858167
0.480674 0.0298161 0.102998
0.535882 0.0288853 0.121477
0.591684 0.0288548 0.141314
0.637385 0.0342718 0.162829
0.65803 0.0422827 0.176043
0.65803 0.0422827 0.176043
0.65803 0.0422827 0.176043
0.658595 0.0429236 0.176776
0.659373 0.0437781 0.177752
0.66009 0.0446021 0.178698
0.660929 0.0455787 0.179675
0.661585 0.0463264 0.180438
0.662104 0.0469215 0.181048
0.662562 0.0474403 0.181582
0.662989 0.0478218 0.182208
0.663508 0.0481575 0.183093
0.664057 0.0484932 0.183978
0.0429694 0.140475 0.0737926
0.042771 0.141115 0.0749371
0.0404364 0.140185 0.0686198
0.0355383 0.139391 0.0633249
0.0334325 0.138247 0.0599069
0.0339055 0.136431 0.0592203
0.0429236 0.134218 0.056199
0.0618143 0.131243 0.053666
0.0862745 0.13022 0.0514382
0.126024 0.12842 0.0493782
0.167926 0.127718 0.0526894
0.214069 0.124392 0.0552834
0.282933 0.105425 0.0620127
0.341604 0.090074 0.0643473
0.397147 0.0693523 0.0686198
0.44509 0.0446021 0.0766003
0.487083 0.0361486 0.0970932
0.534569 0.0310521 0.118334
0.588525 0.0285954 0.138735
0.635569 0.0336156 0.161715
0.65803 0.0422827 0.176043
0.65803 0.0422827 0.176043
0.65803 0.0422827 0.176043
0.65803 0.0422827 0.176043
0.65803 0.0422827 0.176043
0.65803 0.0422827 0.176043
0.658289 0.0425879 0.176379
0.658717 0.0430457 0.176913
0.659007 0.0433509 0.177295
0.659358 0.0437018 0.177783
0.659754 0.0440375 0.178378
0.66041 0.0444953 0.17937
0.661082 0.0449683 0.180423
0.0402991 0.172076 0.0818494
0.0400549 0.173007 0.0832074
0.0378424 0.172168 0.0749981
0.0335546 0.17113 0.0679026
0.0296025 0.170214 0.0631418
0.029099 0.169268 0.0603342
0.0301518 0.167514 0.0588083
0.0419165 0.165423 0.0538186
0.0712444 0.162997 0.0509804
0.106416 0.162432 0.0489357
0.162112 0.158419 0.0467689
0.217533 0.157275 0.0506905
0.277501 0.151888 0.0570535
0.358099 0.128069 0.0678416
0.416983 0.111559 0.0723278
0.468193 0.0884718 0.07953
0.50901 0.058854 0.091371
0.550134 0.0417182 0.110964
0.593378 0.0323339 0.134722
0.636454 0.03299 0.158984
0.658656 0.0413977 0.175219
0.658076 0.0422065 0.175998
0.65803 0.0422827 0.176043
0.65803 0.0422827 0.176043
0.65803 0.0422827 0.176043
0.65803 0.0422827 0.176043
0.65803 0.0422827 0.176043
0.65803 0.0422827 0.176043
0.65803 0.0422827 0.176043
0.658122 0.0423285 0.176196
0.658289 0.0423896 0.176486
0.658671 0.0425574 0.177127
0.659098 0.0427253 0.177859
0.0319829 0.210224 0.0893873
0.0317235 0.211063 0.0908217
0.0302129 0.210254 0.0824445
0.0271458 0.209018 0.0737316
0.0234684 0.208057 0.0674144
0.0212406 0.207782 0.0615854
0.0209201 0.207095 0.0587778
0.0221561 0.205127 0.0564584
0.0368048 0.202136 0.0482795
0.081178 0.201328 0.0449378
0.129702 0.201297 0.0420996
0.207919 0.195789 0.0406348
0.280568 0.1953 0.0474403
0.348775 0.189624 0.0581826
0.435645 0.163317 0.076463
0.496788 0.145357 0.0858473
0.542962 0.121874 0.0961624
0.585306 0.0825971 0.110155
0.621897 0.0493172 0.125963
0.653788 0.0399939 0.153368
0.665599 0.0391394 0.169863
0.660777 0.0380713 0.171908
0.659617 0.0391699 0.173526
0.659144 0.0408789 0.174792
0.658351 0.041886 0.175677
0.658076 0.0422522 0.176013
0.65803 0.0422827 0.176043
0.65803 0.0422827 0.176043
0.65803 0.0422827 0.176043
0.658122 0.0423285 0.176196
0.658289 0.0423896 0.176486
0.658671 0.0425574 0.177127
0.659098 0.0427253 0.177859
0.0176242 0.253101 0.0940108
0.017319 0.254017 0.0955062
0.0159915 0.253376 0.0877241
0.0146487 0.252277 0.079057
0.0124971 0.251621 0.0720989
0.00946059 0.251408 0.0668803
0.00709545 0.251301 0.058793
0.00695811 0.250416 0.0553902
0.00894179 0.24802 0.0515602
0.0286564 0.24448 0.0372168
0.0925154 0.246586 0.0328069
0.157977 0.247105 0.0307317
0.265324 0.240757 0.0311894
0.350439 0.241108 0.0437781
0.419089 0.239872 0.0583047
0.512718 0.216434 0.0875105
0.579568 0.193988 0.107561
0.628046 0.168276 0.119371
0.671305 0.12076 0.131334
0.689326 0.0720684 0.149004
0.691096 0.053315 0.165194
0.683803 0.0469978 0.167742
0.676692 0.0433051 0.169131
0.668513 0.040116 0.169268
0.664973 0.0392004 0.170321
0.663432 0.0389105 0.170993
0.662531 0.0386969 0.171527
0.662013 0.0384375 0.171786
0.66157 0.0381933 0.171939
0.661295 0.0379644 0.172122
0.661189 0.037705 0.172244
0.661326 0.0374609 0.172503
0.662318 0.0375067 0.172839
0.000595102 0.298726 0.100084
0.000427253 0.299672 0.101625
0 0.298924 0.0938582
0 0.298329 0.0851453
0 0.297612 0.0771038
0 0.297383 0.071397
0 0.297765 0.0676585
0 0.297948 0.0586404
0 0.296956 0.0539101
0 0.294392 0.0471504
0.0205081 0.291463 0.0217441
0.105364 0.29604 0.0163729
0.193759 0.296803 0.0157473
0.327459 0.292454 0.020325
0.421866 0.294957 0.0426337
0.489204 0.301015 0.0603342
0.586633 0.284153 0.103807
0.665019 0.255833 0.136721
0.71931 0.228733 0.149462
0.758053 0.178424 0.163653
0.747417 0.121233 0.171008
0.723125 0.0855879 0.164157
0.711162 0.071519 0.164111
0.70338 0.0630503 0.16614
0.696452 0.0563058 0.166796
0.691722 0.0519417 0.167178
0.689311 0.0500496 0.167498
0.687755 0.049073 0.167819
0.686854 0.0485237 0.168032
0.686473 0.0483253 0.168078
0.686641 0.0484169 0.168093
0.688121 0.0495155 0.168215
0.693187 0.0546883 0.168643
0 0.3449 0.112383
0 0.345968 0.114488
0 0.345846 0.106828
0 0.34522 0.0983291
0 0.344656 0.0897688
0 0.344182 0.0820478
0 0.344091 0.0765087
0 0.344839 0.0736858
0 0.345373 0.0643015
0 0.34435 0.0584115
0 0.340993 0.047837
0.0205081 0.339055 0.00933852
0.128801 0.345724 0.00277714
0.238849 0.34786 0.00587472
0.390387 0.346746 0.0146487
0.495048 0.352743 0.0484169
0.560906 0.364538 0.0733806
0.660502 0.354894 0.127779
0.752834 0.326558 0.169589
0.811658 0.300572 0.186099
0.832792 0.262577 0.200244
0.822171 0.227085 0.199405
0.806088 0.201129 0.192905
0.792355 0.179843 0.188083
0.781003 0.160906 0.186511
0.770993 0.146944 0.182498
0.762554 0.135592 0.178927
0.75639 0.127382 0.17615
0.752346 0.121996 0.174182
0.750164 0.119127 0.172564
0.751064 0.120272 0.172229
0.75758 0.128618 0.175433
0.767102 0.14107 0.17998
0 0.394751 0.137224
0 0.396231 0.140078
0 0.39585 0.133013
0 0.395392 0.125032
0 0.394888 0.11664
0 0.394446 0.108141
0 0.394369 0.100114
0 0.394324 0.0929427
0 0.394934 0.089662
0 0.395697 0.0800488
0 0.394583 0.0736095
0 0.389944 0.0568399
0.0324559 0.390036 0.00590524
0.162539 0.398367 0
0.293126 0.401526 0.0052491
0.454002 0.403876 0.019913
0.566659 0.413733 0.0658274
0.633112 0.430564 0.0978103
0.734417 0.429587 0.153521
0.834638 0.405631 0.203113
0.883482 0.378836 0.226246
0.890181 0.358038 0.231266
0.882139 0.340993 0.226535
0.875868 0.327626 0.223484
0.869703 0.315526 0.220111
0.865339 0.306706 0.217945
0.862028 0.300435 0.21622
0.860334 0.297002 0.215473
0.859876 0.295995 0.21532
0.86096 0.29781 0.216022
0.862684 0.301137 0.216938
0.866468 0.307851 0.219272
0.871412 0.317266 0.222232
0 0.448798 0.17673
0 0.450172 0.179675
0 0.45005 0.173617
0 0.449851 0.166918
0 0.449577 0.15964
0 0.449622 0.152056
0 0.449241 0.143709
0 0.448905 0.135668
0 0.448508 0.12604
0 0.44889 0.118929
0 0.450446 0.110567
0 0.44947 0.105898
0 0.443503 0.0791943
0.0588388 0.445212 0.018677
0.209384 0.454734 0.00610361
0.354726 0.459068 0.0184634
0.520409 0.465309 0.0429389
0.636973 0.478035 0.0965744
0.705959 0.499184 0.133364
0.799298 0.506371 0.182315
0.893965 0.48896 0.234394
0.930037 0.466407 0.258518
0.929534 0.453101 0.257939
0.925689 0.442725 0.254932
0.922316 0.434836 0.252247
0.920058 0.429587 0.25037
0.918486 0.426093 0.249241
0.91812 0.424949 0.249012
0.918074 0.425681 0.248859
0.918379 0.427237 0.248951
0.919692 0.430961 0.249851
0.921538 0.436881 0.251164
0.924376 0.445396 0.253376
0 0.508034 0.230076
0 0.50959 0.233829
0 0.509621 0.228534
0 0.509667 0.222797
0 0.509972 0.217273
0 0.509819 0.210986
0 0.509697 0.204089
0 0.50959 0.196323
0 0.509331 0.186557
0 0.509102 0.173068
0 0.509682 0.160632
0 0.511406 0.153719
0 0.510063 0.149584
0 0.502937 0.110964
0.0981613 0.504891 0.0445411
0.272007 0.515999 0.0316625
0.423087 0.520775 0.0465705
0.586191 0.529152 0.0774853
0.705272 0.543999 0.134615
0.774502 0.56733 0.174578
0.851301 0.582269 0.212894
0.918593 0.57731 0.254124
0.938109 0.565942 0.26627
0.939178 0.556802 0.266453
0.939513 0.549371 0.26627
0.939986 0.544564 0.266361
0.939941 0.541787 0.266255
0.939941 0.53991 0.266194
0.939864 0.53991 0.266133
0.939712 0.541436 0.266087
0.939605 0.544732 0.266255
0.939162 0.550057 0.26627
0.938384 0.558236 0.266392
0.0201419 0.57261 0.292195
0.0209354 0.574273 0.295903
0.0202945 0.57467 0.292485
0.019852 0.575387 0.288655
0.0191653 0.575555 0.28423
0.0184787 0.575647 0.279072
0.0178225 0.575738 0.273915
0.0172122 0.575875 0.268513
0.0167849 0.576394 0.261341
0.0155489 0.576059 0.249439
0.0140688 0.575555 0.232715
0.011841 0.575525 0.213413
0.00933852 0.576486 0.203479
0.00860609 0.574014 0.198215
0.0187228 0.567529 0.147662
0.154757 0.570138 0.0772412
0.345373 0.580606 0.0700236
0.492134 0.584756 0.0846418
0.651865 0.595117 0.122362
0.769543 0.611231 0.182483
0.835782 0.634043 0.222827
0.892256 0.654002 0.255756
0.925429 0.656123 0.2757
0.927214 0.650065 0.274647
0.927581 0.644907 0.273167
0.927977 0.641962 0.272618
0.928237 0.639521 0.272038
0.928344 0.638163 0.271687
0.928542 0.638163 0.271763
0.92842 0.639277 0.271992
0.928283 0.641794 0.272679
0.927855 0.646281 0.273732
0.927443 0.65185 0.27541
0.0481727 0.638865 0.356527
0.0488441 0.640925 0.360296
0.048249 0.641489 0.358007
0.047776 0.641917 0.355184
0.0471504 0.642359 0.351812
0.0465248 0.642786 0.348424
0.046067 0.643305 0.3449
0.0456245 0.644175 0.341573
0.0447852 0.644404 0.336309
0.0435492 0.644343 0.328084
0.0415503 0.644251 0.315785
0.0387121 0.643732 0.296773
0.0350652 0.643671 0.271336
0.0327001 0.642649 0.256199
0.0333867 0.638117 0.249546
0.0614939 0.633112 0.188052
0.243091 0.635294 0.126711
0.419944 0.644892 0.126696
0.561364 0.649104 0.138674
0.714473 0.66154 0.182315
0.827588 0.677928 0.244343
0.885664 0.698039 0.282307
0.923598 0.717494 0.311376
0.932342 0.718196 0.314702
0.931975 0.715373 0.311986
0.931533 0.712673 0.309682
0.931212 0.710903 0.308202
0.93109 0.710201 0.307469
0.931182 0.710262 0.307576
0.931365 0.711467 0.308705
0.931685 0.713344 0.310155
0.932128 0.716304 0.312825
0.932738 0.720272 0.316365
0.0729992 0.700984 0.420829
0.0738231 0.702525 0.424338
0.0735943 0.703136 0.422827
0.0733654 0.703639 0.421042
0.0729686 0.704128 0.41886
0.0725872 0.704585 0.416861
0.0723583 0.705455 0.414893
0.0718547 0.705837 0.412207
0.0712902 0.706218 0.408835
0.0703746 0.706249 0.403372
0.0689403 0.705959 0.394781
0.0667735 0.705745 0.382101
0.0635233 0.70457 0.361776
0.0601358 0.703044 0.336812
0.0582132 0.700084 0.326436
0.0646677 0.692271 0.295384
0.129 0.689555 0.232013
0.341115 0.692409 0.195087
0.491569 0.703731 0.203906
0.62504 0.710018 0.213642
0.771984 0.725444 0.260975
0.876814 0.742016 0.321294
0.924865 0.759136 0.353826
0.946471 0.770733 0.370611
0.946395 0.768521 0.367727
0.945708 0.766339 0.365225
0.945342 0.764874 0.363348
0.945144 0.764172 0.362356
0.945296 0.764431 0.362585
0.94551 0.765072 0.363256
0.945922 0.76643 0.364706
0.946609 0.768627 0.366979
0.947524 0.771649 0.370352
0.0983139 0.750698 0.485313
0.0993515 0.752087 0.488716
0.0991684 0.752605 0.488014
0.0991226 0.753124 0.487236
0.0991836 0.754009 0.486778
0.0990311 0.754543 0.485634
0.098909 0.755047 0.484733
0.0987259 0.75552 0.48333
0.0982681 0.755795 0.480903
0.0974746 0.75581 0.477317
0.0964218 0.755795 0.471977
0.0942702 0.754894 0.462791
0.0911269 0.753338 0.448554
0.0872969 0.751049 0.426932
0.0844739 0.748425 0.410269
0.0843671 0.742397 0.38912
0.103609 0.73257 0.327428
0.233143 0.730282 0.284855
0.433387 0.74165 0.277821
0.56437 0.756497 0.293111
0.689357 0.765316 0.303944
0.823957 0.782727 0.351232
0.918151 0.798276 0.408759
0.954818 0.811246 0.432212
0.960388 0.812879 0.433158
0.959716 0.810773 0.429633
0.959335 0.809323 0.427115
0.959152 0.808911 0.426383
0.95906 0.808759 0.42623
0.959121 0.809277 0.426886
0.959472 0.810544 0.42884
0.959854 0.812512 0.431876
0.960662 0.815442 0.436866
0.124727 0.78793 0.547158
0.125795 0.788861 0.549645
0.12607 0.789349 0.549584
0.126299 0.789792 0.549355
0.126406 0.790127 0.548821
0.126513 0.790417 0.548074
0.126665 0.790722 0.547463
0.126757 0.790997 0.546563
0.126604 0.791135 0.544945
0.126452 0.791333 0.543038
0.125536 0.791028 0.538872
0.124117 0.790387 0.53286
0.121706 0.789181 0.523217
0.11841 0.78732 0.509178
0.114946 0.785214 0.493172
0.111833 0.781674 0.482231
0.11284 0.769268 0.423346
0.175448 0.761624 0.361044
0.349142 0.765133 0.351705
0.531762 0.78909 0.373617
0.655818 0.807843 0.397635
0.763531 0.817868 0.407614
0.870436 0.833509 0.445289
0.945266 0.846586 0.49247
0.968078 0.852705 0.50721
0.968383 0.851148 0.503502
0.968124 0.84979 0.500648
0.968124 0.84889 0.499107
0.968185 0.848615 0.49865
0.96849 0.849104 0.499428
0.968841 0.850156 0.501289
0.969406 0.851942 0.504921
0.969924 0.854566 0.509621
0.142763 0.804669 0.57995
0.143114 0.804913 0.580972
0.142794 0.804807 0.580224
0.142412 0.804685 0.579049
0.141985 0.804501 0.577676
0.141573 0.804318 0.576394
0.141131 0.804074 0.574884
0.140642 0.803769 0.573327
0.140017 0.803388 0.571038
0.139101 0.802869 0.567834
0.137774 0.802136 0.563516
0.135988 0.80116 0.557427
0.133486 0.799786 0.548486
0.130236 0.797925 0.536065
0.125994 0.795605 0.519173
0.124529 0.794598 0.514275
0.122133 0.791791 0.49427
0.156527 0.783123 0.433173
0.290059 0.775097 0.405737
0.460456 0.798627 0.433188
0.644053 0.833204 0.481178
0.7561 0.853574 0.509453
0.839017 0.866514 0.523781
0.912108 0.878981 0.54995
0.960021 0.888731 0.584527
0.965209 0.888182 0.58352
0.965454 0.886519 0.579171
0.965408 0.885344 0.576394
0.965576 0.884962 0.57525
0.965499 0.885084 0.575387
0.965209 0.886061 0.577447
0.96495 0.88751 0.580011
0.965042 0.889738 0.586038
0.144076 0.805463 0.5841
0.144411 0.805661 0.585214
0.144015 0.805508 0.584039
0.143603 0.805356 0.582757
0.143175 0.805188 0.58146
0.142718 0.804929 0.580148
0.142214 0.804669 0.578515
0.141711 0.804395 0.576822
0.14107 0.804044 0.57467
0.140185 0.803479 0.571618
0.138888 0.802762 0.567117
0.137011 0.801724 0.5608
0.134478 0.800336 0.551949
0.131273 0.798566 0.540261
0.127077 0.796216 0.523491
0.125093 0.795117 0.515358
0.124666 0.795254 0.508675
0.147509 0.78912 0.459998
0.258488 0.776089 0.412055
0.412757 0.795239 0.448234
0.600137 0.831968 0.501427
0.755749 0.868223 0.565286
0.833936 0.884443 0.593408
0.893935 0.897765 0.614084
0.94551 0.913832 0.653452
0.963638 0.920577 0.674372
0.964553 0.920287 0.673274
0.964752 0.920089 0.672129
0.964874 0.920378 0.672541
0.965011 0.921248 0.674388
0.964996 0.922103 0.676585
0.964935 0.922377 0.677226
0.964797 0.922286 0.67718
0.145129 0.806134 0.587594
0.145449 0.806348 0.588449
0.144961 0.806073 0.587167
0.144564 0.80589 0.585901
0.144121 0.805692 0.584543
0.143648 0.805463 0.583032
0.14316 0.805219 0.581476
0.142611 0.804898 0.579858
0.141878 0.804486 0.577417
0.141009 0.804013 0.574456
0.139712 0.803204 0.569924
0.137865 0.802182 0.563836
0.135332 0.800793 0.555047
0.131991 0.798962 0.543114
0.127871 0.796613 0.526696
0.125124 0.795132 0.51548
0.125322 0.795117 0.511742
0.139422 0.790646 0.468528
0.226032 0.778225 0.412955
0.390478 0.791562 0.444038
0.572106 0.826719 0.494148
0.734829 0.864286 0.560098
0.827268 0.885008 0.599359
0.882628 0.896742 0.616449
0.933547 0.912139 0.650401
0.960952 0.924132 0.685481
0.964263 0.925673 0.690211
0.964263 0.925689 0.690181
0.964218 0.92575 0.690379
0.964157 0.925872 0.690715
0.964126 0.925917 0.690837
0.964111 0.925948 0.690883
0.964111 0.925948 0.690898
0.146044 0.806775 0.590478
0.146288 0.806897 0.591241
0.14583 0.806653 0.589822
0.145312 0.806363 0.58819
0.144823 0.806073 0.58677
0.144381 0.805859 0.585412
0.143862 0.805585 0.583749
0.143328 0.805295 0.58201
0.142596 0.804883 0.579782
0.141619 0.804334 0.576501
0.140337 0.803586 0.572198
0.138537 0.802548 0.56611
0.135973 0.801144 0.557336
0.132616 0.799313 0.545235
0.128466 0.796963 0.52903
0.125093 0.795117 0.515343
0.125399 0.794995 0.513207
0.13521 0.791623 0.474159
0.21146 0.780255 0.417014
0.37641 0.789227 0.44097
0.555047 0.823178 0.488884
0.721233 0.861036 0.553933
0.819211 0.883406 0.596872
0.873289 0.894301 0.612329
