luts/phantom/Utopia V-Log Legacy.cube
TITLE "Generated by Resolve"
LUT_3D_SIZE 5
0.0141146 0.0405585 0.0500801
0.108614 0.0397345 0.0471199
0.478874 0.0217746 0.0745861
0.663844 0.0295415 0.152193
0.669657 0.0287633 0.15964
0.00613413 0.118944 0.0537728
0.0799268 0.103258 0.0479744
0.460777 0.0174258 0.0540932
0.654627 0.0234226 0.117266
0.65716 0.0245518 0.119478
0 0.571298 0.185122
0.00363165 0.57467 0.118807
0.535378 0.512154 0.0906691
0.918898 0.415183 0.21799
0.910079 0.385946 0.206714
0.111833 0.964752 0.654307
0.108385 0.967865 0.641459
0.121691 0.982788 0.57406
0.973419 0.952392 0.631174
0.996307 0.93901 0.623362
0.10573 0.963775 0.666041
0.109972 0.96527 0.653422
0.116945 0.978454 0.587243
0.930617 0.965637 0.675578
0.994079 0.967956 0.721111
0 0.0491646 0.102617
0.114046 0.0456855 0.111376
0.499825 0.0286107 0.131106
0.693523 0.0334478 0.198291
0.702403 0.0339666 0.207309
0.00846876 0.107454 0.114015
0.0620432 0.0955062 0.105104
0.475624 0.025803 0.0943008
0.66775 0.0292668 0.159426
0.674113 0.029221 0.165621
0 0.554757 0.250355
0 0.558831 0.186786
0.530114 0.507073 0.0881361
0.91577 0.405829 0.214466
0.906996 0.374838 0.203067
0.110094 0.962768 0.667063
0.107546 0.965362 0.655329
0.116381 0.97908 0.584466
0.970382 0.949279 0.620111
0.996201 0.933806 0.610773
0.105257 0.961639 0.678828
0.10985 0.962829 0.667018
0.116426 0.977752 0.589227
0.925246 0.966003 0.675868
0.993957 0.968002 0.721172
0 0.0944686 0.391012
0.0162661 0.0733043 0.431037
0.525856 0.0693675 0.395727
0.773144 0.0801709 0.417639
0.77882 0.0797589 0.428153
0 0.118639 0.372061
0 0.0935225 0.39794
0.512062 0.066041 0.384405
0.768002 0.0773785 0.395163
0.773175 0.0766308 0.403677
0 0.508034 0.478157
0 0.502235 0.472587
0.485618 0.504936 0.496468
0.913878 0.390082 0.433875
0.905821 0.354376 0.427359
0.108202 0.952316 0.729854
0.103792 0.954406 0.722591
0.106828 0.962966 0.664134
0.959762 0.942412 0.685939
0.99147 0.930343 0.686976
0.105241 0.951553 0.74345
0.103593 0.953185 0.735027
0.110002 0.961273 0.675792
0.926513 0.973648 0.776181
0.993851 0.97644 0.820142
0 0.284611 0.683207
0 0.292363 0.691203
0.37557 0.300435 0.851209
0.865309 0.365499 0.864057
0.86453 0.381659 0.877562
0 0.276951 0.673701
0 0.283482 0.68278
0.324742 0.302281 0.847395
0.865049 0.355276 0.854185
0.864393 0.368261 0.867185
0 0.505058 0.701869
0 0.498695 0.708873
0.144869 0.521431 0.817151
0.902266 0.436347 0.834516
0.892775 0.411383 0.825803
0.100191 0.917067 0.876127
0.0894789 0.915221 0.87483
0.0798505 0.894942 0.855299
0.92372 0.92253 0.91635
0.974823 0.915404 0.910826
0.110445 0.931411 0.906493
0.0999619 0.934142 0.904326
0.104875 0.936584 0.868971
0.890242 0.984375 0.942962
0.994949 0.986862 0.985214
0 0.328725 0.71046
0 0.347982 0.727642
0.326436 0.390204 0.899458
0.863981 0.392432 0.883741
0.863737 0.392386 0.884184
0 0.332723 0.710292
0 0.328862 0.71133
0.273014 0.391363 0.887037
0.864469 0.392523 0.882963
0.863523 0.392355 0.88455
0 0.556359 0.793164
0 0.547829 0.791684
0.00262455 0.549828 0.822766
0.896391 0.489067 0.911131
0.889387 0.47274 0.906767
0.0555734 0.904204 0.926909
0.0426184 0.900847 0.92813
0.019852 0.869123 0.919768
0.853559 0.909163 0.964202
0.969818 0.907958 0.965942
0.0859846 0.931105 0.93611
0.0777142 0.932876 0.938994
0.0777142 0.932876 0.938994
0.750393 0.976257 0.976104
0.992279 0.988754 0.987381
