luts/phantom/Utopia V-Log Legacy.cube
TITLE "Generated by Resolve"
LUT_3D_SIZE 33
0.0141146 0.0405585 0.0500801
0.0141146 0.040528 0.0500496
0.0140993 0.0404822 0.0500038
0.0252995 0.0413367 0.0502174
0.0387579 0.0417945 0.0517891
0.0555428 0.0418555 0.0507057
0.0713817 0.0419165 0.0498207
0.0878157 0.0412146 0.0484779
0.108614 0.0397345 0.0471199
0.134157 0.0367132 0.0454719
0.167193 0.0348363 0.0462654
0.207996 0.0332647 0.0490425
0.258183 0.0296788 0.049897
0.315419 0.0258335 0.0502327
0.373724 0.0228428 0.0548562
0.428016 0.0207675 0.0625315
0.478874 0.0217746 0.0745861
0.526421 0.024979 0.090135
0.576089 0.0279393 0.107652
0.629587 0.0297704 0.127626
0.657847 0.0302892 0.140841
0.663111 0.0299535 0.145495
0.663462 0.0298009 0.147936
0.663691 0.0296635 0.15021
0.663844 0.0295415 0.152193
0.663966 0.0294652 0.153567
0.664042 0.0293889 0.154757
0.664454 0.0293584 0.155978
0.665141 0.0293889 0.157092
0.666178 0.0293584 0.158007
0.667124 0.0292821 0.158755
0.668406 0.0290227 0.159335
0.669657 0.0287633 0.15964
0.0140993 0.0404822 0.0500038
0.0140993 0.0404974 0.0500343
0.0140993 0.0404822 0.0500038
0.0207828 0.0409247 0.0499428
0.0331731 0.0416114 0.0510262
0.0504158 0.0417182 0.0513619
0.0654612 0.0419928 0.0502327
0.0831922 0.0416724 0.0490578
0.103914 0.0402686 0.0474403
0.130114 0.0373083 0.0458381
0.162814 0.0347906 0.0456855
0.203235 0.0322576 0.0465248
0.253147 0.0291295 0.0472267
0.309682 0.0242008 0.045304
0.367224 0.0202792 0.0475166
0.422507 0.0183871 0.0546883
0.474067 0.0183566 0.0666056
0.522271 0.0210269 0.0819715
0.571893 0.0237278 0.0995193
0.627146 0.0289158 0.122576
0.656809 0.0306554 0.137224
0.66247 0.0302129 0.141741
0.662898 0.0300298 0.144335
0.663249 0.0299077 0.146212
0.663493 0.0297856 0.148226
0.663661 0.0296788 0.149889
0.663767 0.0296025 0.151217
0.66392 0.0295262 0.15227
0.664118 0.0294499 0.152972
0.664515 0.0293126 0.153643
0.664958 0.0291752 0.154147
0.665766 0.0289158 0.15462
0.666697 0.0286412 0.155077
0.0140993 0.0404822 0.0500038
0.0141146 0.040528 0.0500496
0.0141146 0.040528 0.0500496
0.0140993 0.0404822 0.0500038
0.0265965 0.042771 0.0504005
0.0407568 0.043534 0.052018
0.0574807 0.043534 0.0510567
0.0764324 0.0433661 0.0499123
0.098436 0.0413519 0.0479896
0.125689 0.0381476 0.0464485
0.158587 0.0349432 0.0454261
0.199344 0.0323796 0.0462959
0.249256 0.0294499 0.0473335
0.306523 0.0244907 0.0453956
0.364157 0.019913 0.046067
0.418936 0.0168154 0.0499123
0.469398 0.0158846 0.0590677
0.518486 0.0176547 0.0741588
0.567803 0.01944 0.0912337
0.624109 0.0278019 0.116777
0.65565 0.0309606 0.132998
0.661646 0.0304723 0.137865
0.662181 0.0303197 0.140215
0.662608 0.0301671 0.142565
0.662928 0.0300145 0.144533
0.663172 0.0299229 0.145785
0.663371 0.0298466 0.147112
0.663554 0.0297704 0.148226
0.663752 0.0296788 0.149081
0.664164 0.0295415 0.149813
0.664683 0.0293736 0.150393
0.665446 0.0291295 0.150958
0.666407 0.0288396 0.151354
0.0140993 0.0404822 0.0500038
0.0141146 0.040528 0.0500496
0.0141146 0.040528 0.0500496
0.0140993 0.0404822 0.0500038
0.0218051 0.0429694 0.0505379
0.0321355 0.0456092 0.0511788
0.0471199 0.0461585 0.0525978
0.0664683 0.0463417 0.0514839
0.0892042 0.0445106 0.0496681
0.117144 0.0410468 0.0477455
0.152728 0.0363622 0.0456092
0.194842 0.0328679 0.046128
0.245823 0.0296635 0.0472877
0.303655 0.0248875 0.0456245
0.361959 0.0200961 0.0460212
0.417151 0.0168612 0.049546
0.467552 0.0154879 0.0573129
0.514244 0.0148623 0.0674449
0.564874 0.0159609 0.0834974
0.619669 0.022797 0.107881
0.653574 0.0293889 0.127504
0.660792 0.0307164 0.133654
0.661372 0.0305791 0.136324
0.661814 0.030457 0.138384
0.662211 0.0303197 0.140291
0.662516 0.0301976 0.141985
0.662745 0.0301061 0.143374
0.662974 0.0300145 0.144442
0.663233 0.0299382 0.145159
0.663691 0.0298009 0.145663
0.66424 0.029633 0.146151
0.665125 0.0293736 0.1467
0.66601 0.029099 0.147189
0.0156558 0.0525978 0.0559243
0.0149691 0.0515145 0.054139
0.015671 0.0501411 0.0537575
0.0187991 0.048249 0.0526131
0.0220188 0.0466621 0.0522011
0.0291447 0.0490578 0.0532692
0.038529 0.0495308 0.0526436
0.0561379 0.0484627 0.0526589
0.0796826 0.0474708 0.051133
0.108431 0.0443275 0.0491493
0.144869 0.0399176 0.0470741
0.188815 0.0350347 0.0459754
0.241169 0.0308232 0.0470436
0.300908 0.0253452 0.0457313
0.359701 0.0202487 0.0459449
0.415351 0.0169528 0.0494087
0.466102 0.0154726 0.0569924
0.513024 0.014725 0.0667887
0.563195 0.0143282 0.0801099
0.614389 0.0166018 0.0981003
0.650294 0.0261845 0.120195
0.659739 0.0306706 0.129335
0.660334 0.0308537 0.131914
0.660945 0.0306706 0.134279
0.661372 0.0305638 0.136309
0.661677 0.0304723 0.137896
0.661952 0.0304112 0.138994
0.662226 0.0303044 0.140093
0.662501 0.0302281 0.141009
0.662989 0.0300755 0.141711
0.663569 0.0298924 0.14226
0.66453 0.0296178 0.142763
0.6654 0.0293584 0.143206
0.0149081 0.0636454 0.0600137
0.0135958 0.0624857 0.0567483
0.0140536 0.0611582 0.0567788
0.018967 0.0590982 0.0556497
0.0244755 0.056672 0.0546883
0.03122 0.0568093 0.0548867
0.0399481 0.0576181 0.055314
0.0577554 0.0570077 0.0560006
0.0783551 0.0552682 0.0540322
0.10518 0.0513466 0.0519722
0.138659 0.0447242 0.0487984
0.182483 0.0373388 0.0456703
0.236118 0.032578 0.0461585
0.297383 0.0265354 0.0449683
0.357458 0.0205386 0.0457618
0.413748 0.0169985 0.0491951
0.464942 0.0154574 0.056733
0.512215 0.0147555 0.0666514
0.562234 0.0142061 0.0794995
0.612177 0.0149081 0.0953689
0.64744 0.0222477 0.11371
0.656153 0.0263523 0.121401
0.658915 0.0299687 0.126986
0.659892 0.03093 0.129931
0.660334 0.030869 0.131884
0.660792 0.0307317 0.133562
0.661128 0.0306401 0.134981
0.661402 0.0305638 0.136126
0.661662 0.0304723 0.137011
0.66215 0.0303502 0.137606
0.66273 0.0301823 0.138048
0.663706 0.0299077 0.138491
0.664714 0.0296178 0.138842
0.0127565 0.0783093 0.0594492
0.0103456 0.0768597 0.0565805
0.0107881 0.0748302 0.0567178
0.0141604 0.072282 0.0565652
0.0225528 0.0688792 0.0550088
0.0284428 0.0674144 0.0543069
0.0409552 0.0670939 0.0539559
0.0586404 0.0674754 0.0545357
0.0808728 0.0661173 0.0574197
0.108629 0.0622721 0.0563058
0.141955 0.0557717 0.0525368
0.184085 0.0464179 0.048249
0.232822 0.035462 0.0451972
0.293568 0.0280308 0.0436255
0.354925 0.021561 0.0447852
0.412161 0.0171664 0.0489357
0.463523 0.0155184 0.0565499
0.511238 0.014847 0.0666209
0.561196 0.0142672 0.0793469
0.611261 0.0145571 0.0947127
0.647242 0.021622 0.112947
0.654414 0.0237736 0.117617
0.65478 0.0243229 0.118441
0.656626 0.0266423 0.122087
0.6589 0.0296635 0.126665
0.6598 0.0308385 0.129274
0.660105 0.0309148 0.130617
0.66041 0.0308385 0.13164
0.660761 0.0307317 0.132464
0.661189 0.0306096 0.133181
0.661662 0.0304723 0.133715
0.662348 0.0302892 0.134142
0.663035 0.0301061 0.134478
0.00973526 0.0965896 0.0569314
0.00631724 0.0952773 0.0531624
0.00642405 0.0937667 0.0530556
0.00767529 0.0919203 0.0537575
0.0171206 0.0889906 0.0529335
0.0252995 0.0847028 0.051545
0.0343023 0.0854505 0.0500954
0.057847 0.0836347 0.0494087
0.0826734 0.0820478 0.0569772
0.108965 0.0812543 0.0578317
0.149294 0.0713054 0.0576791
0.190311 0.0628214 0.0526894
0.241047 0.0494698 0.0464027
0.297124 0.032639 0.0400702
0.352743 0.023682 0.042649
0.41033 0.0182956 0.0477913
0.461967 0.0157168 0.0560159
0.510048 0.0149691 0.0664683
0.559777 0.0143282 0.0790723
0.610239 0.0143435 0.0942855
0.64744 0.0215305 0.112932
0.654429 0.0232853 0.117021
0.654429 0.023331 0.117067
0.654658 0.0236362 0.117556
0.654978 0.0241245 0.118242
0.655528 0.0248722 0.119356
0.656641 0.0262608 0.121508
0.657938 0.0278172 0.12398
0.658839 0.0290379 0.125887
0.659602 0.0299687 0.127398
0.660151 0.0305638 0.128466
0.660822 0.0306401 0.12903
0.661509 0.030518 0.12929
0.00613413 0.118944 0.0537728
0.00238041 0.11783 0.0491035
0.00166323 0.116365 0.0470893
0.00221256 0.114931 0.0477455
0.00732433 0.113237 0.0471809
0.0181888 0.110109 0.0459297
0.0297551 0.107103 0.0454261
0.0466926 0.106462 0.0443427
0.0799268 0.103258 0.0479744
0.111727 0.101259 0.0572519
0.146471 0.0986801 0.0574807
0.202457 0.0818494 0.0583352
0.251682 0.069398 0.0521096
0.308919 0.0520333 0.0444953
0.363363 0.0320439 0.0370031
0.410971 0.0218051 0.0440833
0.460777 0.0174258 0.0540932
0.508339 0.0153658 0.0657969
0.55787 0.0143587 0.0784466
0.608087 0.0137942 0.0931106
0.647349 0.0215 0.112902
0.654505 0.0232548 0.117006
0.654505 0.0232548 0.117006
0.654505 0.0232548 0.117006
0.654627 0.0234226 0.117266
0.654795 0.0236667 0.117617
0.654932 0.0238499 0.117906
0.65507 0.0240482 0.118212
0.655192 0.0242313 0.118456
0.655436 0.0243381 0.118685
0.655772 0.0243992 0.118868
0.656474 0.0244297 0.119112
0.65716 0.0245518 0.119478
0.00296025 0.147173 0.0517433
0 0.146334 0.0457008
0 0.145418 0.0405432
0 0.143999 0.0401465
0 0.142351 0.040238
0.00682078 0.140536 0.0374456
0.0185397 0.136995 0.0373083
0.0379797 0.134524 0.0382696
0.0637064 0.132708 0.0393683
0.106996 0.127275 0.0473945
0.149416 0.124529 0.0554971
0.19675 0.118929 0.0577096
0.265736 0.0959945 0.0590066
0.32314 0.0798352 0.0525521
0.377752 0.059617 0.0440528
0.427558 0.0366674 0.0388342
0.469139 0.0249332 0.0476387
0.509026 0.018616 0.0621347
0.555764 0.0148775 0.0755169
0.605158 0.0130312 0.0908522
0.647242 0.0213626 0.112703
0.654505 0.0232548 0.117006
0.654505 0.0232548 0.117006
0.654505 0.0232548 0.117006
0.654505 0.0232548 0.117006
0.654505 0.0232548 0.117006
0.654505 0.0232548 0.117006
0.654582 0.0233463 0.117159
0.654673 0.0234836 0.117357
0.654871 0.0235447 0.117494
0.655192 0.0235447 0.117632
0.655818 0.0234531 0.117723
0.656382 0.0233463 0.117861
0 0.184222 0.0510262
0 0.18349 0.0421912
0 0.182422 0.0376287
0 0.182315 0.0324407
0 0.180697 0.0324407
0 0.179004 0.0324102
0.00234989 0.177172 0.0273136
0.0175326 0.173098 0.026978
0.0504311 0.170336 0.0299535
0.0850385 0.167452 0.0347601
0.142443 0.159335 0.0468452
0.198734 0.154696 0.0538949
0.259129 0.146014 0.0589914
0.339086 0.117098 0.0618296
0.397787 0.0987106 0.0573892
0.44802 0.0779583 0.0514382
0.489738 0.0510414 0.047837
0.527123 0.032517 0.0545968
0.565255 0.021561 0.0703288
0.608896 0.0146181 0.0869306
0.651209 0.0191806 0.109148
0.655879 0.0224155 0.115923
0.654932 0.0229648 0.116655
0.654734 0.0231022 0.116808
0.654643 0.0231785 0.11693
0.654536 0.0232395 0.116991
0.654505 0.0232548 0.117006
0.654505 0.0232548 0.117006
0.654505 0.0232548 0.117006
0.654643 0.0232242 0.117021
0.654902 0.0231479 0.117021
0.655497 0.0229953 0.117037
0.656062 0.0228428 0.117082
0 0.231205 0.0530556
0 0.230472 0.0433204
0 0.229313 0.0363775
0 0.229389 0.0312047
0 0.229328 0.0248112
0 0.22797 0.0244297
0 0.226383 0.0242313
0 0.223377 0.0164797
0.0166781 0.219135 0.0155642
0.0655985 0.217533 0.0208286
0.111666 0.212268 0.0292973
0.188113 0.200763 0.0457313
0.259953 0.194369 0.0528267
0.329885 0.184466 0.0603952
0.414481 0.152087 0.0696422
0.474403 0.132006 0.0697642
0.519081 0.112566 0.0683146
0.557427 0.0814984 0.0656443
0.596674 0.0453956 0.062089
0.639445 0.0272831 0.078645
0.674311 0.0197757 0.0989548
0.669657 0.0179141 0.106081
0.66389 0.0172885 0.108354
0.661097 0.018967 0.111208
0.65893 0.0208743 0.113817
0.656641 0.0221714 0.115526
0.655589 0.0227817 0.116228
0.655253 0.0229191 0.116426
0.655238 0.0228885 0.116426
0.65536 0.0228122 0.116426
0.655619 0.0227207 0.116426
0.656077 0.0225528 0.116472
0.656764 0.0223392 0.116472
0 0.288808 0.0558633
0 0.288228 0.0468757
0 0.287358 0.0387427
0 0.287083 0.0346227
0 0.287816 0.0288243
0 0.288289 0.0199435
0 0.286931 0.0191196
0 0.285191 0.0187381
0 0.280842 0.00727855
0.0188754 0.277485 0.00292973
0.0852216 0.276173 0.0116426
0.14963 0.268132 0.0260624
0.246235 0.252598 0.0449989
0.330434 0.2448 0.0532692
0.401343 0.238727 0.0637217
0.487617 0.208591 0.0813764
0.551736 0.182605 0.0912337
0.594141 0.16405 0.0944839
0.636606 0.133135 0.0926833
0.68249 0.0768749 0.0805524
0.720775 0.038819 0.0898604
0.720104 0.026215 0.0953231
0.708339 0.0228122 0.097612
0.695445 0.0211643 0.100908
0.681712 0.0191653 0.102739
0.674556 0.0181888 0.103761
0.671901 0.0180362 0.104967
0.670222 0.0178225 0.10576
0.669078 0.0176547 0.106386
0.66836 0.0175174 0.106859
0.667964 0.0173342 0.10721
0.668147 0.0170596 0.107454
0.668635 0.0167391 0.107546
0 0.354559 0.0650492
0 0.354101 0.0562905
0 0.353475 0.047715
0 0.353094 0.0403296
0 0.35378 0.0375067
0 0.354788 0.0330053
0 0.355703 0.0251316
0 0.355001 0.0207218
0 0.352956 0.0195315
0 0.348104 0.00419623
0.0273747 0.3467 0
0.11429 0.344701 0.00486763
0.199603 0.33254 0.0263523
0.315328 0.31429 0.0459449
0.403281 0.306432 0.0570687
0.471183 0.305867 0.069688
0.557275 0.283726 0.0977951
0.628733 0.249928 0.121889
0.674754 0.230488 0.128588
0.730205 0.196307 0.126574
0.777966 0.137865 0.113725
0.779919 0.0821698 0.0953994
0.766125 0.056611 0.0885176
0.755489 0.0459754 0.0906233
0.746456 0.0393225 0.0931868
0.738415 0.0340581 0.094728
0.73138 0.0299229 0.0952468
0.726345 0.0277409 0.095613
0.722744 0.0267796 0.0962387
0.720287 0.026566 0.0971084
0.718257 0.0261692 0.0973373
0.717342 0.0256657 0.0972152
0.717311 0.0251621 0.0969863
0 0.42385 0.0867018
0 0.423636 0.0779583
0 0.423423 0.0690929
0 0.423301 0.0608988
0 0.423362 0.0537118
0 0.423926 0.0500038
0 0.425101 0.0479286
0 0.426413 0.0405585
0 0.426566 0.0321965
0 0.42414 0.0301366
0 0.418875 0.0104829
0.0464027 0.419379 0
0.159884 0.415732 0.00650034
0.264057 0.398825 0.0367437
0.388174 0.378973 0.0515297
0.477729 0.372137 0.066331
0.542428 0.376028 0.0831159
0.623667 0.363531 0.119265
0.705028 0.326665 0.153948
0.766155 0.302876 0.162585
0.82298 0.270085 0.1617
0.849592 0.231052 0.153323
0.844114 0.206241 0.144274
0.834257 0.184787 0.135378
0.825177 0.165347 0.127108
0.817899 0.147753 0.122606
0.810666 0.133211 0.116747
0.804562 0.121111 0.111864
0.799786 0.111223 0.107866
0.795789 0.103716 0.10486
0.792676 0.0980087 0.102449
0.791455 0.0940871 0.10071
0.79147 0.0908064 0.0990921
0 0.497078 0.126009
0 0.497124 0.117678
0 0.497154 0.108904
0 0.4972 0.0998398
0 0.497292 0.0913863
0 0.497551 0.08336
0 0.498009 0.0770733
0 0.499123 0.0739605
0 0.500877 0.0681926
0 0.501778 0.0576791
0 0.498741 0.0541848
0.000671397 0.493004 0.0271458
0.0813001 0.495674 0
0.224353 0.487785 0.0202335
0.340673 0.466194 0.0570535
0.462165 0.445212 0.0648203
0.550973 0.439475 0.0843214
0.611887 0.445777 0.106569
0.689158 0.442176 0.144274
0.77879 0.410834 0.182528
0.848524 0.376318 0.195178
0.892363 0.348592 0.194491
0.892424 0.331563 0.189319
0.887877 0.317876 0.184939
0.88333 0.305699 0.180652
0.879484 0.295216 0.177203
0.876417 0.286641 0.174289
0.873655 0.279591 0.17174
0.871519 0.273899 0.169726
0.870024 0.269444 0.168246
0.868833 0.266178 0.167117
0.868269 0.263722 0.166003
0.868437 0.261891 0.164996
0 0.571298 0.185122
0 0.571618 0.177691
0 0.57203 0.169726
0 0.572442 0.161486
0 0.572763 0.15285
0 0.573053 0.144213
0.000289921 0.573373 0.136141
0.00218204 0.5738 0.126894
0.00363165 0.57467 0.118807
0.00389105 0.576608 0.115526
0.00584421 0.5776 0.104555
0.00570687 0.574075 0.0995499
0.0216678 0.567987 0.0594797
0.140658 0.57258 0.0209049
0.307439 0.559213 0.0513466
0.420951 0.533196 0.086183
0.535378 0.512154 0.0906691
0.620523 0.506889 0.115663
0.680064 0.51426 0.140612
0.753582 0.517266 0.174594
0.841215 0.495171 0.207462
0.910079 0.457527 0.225238
0.923812 0.436912 0.225101
0.921782 0.424369 0.221225
0.918898 0.415183 0.21799
0.916411 0.407752 0.215366
0.914504 0.401694 0.212879
0.913069 0.396994 0.211292
0.911849 0.39324 0.209934
0.911131 0.390555 0.209171
0.91046 0.388464 0.20853
0.909987 0.386938 0.207614
0.910079 0.385946 0.206714
0.00996414 0.644251 0.259953
0.0108644 0.644846 0.253422
0.0118563 0.645502 0.246937
0.013138 0.64625 0.239658
0.0144503 0.646937 0.232151
0.0159152 0.647608 0.22417
0.0175631 0.64831 0.215656
0.0196078 0.649058 0.205264
0.0220798 0.649989 0.192218
0.0246128 0.65127 0.177813
0.0246586 0.65359 0.171786
0.0252384 0.6542 0.164263
0.0256046 0.650538 0.156878
0.053254 0.644343 0.0954147
0.22855 0.647776 0.0637675
0.401236 0.627695 0.098085
0.501183 0.6 0.123751
0.606165 0.578347 0.12813
0.687861 0.573114 0.152224
0.745998 0.58024 0.178866
0.814984 0.587152 0.203326
0.887037 0.575067 0.231632
0.92781 0.554818 0.244984
0.932494 0.542687 0.244984
0.932845 0.532677 0.243748
0.933089 0.524269 0.242527
0.93286 0.517327 0.241306
0.932967 0.512047 0.240833
0.932891 0.507622 0.240375
0.93254 0.504707 0.239734
0.932784 0.502739 0.239643
0.932921 0.501427 0.239231
0.932876 0.500542 0.238437
0.0355077 0.716442 0.338933
0.0357366 0.71696 0.334264
0.0361944 0.717647 0.328603
0.0367742 0.718288 0.323125
0.0375372 0.719051 0.316991
0.0385138 0.71986 0.310643
0.0396277 0.720684 0.304006
0.0412299 0.721736 0.295201
0.0436408 0.723156 0.282567
0.0469978 0.72491 0.26537
0.0506447 0.726848 0.245304
0.0520485 0.729274 0.231373
0.050309 0.728161 0.22858
0.054551 0.723873 0.213031
0.103166 0.721736 0.12987
0.337316 0.720272 0.118685
0.489616 0.695064 0.152316
0.577722 0.665568 0.168124
0.673838 0.643549 0.171695
0.751675 0.637385 0.194537
0.80798 0.643626 0.219577
0.865263 0.652811 0.239582
0.918196 0.649744 0.260975
0.927062 0.641932 0.262654
0.927749 0.635081 0.261265
0.927947 0.629145 0.25977
0.928359 0.624491 0.258793
0.928496 0.62063 0.257939
0.928588 0.617441 0.257252
0.928618 0.615152 0.256626
0.928923 0.613825 0.256489
0.929107 0.612696 0.256306
0.929046 0.611826 0.255924
0.0640726 0.787274 0.413703
0.0639963 0.787884 0.409781
0.0638285 0.788525 0.405905
0.0639658 0.789258 0.401495
0.0641184 0.78999 0.397253
0.0645762 0.790814 0.392554
0.0651102 0.791669 0.387579
0.0659648 0.792767 0.380911
0.0671702 0.794186 0.371786
0.0689097 0.796246 0.358999
0.0716259 0.798993 0.339956
0.075349 0.802533 0.313771
0.0780194 0.805936 0.287617
0.0775464 0.802029 0.282826
0.0887922 0.796765 0.2645
0.185733 0.802487 0.174929
0.448981 0.788449 0.187228
0.569345 0.762402 0.215259
0.648722 0.729458 0.218799
0.737041 0.706493 0.223423
0.811734 0.699702 0.247593
0.861265 0.705043 0.268849
0.904707 0.716121 0.293217
0.928969 0.71725 0.30312
0.930907 0.712551 0.300038
0.930541 0.707942 0.296529
0.93048 0.704692 0.29366
0.930266 0.701701 0.29131
0.930083 0.699336 0.289738
0.930175 0.697749 0.288533
0.930327 0.69688 0.287831
0.930129 0.696101 0.287175
0.929961 0.695506 0.286763
0.0834821 0.853361 0.480964
0.0832837 0.853895 0.478248
0.0829328 0.85452 0.475044
0.0827955 0.855131 0.471717
0.0826123 0.855787 0.468421
0.0827497 0.856474 0.464897
0.0829938 0.857206 0.461143
0.0834516 0.858106 0.456214
0.0840925 0.859266 0.449363
0.0849775 0.860822 0.440009
0.0864576 0.863096 0.426017
0.0888533 0.866331 0.405875
0.0928664 0.870649 0.377722
0.0956588 0.871778 0.356741
0.0979934 0.867277 0.347173
0.131258 0.865019 0.311574
0.31664 0.872282 0.247242
0.544625 0.850431 0.26743
0.640085 0.826886 0.290166
0.714641 0.793545 0.286137
0.797894 0.770306 0.293492
0.865553 0.762753 0.316777
0.907042 0.767071 0.334783
0.939559 0.779019 0.357717
0.94287 0.777371 0.357305
0.942351 0.774212 0.354391
0.941314 0.771176 0.351339
0.940581 0.768688 0.348898
0.940002 0.766827 0.347158
0.939849 0.765682 0.346212
0.939834 0.764843 0.345464
0.939651 0.764111 0.344686
0.939696 0.763577 0.344259
0.0950637 0.905638 0.543374
0.0949416 0.906111 0.540932
0.0942702 0.9066 0.538735
0.0937362 0.907164 0.536294
0.0933547 0.90779 0.533516
0.0933394 0.908339 0.530983
0.093492 0.908904 0.528222
0.0938735 0.90959 0.524392
0.0943008 0.910384 0.519463
0.0949111 0.911467 0.512474
0.0958877 0.913054 0.502464
0.0974746 0.915358 0.488228
0.100038 0.918898 0.467445
0.104005 0.923186 0.44007
0.105867 0.920211 0.429847
0.13228 0.917937 0.389563
0.189273 0.922332 0.353628
0.446845 0.9252 0.329168
0.625605 0.903883 0.356878
0.70489 0.88275 0.375769
0.776349 0.851804 0.370672
0.855177 0.829602 0.378363
0.915419 0.820279 0.400275
0.946792 0.824231 0.412604
0.961852 0.829465 0.419165
0.962219 0.827466 0.41622
0.961105 0.824918 0.412436
0.960098 0.822904 0.409689
0.959533 0.821469 0.407706
0.958923 0.820264 0.406073
0.958724 0.819516 0.40502
0.958694 0.819028 0.404288
0.958694 0.818601 0.403723
0.098146 0.943343 0.602731
0.0975967 0.943694 0.600732
0.0963302 0.944152 0.598871
0.0952773 0.94461 0.596796
0.0944076 0.945068 0.594598
0.0940719 0.945418 0.592523
0.0939345 0.945739 0.590341
0.0939803 0.94612 0.587396
0.0941024 0.946624 0.583413
0.0943008 0.947356 0.578012
0.094728 0.948379 0.570626
0.0954147 0.949905 0.560372
0.0965133 0.952056 0.545525
0.0991531 0.955139 0.525109
0.101823 0.955398 0.510185
0.113924 0.953567 0.491173
0.182361 0.957687 0.425162
0.320424 0.965911 0.419471
0.55201 0.964813 0.412695
0.698116 0.946303 0.445762
0.767987 0.927794 0.46276
0.835386 0.900084 0.456825
0.903838 0.880171 0.463432
0.955627 0.869245 0.481849
0.981018 0.871824 0.4925
0.982925 0.870832 0.489754
0.98172 0.868772 0.485573
0.980697 0.866911 0.482216
0.979797 0.865492 0.479606
0.978973 0.864378 0.477775
0.978332 0.86363 0.47631
0.978073 0.863157 0.475242
0.978103 0.862867 0.47454
0.11043 0.963546 0.646494
0.110216 0.963897 0.645243
0.109255 0.96437 0.644068
0.108278 0.964874 0.642695
0.107546 0.965331 0.641413
0.107301 0.965698 0.640192
0.107256 0.966064 0.638773
0.107454 0.966491 0.636835
0.107668 0.967041 0.634272
0.107912 0.967758 0.6309
0.108293 0.968765 0.625956
0.108782 0.970108 0.619257
0.109499 0.971954 0.609949
0.110613 0.974533 0.596979
0.111818 0.976684 0.584146
0.11249 0.974899 0.572488
0.144106 0.976608 0.522484
0.258259 0.988754 0.462928
0.456504 0.99678 0.488655
0.64332 0.991501 0.49659
0.775158 0.971191 0.538491
0.835142 0.956252 0.551263
0.89012 0.935699 0.541619
0.94406 0.92134 0.54461
0.982498 0.912642 0.558572
0.994644 0.911147 0.562264
0.994858 0.908888 0.558221
0.994614 0.906996 0.554818
0.994461 0.905715 0.552331
0.994064 0.904524 0.550256
0.99382 0.903716 0.548867
0.99379 0.903151 0.547936
0.993881 0.902724 0.547097
0.111833 0.964752 0.654307
0.111528 0.965057 0.653025
0.110414 0.965545 0.651652
0.1093 0.966018 0.650187
0.108385 0.96643 0.648981
0.108141 0.966766 0.647471
0.10808 0.967056 0.64596
0.108217 0.967391 0.644114
0.108385 0.967865 0.641459
0.108568 0.96849 0.638041
0.108873 0.96939 0.633234
0.109285 0.970611 0.626871
0.109941 0.972366 0.617929
0.111131 0.974838 0.605478
0.112551 0.977935 0.590417
0.112749 0.978363 0.588144
0.121691 0.982788 0.57406
0.204166 0.991043 0.537102
0.40351 0.999191 0.51957
0.549676 0.999893 0.548653
0.719066 0.993317 0.570535
0.841703 0.974243 0.618769
0.888579 0.966293 0.62768
0.936004 0.960769 0.629038
0.973419 0.952392 0.631174
0.995773 0.947097 0.643
0.996628 0.94493 0.638453
0.99678 0.943496 0.634272
0.996628 0.942123 0.630472
0.996475 0.941009 0.627848
0.996338 0.940139 0.626001
0.996277 0.939483 0.624491
0.996307 0.93901 0.623362
0.110307 0.964477 0.657267
0.110338 0.964721 0.655909
0.109728 0.965103 0.654597
0.10901 0.965499 0.653254
0.108217 0.965927 0.651804
0.107973 0.966262 0.650294
0.107881 0.966522 0.648966
0.108019 0.966873 0.647028
0.108186 0.967315 0.644541
0.108415 0.967956 0.64097
0.108675 0.968795 0.636423
0.109071 0.970001 0.630014
0.109682 0.971679 0.621363
0.110719 0.97409 0.609232
0.1122 0.977188 0.594064
0.112795 0.978393 0.588876
0.118776 0.981643 0.580987
0.181186 0.989532 0.549096
0.360281 0.998199 0.515328
0.515465 0.999969 0.553048
0.673289 0.997589 0.576043
0.812131 0.981399 0.626413
0.890684 0.969757 0.669261
0.921782 0.966339 0.674159
0.959381 0.964981 0.681468
0.988647 0.966033 0.705242
0.9953 0.966903 0.715572
0.995758 0.966827 0.714412
0.99588 0.966766 0.713176
0.99588 0.966781 0.712398
0.995926 0.966827 0.711894
0.995911 0.966628 0.710903
0.995911 0.966247 0.709545
0.107988 0.964492 0.659525
0.108156 0.964721 0.658137
0.108217 0.964935 0.656992
0.108248 0.965194 0.655543
0.107973 0.965499 0.654276
0.107836 0.965789 0.652811
0.107759 0.96611 0.65124
0.107866 0.966445 0.649378
0.108019 0.966888 0.646922
0.108248 0.967514 0.643519
0.108522 0.968322 0.638941
0.108919 0.969528 0.632441
0.109514 0.971191 0.623804
0.11043 0.973541 0.612055
0.111925 0.976577 0.596963
0.112718 0.978241 0.589212
0.117006 0.980194 0.584436
0.163302 0.988052 0.554833
0.307622 0.996796 0.510552
0.49572 0.999969 0.550332
0.647929 0.998672 0.572015
0.793896 0.984726 0.618448
0.882246 0.971054 0.666163
