luts/phantom/Utopia V-Log Legacy.cube
TITLE "Generated by Resolve"
LUT_3D_SIZE 9
0.0141146 0.0405585 0.0500801
0.0387579 0.0417945 0.0517891
0.108614 0.0397345 0.0471199
0.258183 0.0296788 0.049897
0.478874 0.0217746 0.0745861
0.657847 0.0302892 0.140841
0.663844 0.0295415 0.152193
0.665141 0.0293889 0.157092
0.669657 0.0287633 0.15964
0.0156558 0.0525978 0.0559243
0.0220188 0.0466621 0.0522011
0.0796826 0.0474708 0.051133
0.241169 0.0308232 0.0470436
0.466102 0.0154726 0.0569924
0.650294 0.0261845 0.120195
0.661372 0.0305638 0.136309
0.662501 0.0302281 0.141009
0.6654 0.0293584 0.143206
0.00613413 0.118944 0.0537728
0.00732433 0.113237 0.0471809
0.0799268 0.103258 0.0479744
0.251682 0.069398 0.0521096
0.460777 0.0174258 0.0540932
0.647349 0.0215 0.112902
0.654627 0.0234226 0.117266
0.655192 0.0242313 0.118456
0.65716 0.0245518 0.119478
0 0.288808 0.0558633
0 0.287816 0.0288243
0 0.280842 0.00727855
0.246235 0.252598 0.0449989
0.551736 0.182605 0.0912337
0.720775 0.038819 0.0898604
0.681712 0.0191653 0.102739
0.669078 0.0176547 0.106386
0.668635 0.0167391 0.107546
0 0.571298 0.185122
0 0.572763 0.15285
0.00363165 0.57467 0.118807
0.0216678 0.567987 0.0594797
0.535378 0.512154 0.0906691
0.841215 0.495171 0.207462
0.918898 0.415183 0.21799
0.911849 0.39324 0.209934
0.910079 0.385946 0.206714
0.0834821 0.853361 0.480964
0.0826123 0.855787 0.468421
0.0840925 0.859266 0.449363
0.0928664 0.870649 0.377722
0.31664 0.872282 0.247242
0.797894 0.770306 0.293492
0.94287 0.777371 0.357305
0.940002 0.766827 0.347158
0.939696 0.763577 0.344259
0.111833 0.964752 0.654307
0.108385 0.96643 0.648981
0.108385 0.967865 0.641459
0.109941 0.972366 0.617929
0.121691 0.982788 0.57406
0.719066 0.993317 0.570535
0.973419 0.952392 0.631174
0.996628 0.942123 0.630472
0.996307 0.93901 0.623362
0.108293 0.963851 0.662943
0.110491 0.964385 0.657557
0.111284 0.965637 0.650248
0.112749 0.969818 0.627741
0.118364 0.978393 0.587411
0.618723 0.999359 0.566522
0.940398 0.96492 0.675608
0.995865 0.967422 0.719997
0.994644 0.967803 0.72079
0.10573 0.963775 0.666041
0.107256 0.964416 0.660716
0.109972 0.96527 0.653422
0.112535 0.969207 0.630854
0.116945 0.978454 0.587243
0.597589 0.999619 0.5635
0.930617 0.965637 0.675578
0.995377 0.967575 0.720317
0.994079 0.967956 0.721111
0.0111696 0.0416876 0.0573129
0.0337377 0.0428626 0.0688182
0.109819 0.0430152 0.0744182
0.272984 0.0352026 0.0790417
0.48809 0.0260166 0.100969
0.664607 0.0291447 0.159579
0.6766 0.0301366 0.172229
0.678965 0.0305791 0.177218
0.681682 0.0300603 0.179522
0.0139773 0.049134 0.0588693
0.0142061 0.0406195 0.0500649
0.0877699 0.0412146 0.0510719
0.244404 0.0326696 0.0540017
0.474418 0.0239719 0.0781567
0.658961 0.0297093 0.142947
0.665415 0.0290227 0.154177
0.668727 0.0290684 0.159716
0.672267 0.0286259 0.162066
0.00907912 0.111498 0.0833295
0.00817884 0.106706 0.059205
0.0741436 0.0981918 0.0480659
0.249805 0.0580606 0.0481575
0.458961 0.0163729 0.0563821
0.654551 0.0294499 0.128389
0.662699 0.0301976 0.137667
0.66334 0.0299992 0.140642
0.665034 0.0294804 0.142016
0 0.281086 0.0964218
0 0.278508 0.0620584
0 0.277684 0.0193027
0.241154 0.248142 0.0448768
0.548028 0.171466 0.0878767
0.715358 0.0346227 0.0896468
0.67538 0.0182803 0.103929
0.665507 0.01738 0.108171
0.665675 0.018265 0.110201
0 0.564141 0.215549
0 0.565667 0.186587
0 0.567758 0.141817
0.0119936 0.567605 0.0798047
0.532952 0.509651 0.0891585
0.84538 0.486824 0.208591
0.917266 0.411063 0.216403
0.910674 0.38912 0.208713
0.908797 0.381415 0.205158
0.0814679 0.847654 0.491402
0.080293 0.849836 0.479866
0.0814679 0.852934 0.462104
0.0890822 0.863676 0.395941
0.274266 0.872709 0.250324
0.79588 0.768475 0.290806
0.942306 0.774639 0.354803
0.939376 0.763729 0.344259
0.938598 0.759655 0.340642
0.111315 0.96376 0.66006
0.108064 0.965377 0.654765
0.107958 0.966735 0.647745
0.109407 0.970932 0.625193
0.119692 0.981277 0.578973
0.70959 0.99411 0.566354
0.972137 0.951064 0.626474
0.996551 0.939788 0.625101
0.996094 0.936538 0.617609
0.10753 0.962966 0.66865
0.110658 0.963302 0.663462
0.110948 0.964523 0.656352
0.112291 0.968475 0.634714
0.116945 0.978241 0.587823
0.606485 0.999573 0.56495
0.937972 0.965072 0.675319
0.995865 0.967422 0.719997
0.994644 0.967803 0.72079
0.105547 0.962814 0.671656
0.107698 0.963333 0.666484
0.109758 0.964187 0.659358
0.112108 0.967926 0.637598
0.116716 0.978256 0.588037
0.584665 0.999741 0.56173
0.928405 0.965728 0.675685
0.995377 0.967575 0.720317
0.994079 0.967956 0.721111
0 0.0491646 0.102617
0.0467079 0.044358 0.104265
0.114046 0.0456855 0.111376
0.284382 0.0378882 0.115709
0.499825 0.0286107 0.131106
0.680278 0.0317693 0.184741
0.693523 0.0334478 0.198291
0.698222 0.0344854 0.204562
0.702403 0.0339666 0.207309
0.00598154 0.0549935 0.0810254
0 0.0483253 0.0973526
0.090486 0.0446937 0.0993515
0.263539 0.037171 0.0953078
0.488228 0.0270542 0.110811
0.669306 0.0298619 0.167712
0.679484 0.030808 0.179294
0.683452 0.03122 0.184482
0.687434 0.0309148 0.187121
0.00846876 0.107454 0.114015
0.00946059 0.101411 0.108431
0.0620432 0.0955062 0.105104
0.25745 0.0654612 0.0844892
0.475624 0.025803 0.0943008
0.659312 0.0292363 0.150988
0.66775 0.0292668 0.159426
0.670848 0.0295109 0.163027
0.674113 0.029221 0.165621
0 0.27277 0.142367
0 0.269902 0.119188
0 0.266743 0.0726177
0.239078 0.246281 0.0728161
0.54461 0.161654 0.093019
0.70959 0.0305791 0.0990158
0.672267 0.0238193 0.118822
0.670253 0.0304112 0.135378
0.66833 0.0289311 0.138109
0 0.554757 0.250355
0 0.556374 0.225559
0 0.558831 0.186786
0.00489815 0.565072 0.090898
0.530114 0.507073 0.0881361
0.845075 0.480491 0.208026
0.91577 0.405829 0.214466
0.908782 0.38262 0.206592
0.906996 0.374838 0.203067
0.079057 0.840635 0.503838
0.0778363 0.842542 0.493126
0.0787671 0.845228 0.477668
0.0845655 0.854292 0.41857
0.218418 0.872435 0.252949
0.79382 0.765957 0.288029
0.941253 0.770962 0.351186
0.938384 0.75993 0.340764
0.937484 0.756237 0.337697
0.110094 0.962768 0.667063
0.107576 0.964111 0.662226
0.107546 0.965362 0.655329
0.108766 0.969146 0.634058
0.116381 0.97908 0.584466
0.697429 0.995407 0.561624
0.970382 0.949279 0.620111
0.996338 0.936751 0.617914
0.996201 0.933806 0.610773
0.106691 0.961913 0.675563
0.108782 0.962371 0.67071
0.110628 0.963211 0.663996
0.111742 0.966903 0.643336
0.116564 0.977981 0.588678
0.589532 0.99971 0.562219
0.934615 0.965194 0.67512
0.995865 0.967422 0.719997
0.994644 0.967803 0.72079
0.105257 0.961639 0.678828
0.105806 0.962356 0.673961
0.10985 0.962829 0.667018
0.111543 0.966369 0.646189
0.116426 0.977752 0.589227
0.566217 0.999863 0.559442
0.925246 0.966003 0.675868
0.995377 0.967575 0.720317
0.993957 0.968002 0.721172
0 0.0654002 0.207706
0.00933852 0.0588998 0.221164
0.136507 0.0484169 0.210986
0.295064 0.0459297 0.20795
0.516136 0.0418097 0.219364
0.723552 0.0450294 0.260609
0.735561 0.0474861 0.274662
0.738537 0.0486763 0.281086
0.742977 0.0479591 0.28455
0 0.0710918 0.190707
0 0.0650797 0.205295
0.0738231 0.0521706 0.224948
0.27895 0.0461128 0.198566
0.508873 0.0383001 0.201587
0.716106 0.0417182 0.243961
0.728069 0.0439765 0.257496
0.731106 0.044892 0.263752
0.735729 0.0443427 0.267124
0 0.117937 0.188769
0 0.10779 0.199649
0.00109865 0.0933547 0.225681
0.259785 0.0566567 0.195972
0.500771 0.0353246 0.183398
0.704402 0.0381781 0.222614
0.715572 0.0397955 0.234318
0.718959 0.0409705 0.240452
0.722805 0.04065 0.243244
0 0.256489 0.242847
0 0.251743 0.238758
0 0.24538 0.232197
0.214557 0.244602 0.248569
0.549874 0.183352 0.199771
0.724804 0.0503395 0.188464
0.703288 0.035584 0.199359
0.702754 0.0361334 0.209308
0.706798 0.0360418 0.21384
0 0.536995 0.337285
0 0.536309 0.323079
0 0.536034 0.300191
0 0.541085 0.202502
0.526986 0.509316 0.204791
0.845975 0.464851 0.268727
0.921599 0.380941 0.252155
0.915282 0.35111 0.240787
0.913512 0.340978 0.236728
0.0745556 0.824109 0.536034
0.0728008 0.824948 0.527764
0.0728313 0.826078 0.515541
0.0748455 0.830747 0.471992
0.173877 0.858946 0.315419
0.787839 0.762203 0.323598
0.941726 0.765057 0.381415
0.939193 0.752407 0.368597
0.938582 0.748837 0.364508
0.109239 0.959701 0.684977
0.105287 0.96112 0.680598
0.106493 0.961822 0.674556
0.107286 0.964813 0.65597
0.113939 0.976837 0.594324
0.677516 0.996506 0.552483
0.966415 0.943938 0.605539
0.996246 0.930022 0.603143
0.995651 0.926284 0.595789
0.106096 0.958999 0.693889
0.105028 0.95993 0.689479
0.109422 0.960082 0.683452
0.110567 0.962997 0.665248
0.114672 0.974456 0.604898
0.557977 0.999893 0.559915
0.928359 0.965698 0.676783
0.99588 0.96759 0.721752
0.994644 0.967971 0.722637
0.105135 0.958648 0.697353
0.104662 0.959457 0.692851
0.106859 0.960006 0.686793
0.110384 0.962509 0.668238
0.11426 0.973648 0.60853
0.531502 0.999954 0.556954
0.919203 0.966583 0.677653
0.995407 0.967742 0.722133
0.994125 0.968139 0.722957
0 0.0944686 0.391012
0 0.0897688 0.409354
0.0162661 0.0733043 0.431037
0.320256 0.0518959 0.405707
0.525856 0.0693675 0.395727
0.760739 0.077821 0.405127
0.773144 0.0801709 0.417639
0.774395 0.0809949 0.423484
0.77882 0.0797589 0.428153
0 0.0987259 0.38613
0 0.0945296 0.391379
0 0.0844129 0.421332
0.288121 0.0510414 0.414221
0.519997 0.0680552 0.391165
0.760235 0.076524 0.397055
0.77174 0.0782025 0.408179
0.772824 0.0791333 0.414069
0.777462 0.0780499 0.41828
0 0.118639 0.372061
0 0.106828 0.381476
0 0.0935225 0.39794
0.224842 0.0533761 0.428779
0.512062 0.066041 0.384405
0.757534 0.0753033 0.385138
0.768002 0.0773785 0.395163
0.768704 0.0777142 0.399893
0.773175 0.0766308 0.403677
0 0.256794 0.382666
0 0.248402 0.385306
0 0.236149 0.391516
0.0702068 0.220981 0.462516
0.532158 0.160067 0.427955
0.736477 0.0747845 0.358831
0.763699 0.0724193 0.371557
0.764599 0.0735485 0.375738
0.768231 0.0728771 0.378576
0 0.508034 0.478157
0 0.505562 0.476066
0 0.502235 0.472587
0 0.492592 0.461357
0.485618 0.504936 0.496468
0.85211 0.453468 0.451347
0.913878 0.390082 0.433875
0.907805 0.363577 0.428229
0.905821 0.354376 0.427359
0.0694591 0.795331 0.610162
0.0669261 0.79472 0.605844
0.0663462 0.794095 0.598917
0.0646983 0.790951 0.574731
0.182071 0.811215 0.501503
0.77084 0.756954 0.516945
0.961349 0.745769 0.535256
0.959197 0.732113 0.524392
0.957992 0.728023 0.521401
0.108202 0.952316 0.729854
0.10396 0.953613 0.727031
0.103792 0.954406 0.722591
0.105501 0.956237 0.708675
0.106828 0.962966 0.664134
0.634516 0.994705 0.639948
0.959762 0.942412 0.685939
0.992218 0.933486 0.692485
0.99147 0.930343 0.686976
0.106691 0.951827 0.739513
0.104112 0.95288 0.736278
0.103807 0.953643 0.731609
0.108034 0.954986 0.71693
0.110079 0.961654 0.673503
0.555138 0.999786 0.635096
0.937179 0.972717 0.782147
0.995239 0.976059 0.81976
0.993881 0.976501 0.820996
0.105241 0.951553 0.74345
0.104051 0.952331 0.739986
0.103593 0.953185 0.735027
0.107607 0.954589 0.719966
0.110002 0.961273 0.675792
0.522011 0.999802 0.629221
0.926513 0.973648 0.776181
0.995026 0.975982 0.818998
0.993851 0.97644 0.820142
0 0.160464 0.531228
0 0.160037 0.538384
0 0.155123 0.564981
0.122652 0.11809 0.62031
0.548241 0.119417 0.595468
0.787533 0.123735 0.596796
0.802991 0.13135 0.617548
0.805386 0.138201 0.627924
0.811215 0.13904 0.636744
0 0.160632 0.531487
0 0.160891 0.532036
0 0.158404 0.545556
0.0792401 0.125933 0.617212
0.538216 0.117479 0.597803
0.786496 0.120546 0.591577
0.800656 0.126787 0.609018
0.803754 0.131655 0.619211
0.809934 0.132158 0.627817
0 0.165835 0.52314
0 0.162112 0.530327
0 0.161028 0.53225
0.0187076 0.139315 0.608209
0.521813 0.114122 0.600336
0.779812 0.120821 0.585214
0.794614 0.122515 0.595392
0.797086 0.126207 0.603754
0.803418 0.126101 0.611399
0 0.245151 0.51957
0 0.236057 0.525231
0 0.224506 0.532372
0 0.212009 0.571389
0.4692 0.129656 0.619455
0.76173 0.121462 0.574517
0.787472 0.109209 0.567254
0.788434 0.110719 0.570901
0.793057 0.109712 0.575814
0 0.49514 0.600687
0 0.491539 0.602792
0 0.485588 0.603357
0 0.466651 0.604822
0.349523 0.493797 0.728527
0.832837 0.436759 0.68571
0.900008 0.372671 0.649195
0.891203 0.347707 0.640604
0.887999 0.338415 0.638941
0.0635233 0.757641 0.717678
0.060914 0.756466 0.71751
0.0601358 0.754253 0.715557
0.0581521 0.746822 0.708217
0.109972 0.741146 0.702556
0.734554 0.742107 0.729091
0.957595 0.713329 0.701015
0.959548 0.697307 0.694331
0.959152 0.692195 0.692576
0.107179 0.940017 0.803357
0.102083 0.941512 0.802365
0.101061 0.941253 0.799115
0.0989548 0.938354 0.787762
0.0936904 0.931273 0.752575
0.618128 0.956191 0.76144
0.942229 0.933425 0.815198
0.979309 0.937148 0.829969
0.977874 0.933944 0.826047
0.108629 0.940276 0.817304
0.103105 0.941634 0.815457
0.102449 0.942229 0.811643
0.103014 0.943511 0.799924
0.107805 0.947311 0.767758
0.420996 0.981399 0.761273
0.918059 0.983322 0.885206
0.993576 0.984939 0.937896
0.992889 0.985382 0.940032
0.10454 0.940429 0.823697
0.103151 0.941039 0.820752
0.10251 0.941604 0.816709
0.102831 0.943038 0.803967
0.107668 0.947021 0.769726
0.366445 0.976135 0.754955
0.897002 0.984329 0.877226
0.98854 0.983154 0.926299
0.991272 0.985702 0.940948
0 0.284611 0.683207
0 0.288243 0.687449
0 0.292363 0.691203
0 0.308095 0.743938
0.37557 0.300435 0.851209
0.846189 0.322133 0.835294
0.865309 0.365499 0.864057
0.86537 0.377401 0.872419
0.86453 0.381659 0.877562
0 0.284092 0.682368
0 0.284581 0.683803
0 0.29102 0.690196
0 0.307485 0.728786
0.353704 0.302266 0.850385
0.84181 0.318441 0.833249
0.864927 0.361547 0.860975
0.865049 0.371237 0.868498
0.864668 0.374792 0.873137
0 0.276951 0.673701
0 0.283375 0.682658
0 0.283482 0.68278
0 0.302754 0.711666
0.324742 0.302281 0.847395
0.835966 0.314321 0.831113
0.865049 0.355276 0.854185
0.865263 0.365576 0.862593
0.864393 0.368261 0.867185
0 0.292576 0.646235
0 0.292409 0.656321
0 0.293248 0.667475
0 0.289799 0.682551
0.248188 0.292714 0.828412
0.81033 0.297169 0.823835
0.861891 0.317479 0.824796
0.862699 0.324331 0.830243
0.863325 0.327077 0.836011
0 0.505058 0.701869
0 0.502541 0.705699
0 0.498695 0.708873
0 0.488258 0.719921
0.144869 0.521431 0.817151
0.787701 0.456535 0.884688
0.902266 0.436347 0.834516
0.895689 0.417746 0.826535
0.892775 0.411383 0.825803
0 0.738628 0.805463
0 0.737697 0.80856
0 0.734737 0.808927
0 0.724849 0.810071
0 0.705196 0.818906
0.641566 0.738735 0.898634
0.948669 0.708186 0.871031
0.950957 0.693919 0.866438
0.949599 0.689525 0.866331
0.100191 0.917067 0.876127
0.0913863 0.917205 0.876875
0.0894789 0.915221 0.87483
0.0863508 0.909483 0.869535
0.0798505 0.894942 0.855299
0.551492 0.91368 0.886976
0.92372 0.92253 0.91635
0.977066 0.919402 0.912367
0.974823 0.915404 0.910826
0.107485 0.932784 0.900954
0.101137 0.934279 0.900816
0.100755 0.934676 0.898177
0.101946 0.935271 0.889982
0.105028 0.93669 0.867033
0.23125 0.958068 0.863706
0.914595 0.983825 0.946548
0.990387 0.985855 0.972534
0.991226 0.986023 0.974319
0.110445 0.931411 0.906493
0.100267 0.933715 0.907317
0.0999619 0.934142 0.904326
0.101289 0.934905 0.894804
0.104875 0.936584 0.868971
0.214008 0.957671 0.862531
0.890242 0.984375 0.942962
0.988403 0.988525 0.9794
0.994949 0.986862 0.985214
0 0.32871 0.710277
0 0.33344 0.714931
0 0.348272 0.727886
0 0.375662 0.757565
0.326909 0.390326 0.899565
0.835599 0.388891 0.889281
0.863981 0.392432 0.883741
0.864164 0.392477 0.883452
0.863874 0.392416 0.883909
0 0.328618 0.709789
0 0.328862 0.71133
0 0.342016 0.721218
0 0.369268 0.745586
0.305806 0.390188 0.895125
0.82919 0.387625 0.890364
0.863981 0.392432 0.883757
0.863935 0.392416 0.883818
0.863294 0.392309 0.884962
0 0.333959 0.710506
0 0.328862 0.71133
0 0.328862 0.71133
0 0.363638 0.73727
0.274846 0.391287 0.887495
0.819364 0.385992 0.892683
0.864485 0.392538 0.882948
0.864408 0.392523 0.883085
0.863615 0.39237 0.884382
0 0.389532 0.72697
0 0.379843 0.726757
0 0.362402 0.720882
0 0.346136 0.72372
0.178729 0.394812 0.862867
0.768566 0.383154 0.901732
0.864652 0.392569 0.882628
0.864698 0.392569 0.882536
0.863783 0.392386 0.884092
0 0.537774 0.770871
0 0.539803 0.77818
0 0.542382 0.78468
0 0.532387 0.783886
0.0148165 0.555016 0.826017
0.636057 0.532616 0.972168
0.89778 0.49305 0.912306
0.893965 0.480659 0.90782
0.890852 0.476829 0.908095
0 0.736507 0.85774
0 0.735851 0.861646
0 0.733562 0.863111
0 0.725216 0.866102
0 0.705409 0.872847
0.531548 0.754788 0.955901
0.939544 0.722759 0.948577
0.946929 0.711543 0.943938
0.945037 0.708003 0.94493
0.0637064 0.904814 0.918547
0.0537881 0.904768 0.920699
0.0508278 0.902571 0.91989
0.0439307 0.894804 0.916564
0.0282139 0.874617 0.911086
0.454475 0.893645 0.949371
0.88336 0.914076 0.957839
0.973053 0.916518 0.956802
0.97171 0.912795 0.9561
0.0895247 0.930343 0.934829
0.0784161 0.932723 0.938766
0.07776 0.932876 0.938964
0.0789349 0.932891 0.937545
0.0886397 0.932494 0.927092
0.150912 0.948287 0.927001
0.880171 0.974899 0.968505
0.988296 0.98291 0.981476
0.992508 0.983047 0.981659
0.0855116 0.931197 0.936339
0.0784314 0.932723 0.93875
0.0777142 0.932876 0.938994
0.0777295 0.932876 0.938994
0.087602 0.932586 0.928084
0.140932 0.947601 0.923751
0.828595 0.979828 0.964446
0.990097 0.988403 0.988052
0.992325 0.988739 0.987335
0 0.328725 0.71046
0 0.332479 0.714183
0 0.347982 0.727642
0 0.375265 0.756664
0.326436 0.390204 0.899458
0.836988 0.389075 0.889036
0.863981 0.392432 0.883741
0.863996 0.392432 0.883726
0.863737 0.392386 0.884184
0 0.328634 0.70985
0 0.328862 0.71133
0 0.340978 0.720409
0 0.368826 0.744991
0.304799 0.390295 0.894942
0.830396 0.387625 0.889662
0.863981 0.392432 0.883741
0.86389 0.392416 0.883879
0.863157 0.392279 0.885222
0 0.332723 0.710292
0 0.328862 0.71133
0 0.328862 0.71133
0 0.363348 0.736904
0.273014 0.391363 0.887037
0.819715 0.385931 0.892622
0.864469 0.392523 0.882963
0.864393 0.392523 0.883085
0.863523 0.392355 0.88455
0 0.385412 0.726009
0 0.372824 0.724285
0 0.35584 0.719066
0 0.345327 0.723293
0.173861 0.394614 0.861494
0.76585 0.383139 0.902144
0.864607 0.392554 0.882719
0.864683 0.392569 0.882582
0.863783 0.392386 0.884092
0 0.556359 0.793164
0 0.553323 0.794293
0 0.547829 0.791684
0 0.529259 0.782422
0.00262455 0.549828 0.822766
0.62855 0.529305 0.971878
0.896391 0.489067 0.911131
0.892256 0.476768 0.907027
0.889387 0.47274 0.906767
0 0.741039 0.877791
0 0.74078 0.881773
0 0.737713 0.881453
0 0.727413 0.878004
0 0.702556 0.872038
0.525063 0.752392 0.956039
0.934798 0.719799 0.951507
0.944884 0.709545 0.946899
0.943435 0.706203 0.948135
0.0555734 0.904204 0.926909
0.0460822 0.903502 0.928588
0.0426184 0.900847 0.92813
0.0349889 0.892058 0.925719
0.019852 0.869123 0.919768
0.417502 0.885664 0.956039
0.853559 0.909163 0.964202
0.971023 0.912108 0.966598
0.969818 0.907958 0.965942
0.0887007 0.930526 0.935103
0.0784161 0.932723 0.938766
0.0777142 0.932876 0.938994
0.0777142 0.932876 0.938994
0.0777142 0.932876 0.938994
0.102892 0.94493 0.946807
0.831678 0.967681 0.977401
0.982528 0.981033 0.983856
0.988861 0.983017 0.984939
0.0859846 0.931105 0.93611
0.0784161 0.932723 0.938766
0.0777142 0.932876 0.938994
0.0777142 0.932876 0.938994
0.0777142 0.932876 0.938994
0.100084 0.944045 0.94638
0.750393 0.976257 0.976104
0.984344 0.989181 0.989319
0.992279 0.988754 0.987381
