luts/phantom/VisionTeal V-Log Legacy.cube
TITLE "Generated by Resolve"
LUT_3D_SIZE 5
0.0233616 0.0432593 0.0413519
0.100893 0.0396582 0.0337072
0.411948 0.0170138 0.0299992
0.588129 0.0299535 0.101488
0.585214 0.0287327 0.106828
0.0262455 0.106584 0.0503853
0.0800031 0.0940566 0.046128
0.422248 0.0179446 0.0310216
0.581857 0.024445 0.0910201
0.581674 0.0247807 0.0976425
0.0701457 0.511696 0.232166
0.0857099 0.495598 0.192523
0.463249 0.454551 0.0914168
0.794308 0.456825 0.227955
0.789441 0.414145 0.206409
0.262867 0.871656 0.655802
0.263416 0.871962 0.648524
0.294865 0.860853 0.588449
0.810513 0.829664 0.563394
0.834714 0.815641 0.53138
0.255039 0.875532 0.666194
0.261799 0.872465 0.655634
0.272984 0.867079 0.613642
0.773098 0.846006 0.627222
0.850858 0.863279 0.669169
0.0212253 0.0529488 0.0893873
0.117311 0.0442054 0.0949416
0.456245 0.0263218 0.0974441
0.603052 0.0344701 0.167803
0.594873 0.0332341 0.157824
0.0221408 0.102007 0.0847639
0.0736095 0.0961624 0.0910658
0.434791 0.0245518 0.0651255
0.5906 0.0310979 0.131487
0.590112 0.0313726 0.1346
0.0684367 0.507881 0.273671
0.0570382 0.497536 0.228397
0.454444 0.447593 0.0879683
0.792737 0.442451 0.223056
0.790555 0.412177 0.206683
0.255833 0.874479 0.667369
0.258442 0.874067 0.659052
0.276585 0.863615 0.598001
0.802823 0.821271 0.540856
0.833356 0.808087 0.511894
0.250584 0.877302 0.675273
0.255283 0.875212 0.666362
0.273777 0.867201 0.618647
0.764981 0.844877 0.624537
0.850858 0.863264 0.669154
0.0192874 0.118273 0.364645
0.0438697 0.100237 0.410697
0.519783 0.0775311 0.409262
0.714412 0.0898451 0.476631
0.694942 0.0857862 0.401083
0.0194095 0.130571 0.347616
0.0193179 0.116594 0.368643
0.499168 0.0713359 0.391959
0.706905 0.089601 0.440452
0.684916 0.0825513 0.369421
0.0459907 0.501472 0.424857
0.0376287 0.492027 0.419623
0.527794 0.520668 0.490028
0.812482 0.411566 0.416907
0.800626 0.391287 0.354238
0.229526 0.884565 0.722332
0.224079 0.887098 0.716716
0.245563 0.866148 0.655131
0.813733 0.831159 0.611994
0.852445 0.821118 0.595987
0.227298 0.885939 0.720394
0.22739 0.886503 0.712779
0.254032 0.875547 0.671962
0.761913 0.858518 0.686519
0.876066 0.889418 0.749325
0.0199283 0.328038 0.650156
0.0196841 0.334493 0.657984
0.450736 0.299809 0.795087
0.802335 0.383368 0.828595
0.802548 0.385992 0.829419
0.0195468 0.313588 0.635019
0.019501 0.321569 0.644968
0.398199 0.301106 0.788479
0.801938 0.371664 0.822858
0.803281 0.379736 0.828061
0.0204013 0.52314 0.660655
0.020264 0.508629 0.666575
0.241672 0.523095 0.774472
0.835554 0.454841 0.80795
0.817807 0.392004 0.780819
0.226932 0.88719 0.822812
0.213962 0.880522 0.814679
0.192065 0.852842 0.789532
0.859007 0.869627 0.847974
0.905486 0.838102 0.819944
0.236789 0.894926 0.827436
0.228153 0.897597 0.820935
0.217014 0.896376 0.797559
0.771176 0.909056 0.833265
0.933989 0.944717 0.92256
0.0199588 0.357885 0.672801
0.0200961 0.378775 0.691859
0.432303 0.38819 0.825025
0.803037 0.386114 0.830304
0.802655 0.386221 0.829633
0.0196994 0.363729 0.67422
0.0199588 0.357885 0.672801
0.36994 0.397696 0.816724
0.802976 0.38613 0.830259
0.803067 0.386099 0.83032
0.0207218 0.573022 0.756085
0.0208133 0.560067 0.752758
0.0982071 0.555306 0.784894
0.83563 0.492653 0.857481
0.824689 0.460151 0.847959
0.169924 0.89778 0.861448
0.148058 0.887663 0.859907
0.0801251 0.854978 0.849424
0.795254 0.840436 0.897063
0.90959 0.827543 0.902052
0.204776 0.907317 0.861753
0.201999 0.908324 0.862165
0.201999 0.908324 0.862165
0.59382 0.898146 0.858
0.933715 0.94551 0.927764
