luts/phantom/Vision V-Log Legacy.cube
TITLE "Generated by Resolve"
LUT_3D_SIZE 33
0.0304417 0.0417792 0.0328222
0.0304417 0.0417792 0.0328222
0.0304417 0.0417792 0.0328069
0.0334783 0.0424659 0.032929
0.0398871 0.0434577 0.0304723
0.0511635 0.0428473 0.0292821
0.0613565 0.0434424 0.0302739
0.0743267 0.0431067 0.0302434
0.0906081 0.042359 0.0298009
0.111467 0.0417639 0.0294347
0.138918 0.0413672 0.0292973
0.17847 0.0406653 0.0285496
0.22385 0.0406348 0.0296178
0.272786 0.0396429 0.0299687
0.32105 0.0359655 0.0307774
0.364569 0.0327459 0.0314946
0.406226 0.0303349 0.032578
0.44892 0.0267338 0.0361028
0.493751 0.0228428 0.0413519
0.538369 0.0225223 0.0546883
0.578927 0.0321813 0.0767529
0.588663 0.033875 0.0829633
0.592325 0.0372931 0.0868391
0.593317 0.0376898 0.0883192
0.595071 0.0386969 0.0952163
0.595346 0.0388495 0.0960708
0.595438 0.0389258 0.096437
0.595453 0.0389563 0.0966201
0.595651 0.0388647 0.0964981
0.596094 0.0386206 0.0960098
0.596368 0.0381933 0.0948806
0.596704 0.0378424 0.0935683
0.596796 0.0374304 0.0920119
0.0304265 0.0417792 0.0327764
0.0304417 0.0417792 0.0328069
0.030518 0.0417792 0.0328222
0.0336309 0.0424811 0.032929
0.0396124 0.0437781 0.0307012
0.0510262 0.0438849 0.0293126
0.0612802 0.0438697 0.0305333
0.0747539 0.0432441 0.0302281
0.0923018 0.0425422 0.0300145
0.112581 0.0420844 0.0298009
0.141192 0.0417487 0.0294347
0.180972 0.0407874 0.028687
0.227146 0.04065 0.0298314
0.275944 0.039765 0.0301671
0.323018 0.035996 0.0308995
0.367117 0.0325017 0.0315099
0.408804 0.0301518 0.033051
0.450675 0.0265507 0.036408
0.495628 0.0225834 0.0412299
0.543969 0.0247044 0.0593576
0.575906 0.0285344 0.0727245
0.587686 0.0330205 0.0809949
0.590509 0.0361791 0.0841077
0.589364 0.0346685 0.084062
0.594186 0.0381628 0.0925612
0.594537 0.0383459 0.0934768
0.594812 0.0385443 0.0942397
0.594888 0.0385901 0.0945449
0.594751 0.0381933 0.093843
0.59469 0.0376898 0.0928206
0.595117 0.037583 0.0920272
0.595819 0.0374609 0.0912337
0.5953 0.0361334 0.0891127
0.0304265 0.0417792 0.0327916
0.0304417 0.0417792 0.0328069
0.0304417 0.0417792 0.0328069
0.0307012 0.0419471 0.0328374
0.0365454 0.0444038 0.0323644
0.0475929 0.0451972 0.0291295
0.0587778 0.0448768 0.0306706
0.0721447 0.0442664 0.0302892
0.0899519 0.0437629 0.0308995
0.111162 0.0427558 0.0301061
0.140139 0.0420691 0.0295567
0.181033 0.0410163 0.028809
0.227649 0.0408789 0.0299382
0.277897 0.0397955 0.0302129
0.325032 0.0359655 0.0309453
0.368109 0.0324102 0.0315099
0.409796 0.0301823 0.0332189
0.45211 0.0263218 0.0364691
0.496941 0.0233616 0.0439612
0.544884 0.0245975 0.0593423
0.575326 0.0273136 0.0714733
0.58645 0.0318608 0.080415
0.584573 0.0305791 0.0774243
0.58822 0.0337377 0.0813916
0.590204 0.0358129 0.0837568
0.593668 0.0378576 0.0912795
0.593774 0.0379034 0.0915999
0.593301 0.0373999 0.0911269
0.593225 0.0370642 0.0906386
0.593545 0.0370031 0.090135
0.594354 0.0371557 0.0895705
0.594034 0.0357366 0.0882124
0.593149 0.0340276 0.0859693
0.0305943 0.0424811 0.0330663
0.0305486 0.0424353 0.0330358
0.0306096 0.0423133 0.03299
0.0307012 0.0422065 0.0329137
0.034638 0.0445563 0.0333104
0.0389715 0.0469978 0.0317388
0.0544289 0.047303 0.0294652
0.0684672 0.045655 0.0306249
0.0866712 0.0449836 0.0317998
0.108721 0.0437629 0.0307774
0.139055 0.0429999 0.0300145
0.180652 0.0414435 0.0289311
0.229084 0.0408789 0.0299229
0.279133 0.0397955 0.0302892
0.326177 0.035935 0.0309606
0.369635 0.0322728 0.0314794
0.410895 0.0301518 0.033341
0.452857 0.0261997 0.0365148
0.498619 0.0233005 0.0442054
0.547509 0.0251316 0.0614328
0.579293 0.0306096 0.0763867
0.584985 0.0308537 0.0780957
0.582086 0.0285801 0.0741741
0.586236 0.0319371 0.0785382
0.586419 0.0318608 0.080415
0.591196 0.035874 0.0874189
0.591058 0.0355993 0.0875715
0.590982 0.0354925 0.0876173
0.591531 0.0355993 0.0874952
0.592065 0.0355077 0.0872206
0.591989 0.0347906 0.0863355
0.591836 0.0337682 0.0850843
0.591745 0.0325475 0.0830549
0.0316625 0.0530098 0.0370642
0.0307927 0.0518654 0.0358434
0.0311437 0.0505379 0.0355688
0.0327153 0.0489815 0.0348516
0.0344854 0.0480812 0.0343938
0.038468 0.0504616 0.0353094
0.0447395 0.0511482 0.0323033
0.0615244 0.0479744 0.0307164
0.0821851 0.0469062 0.0321355
0.105715 0.0449683 0.0314031
0.136995 0.0440375 0.030518
0.180499 0.0420691 0.0290227
0.22887 0.0411841 0.029633
0.279957 0.040116 0.0303502
0.327428 0.0357977 0.0310216
0.37052 0.0322576 0.0315862
0.412192 0.0301518 0.0336461
0.454566 0.0259098 0.0366064
0.499489 0.0233616 0.0444038
0.54844 0.0250095 0.0615244
0.581186 0.0310063 0.0775616
0.584405 0.030457 0.0773022
0.587457 0.0325628 0.0812848
0.585733 0.0312657 0.079408
0.583352 0.0296025 0.0758221
0.582101 0.0287175 0.0740063
0.588556 0.0335393 0.0833753
0.588983 0.0339513 0.0843214
0.589609 0.0341039 0.0847791
0.58996 0.0337072 0.0842908
0.590234 0.0329595 0.0830701
0.590219 0.0320439 0.0813306
0.591211 0.0319829 0.081651
0.0327306 0.0618448 0.04094
0.031632 0.0605173 0.0390631
0.0313268 0.0592355 0.0383307
0.0339971 0.0576638 0.0377356
0.0365911 0.0559548 0.0370184
0.0403449 0.0567941 0.0374762
0.0447242 0.0582742 0.0363775
0.0647135 0.0564584 0.0315404
0.0812695 0.0527657 0.0331579
0.104204 0.0500191 0.0342107
0.134096 0.0463111 0.0316014
0.179355 0.0426184 0.0289616
0.229007 0.041413 0.0291752
0.280919 0.040528 0.0302892
0.32903 0.0360876 0.0310521
0.37229 0.032105 0.031754
0.41387 0.0299077 0.0337682
0.456474 0.0256962 0.0366674
0.501137 0.0234684 0.0448463
0.549447 0.0249332 0.0618296
0.582544 0.0312657 0.0784161
0.58764 0.0326848 0.0814832
0.587366 0.0325017 0.0811933
0.584939 0.0308385 0.0780346
0.586374 0.0317998 0.0803082
0.584634 0.0306554 0.0776684
0.588006 0.0329442 0.0819867
0.588342 0.0332189 0.0826886
0.588525 0.03299 0.0823529
0.588525 0.0324254 0.0813306
0.589349 0.0321813 0.0812238
0.590219 0.0319677 0.0811475
0.591089 0.0318151 0.0812085
0.0339055 0.0729534 0.0436866
0.031754 0.0714733 0.0416571
0.0318608 0.0699931 0.041413
0.0336004 0.0684215 0.0413062
0.0375982 0.0660563 0.0402228
0.0406958 0.0656901 0.0398566
0.0465248 0.066331 0.0388342
0.0628214 0.0665599 0.0341344
0.0849012 0.0622873 0.0344854
0.106767 0.0585031 0.0358587
0.136492 0.0537423 0.034165
0.17969 0.0474708 0.0310063
0.226978 0.0423743 0.0282139
0.280369 0.0412757 0.0294957
0.330877 0.0371099 0.03122
0.374365 0.0323949 0.0320287
0.415747 0.0297093 0.0338903
0.457969 0.0256046 0.0370184
0.502998 0.0236667 0.0454719
0.550576 0.0248264 0.0619974
0.584604 0.0317082 0.0799573
0.58764 0.0326848 0.0814832
0.58764 0.0326848 0.0814832
0.58764 0.0326848 0.0814832
0.586465 0.0318761 0.0804303
0.584772 0.0307622 0.0778363
0.58764 0.0326848 0.0814832
0.58764 0.0326848 0.0814832
0.587777 0.0326543 0.0814527
0.588159 0.0325322 0.0813764
0.588632 0.0323949 0.0813153
0.589334 0.0321813 0.0812238
0.590051 0.0319829 0.081117
0.0345769 0.0871443 0.0476844
0.0322118 0.0855879 0.0452277
0.0317998 0.0845655 0.044358
0.0319982 0.0832837 0.0441291
0.0370489 0.0815747 0.0443275
0.0410163 0.078233 0.0428016
0.046067 0.0794385 0.0425727
0.0570993 0.0800031 0.0387884
0.0854658 0.0784314 0.0320134
0.109056 0.0723583 0.0370642
0.143206 0.0650187 0.0383459
0.18471 0.0578317 0.033814
0.232319 0.0502632 0.0306096
0.282032 0.0436561 0.027863
0.329 0.0395514 0.0312352
0.376226 0.033753 0.0325475
0.417212 0.0296635 0.0339666
0.459556 0.0252689 0.0371557
0.504402 0.023743 0.0460517
0.551293 0.0248722 0.0624094
0.58706 0.0325322 0.0812085
0.58764 0.0326848 0.0814832
0.58764 0.0326848 0.0814832
0.58764 0.0326848 0.0814832
0.58764 0.0326848 0.0814832
0.58764 0.0326848 0.0814832
0.58764 0.0326848 0.0814832
0.586969 0.0322423 0.080827
0.587823 0.032639 0.0814527
0.588174 0.0325322 0.0813764
0.588647 0.0323949 0.0813306
0.589334 0.0321813 0.0812238
0.590051 0.0319829 0.081117
0.0360723 0.10428 0.0528573
0.033402 0.102525 0.0494545
0.032578 0.101167 0.048188
0.0324102 0.0996262 0.0477913
0.0341497 0.0984512 0.0473945
0.0396887 0.0967727 0.0472419
0.0459602 0.0951247 0.0471199
0.0544289 0.0962844 0.046479
0.0716869 0.09691 0.0384375
0.111315 0.0918746 0.0331579
0.142977 0.0840314 0.0381781
0.195712 0.069276 0.0379339
0.240146 0.0621347 0.0341955
0.288609 0.0540627 0.0314336
0.334325 0.0464942 0.0295109
0.375143 0.0398566 0.0322881
0.416999 0.0320745 0.0341039
0.460914 0.02533 0.037232
0.506035 0.0235599 0.0461891
0.551843 0.0249943 0.0628977
0.587961 0.0325933 0.0814221
0.587915 0.0326085 0.0814374
0.587884 0.0326238 0.0814374
0.587854 0.0326238 0.0814374
0.587839 0.0326238 0.0814527
0.587808 0.032639 0.0814527
0.587808 0.032639 0.0814679
0.587869 0.0326238 0.0814374
0.588006 0.0325933 0.0814221
0.588251 0.0325017 0.0813611
0.588632 0.0323949 0.0813153
0.589303 0.0321965 0.081239
0.590005 0.0319982 0.081117
0.0373846 0.126162 0.0591135
0.0352178 0.124468 0.0562295
0.0333715 0.122988 0.0536049
0.0331579 0.121798 0.0526894
0.0332341 0.120546 0.0526589
0.0365148 0.119448 0.0515755
0.0424048 0.117678 0.0512093
0.0527657 0.116686 0.0516518
0.0644236 0.117662 0.0495766
0.0937514 0.117372 0.0376287
0.14818 0.105974 0.0361028
0.193271 0.0956893 0.0386969
0.252583 0.0792554 0.0391241
0.300145 0.0711528 0.0368658
0.345068 0.0630045 0.034226
0.38587 0.0534218 0.0321813
0.426062 0.0454261 0.0357519
0.462531 0.0318761 0.0381476
0.505211 0.0234684 0.0429999
0.55227 0.0247044 0.0615091
0.588647 0.0320592 0.0807813
0.588174 0.0324712 0.0812543
0.588022 0.0325628 0.0813916
0.588037 0.032578 0.0814221
0.588037 0.032578 0.0814221
0.588052 0.032578 0.0814221
0.588052 0.0325628 0.0814069
0.588067 0.0325628 0.0813916
0.588144 0.0325322 0.0813764
0.588342 0.0324712 0.0813458
0.588678 0.0323796 0.0813153
0.589319 0.0321965 0.081239
0.590005 0.0319982 0.081117
0.0357366 0.157351 0.06598
0.0344701 0.154955 0.0618448
0.0326696 0.153017 0.0598917
0.0324407 0.151965 0.0575418
0.0324254 0.150042 0.0566873
0.0326696 0.148867 0.056733
0.0353246 0.147646 0.0549935
0.0425727 0.145449 0.0542
0.0598001 0.146441 0.0554055
0.075227 0.147524 0.0529946
0.123629 0.145968 0.0355077
0.203265 0.125765 0.038529
0.253254 0.116869 0.0429541
0.316243 0.098024 0.0446326
0.362631 0.0898146 0.0431983
0.403662 0.0811017 0.0417334
0.443351 0.0688182 0.0400854
0.483726 0.0565194 0.0418402
0.519966 0.0358129 0.0439155
0.560174 0.0246738 0.0551308
0.595544 0.0301061 0.0761883
0.591089 0.0309453 0.0785382
0.590127 0.0307317 0.0789502
0.589883 0.0310216 0.0794385
0.589593 0.0315251 0.0802167
0.589105 0.0320439 0.0807813
0.588449 0.0323796 0.0811933
0.588571 0.0325322 0.0812238
0.590021 0.0319371 0.0803998
0.591302 0.0314031 0.0793164
0.592569 0.0307927 0.0780346
0.592935 0.0299382 0.0775616
0.594278 0.029099 0.0768597
0.0347143 0.200855 0.0759747
0.0341497 0.198795 0.0716411
0.0328069 0.195834 0.0682994
0.0316472 0.194003 0.0652171
0.0308385 0.192538 0.0622873
0.0308843 0.191775 0.0617075
0.0305486 0.189975 0.0610971
0.0320745 0.186892 0.0569162
0.0410163 0.18526 0.0561685
0.067155 0.190982 0.0586099
0.0896162 0.193606 0.0570535
0.172763 0.191333 0.0328985
0.266957 0.164111 0.0439307
0.32192 0.157473 0.0534524
0.385977 0.136492 0.0610361
0.434745 0.126146 0.0620432
0.473762 0.116518 0.0621958
0.515785 0.100786 0.0595254
0.562432 0.0822003 0.0573587
0.601083 0.0505684 0.0577859
0.626184 0.0303502 0.063508
0.615732 0.0289616 0.0682231
0.610605 0.0288548 0.0703593
0.605234 0.0294804 0.0727703
0.598672 0.0297856 0.074342
0.597482 0.0297093 0.0743114
0.597391 0.029572 0.0741588
0.59765 0.0292058 0.0737469
0.597971 0.0286259 0.0732586
0.599222 0.0280919 0.0728313
0.604715 0.0284276 0.0720989
0.608743 0.0285039 0.071397
0.613901 0.0281987 0.0696727
0.0412451 0.257191 0.0976577
0.04094 0.255421 0.0938125
0.040589 0.253254 0.0903334
0.0399023 0.252399 0.088014
0.0392615 0.251957 0.0859083
0.0379339 0.250324 0.0808881
0.037705 0.248493 0.0798047
0.0374151 0.246433 0.0789654
0.0377661 0.240818 0.0720226
0.050721 0.24126 0.068452
0.0875563 0.250446 0.0731365
0.117647 0.252995 0.071046
0.229923 0.237888 0.0356146
0.329961 0.215915 0.0488899
0.383795 0.211353 0.0614481
0.444404 0.193011 0.0783551
0.500832 0.175418 0.0829328
0.541314 0.163668 0.085481
0.59118 0.145586 0.0853895
0.646677 0.118883 0.0781567
0.688441 0.0886549 0.0808576
0.682368 0.0643015 0.0746319
0.668971 0.0537881 0.069749
0.657343 0.044419 0.0668956
0.64564 0.0369116 0.064271
0.638285 0.0317693 0.0628214
0.633448 0.0305943 0.0636606
0.635142 0.0305638 0.0637064
0.638392 0.0309606 0.0638285
0.641962 0.03122 0.0635386
0.645548 0.0313878 0.0627909
0.648539 0.0319066 0.0623178
0.655894 0.0392767 0.0660716
0.0486763 0.315251 0.123064
0.0483711 0.313085 0.118212
0.0476844 0.310826 0.113695
0.0475471 0.30988 0.109987
0.0469673 0.309468 0.108644
0.0464332 0.309651 0.107485
0.0457618 0.30901 0.103838
0.0456397 0.30721 0.100786
0.045304 0.305028 0.0999008
0.0452583 0.298756 0.0910201
0.0640726 0.300725 0.0831464
0.109743 0.310872 0.0876631
0.154757 0.312428 0.0835431
0.292058 0.294408 0.0384833
0.391867 0.274372 0.0540627
0.447593 0.270726 0.0751354
0.504936 0.259358 0.0944533
0.562615 0.23653 0.108843
0.6047 0.223835 0.10901
0.660395 0.203082 0.10721
0.720088 0.173114 0.10454
0.737408 0.147356 0.0978408
0.732677 0.138369 0.0949874
0.73109 0.132387 0.0975204
0.727352 0.12781 0.0975052
0.72343 0.123095 0.0957198
0.718837 0.116823 0.093843
0.715328 0.110872 0.0916304
0.712047 0.106981 0.0890822
0.713024 0.108156 0.0890059
0.716686 0.112184 0.0898146
0.719997 0.115755 0.0899062
0.724071 0.119493 0.0906233
0.0600595 0.375418 0.161807
0.0597238 0.374365 0.155901
0.059205 0.371878 0.149981
0.0588846 0.369848 0.144656
0.0588693 0.3691 0.140627
0.0583658 0.368475 0.138048
0.0579538 0.368353 0.136553
0.0577096 0.368307 0.133791
0.0569772 0.367025 0.128664
0.0565499 0.364202 0.127275
0.0568704 0.357473 0.115251
0.0858167 0.361471 0.102602
0.145403 0.37171 0.108797
0.20708 0.37261 0.0986801
0.354925 0.353017 0.0441901
0.452857 0.334722 0.0605783
0.51017 0.331868 0.0943313
0.564523 0.329305 0.117449
0.620539 0.307774 0.143603
0.670481 0.291371 0.141466
0.720989 0.269001 0.135119
0.750835 0.24799 0.130343
0.749737 0.235859 0.12604
0.748608 0.226276 0.122988
0.748272 0.218753 0.120226
0.746715 0.213123 0.11809
0.747082 0.20885 0.117449
0.745678 0.20444 0.115129
0.746944 0.201053 0.115175
0.745785 0.195682 0.112779
0.74641 0.189944 0.112062
0.746563 0.191638 0.112108
0.747448 0.195377 0.11249
0.0790875 0.438285 0.215686
0.078706 0.436698 0.210834
0.0783856 0.435264 0.205463
0.0773632 0.433646 0.19913
0.0767681 0.431861 0.193606
0.0760967 0.430274 0.187259
0.076524 0.42948 0.183734
0.0763256 0.429068 0.181109
0.0757916 0.429603 0.178408
0.0754559 0.428656 0.172152
0.0742962 0.425025 0.168429
0.0764019 0.417212 0.148516
0.1178 0.424796 0.132082
0.198947 0.432807 0.137804
0.266407 0.433936 0.115862
0.416175 0.413855 0.0580911
0.515419 0.397482 0.0726635
0.569375 0.395956 0.116548
0.621866 0.398367 0.146975
0.676081 0.381765 0.174044
0.724208 0.360891 0.184894
0.758679 0.34406 0.178271
0.759319 0.333394 0.172183
0.758663 0.326665 0.167346
0.757687 0.321141 0.164508
0.757366 0.317662 0.162722
0.757458 0.314488 0.16054
0.756909 0.311437 0.158404
0.756817 0.307729 0.156985
0.756176 0.303975 0.154955
0.755749 0.297841 0.151919
0.755673 0.291234 0.148913
0.755306 0.285161 0.145617
0.11075 0.505898 0.282063
0.109865 0.50457 0.277668
0.108812 0.502922 0.271839
0.107805 0.501167 0.265538
0.106859 0.500008 0.260273
0.105623 0.498009 0.25388
0.104601 0.496162 0.247868
0.10367 0.494667 0.24155
0.103029 0.493278 0.235233
0.102174 0.493767 0.233326
0.102052 0.49308 0.227573
0.101045 0.489525 0.224567
0.103243 0.478859 0.196902
0.170596 0.489632 0.178408
0.260609 0.495842 0.184283
0.328954 0.496834 0.144472
0.478996 0.476143 0.0819562
0.573953 0.461753 0.0914778
0.625986 0.462531 0.139452
0.676432 0.465095 0.183459
0.724773 0.45713 0.205676
0.76144 0.437858 0.219333
0.77023 0.428687 0.223163
0.769085 0.422934 0.222049
0.768139 0.419409 0.221424
0.767391 0.415686 0.220676
0.766964 0.412772 0.219333
0.766934 0.410056 0.217807
0.767071 0.407355 0.216205
0.766613 0.404059 0.214389
0.766339 0.398581 0.211612
0.765621 0.389899 0.2065
0.765118 0.377356 0.198795
0.143114 0.571862 0.351171
0.143709 0.571206 0.346899
0.143954 0.570275 0.343252
0.144671 0.569696 0.338918
0.145006 0.5682 0.3346
0.144121 0.566415 0.328344
0.143389 0.565103 0.322942
0.142092 0.562951 0.315801
0.1411 0.560815 0.306859
0.139208 0.558801 0.297154
0.137469 0.55906 0.293004
0.136141 0.558618 0.289219
0.134447 0.554314 0.28333
0.137728 0.542062 0.243717
0.245884 0.554482 0.231083
0.32604 0.560174 0.231327
0.395407 0.558556 0.181186
0.539101 0.539467 0.114137
0.62948 0.526482 0.115282
0.678889 0.526864 0.168429
0.726253 0.530343 0.215366
0.762783 0.528756 0.239124
0.782132 0.52224 0.247974
0.78204 0.516381 0.246708
0.78175 0.51165 0.245686
0.781415 0.50779 0.244251
0.780758 0.504036 0.242618
0.780926 0.501259 0.241978
0.780652 0.497963 0.240482
0.780056 0.493324 0.239063
0.77995 0.487861 0.238544
0.779385 0.479881 0.235828
0.778347 0.467277 0.232212
0.179583 0.635309 0.417487
0.180148 0.634592 0.414572
0.180514 0.63386 0.410727
0.18085 0.633143 0.406683
0.18146 0.632441 0.403311
0.182269 0.631754 0.399313
0.182879 0.630579 0.395514
0.183902 0.629984 0.390417
0.184909 0.629191 0.383703
0.183352 0.626261 0.372564
0.181842 0.624353 0.360235
0.178622 0.623438 0.350805
0.175387 0.621057 0.346975
0.175418 0.615183 0.337774
0.195163 0.606165 0.290837
0.325689 0.620737 0.289586
0.392157 0.624063 0.279164
0.460914 0.618906 0.223301
0.592721 0.60119 0.156161
0.679225 0.588312 0.148165
0.72607 0.588067 0.205661
0.762875 0.593835 0.242649
0.789502 0.594919 0.277073
0.794858 0.592309 0.282673
0.794232 0.588327 0.280354
0.793698 0.584924 0.279057
0.793729 0.582437 0.277211
0.793179 0.580026 0.275486
0.792309 0.575875 0.273426
0.792111 0.573007 0.271794
0.791363 0.56791 0.269017
0.790265 0.561135 0.264759
0.789181 0.551034 0.260288
0.215717 0.696071 0.4822
0.215595 0.695476 0.47866
0.215564 0.695171 0.475792
0.215625 0.694759 0.472847
0.215641 0.694026 0.469215
0.215854 0.693416 0.465919
0.216678 0.692592 0.46247
0.217975 0.692088 0.458549
0.219715 0.6916 0.453727
0.222477 0.691234 0.447257
0.22417 0.690883 0.437659
0.22208 0.687648 0.42089
0.218235 0.685802 0.406622
0.216571 0.681239 0.402335
0.223392 0.67422 0.387625
0.280644 0.672892 0.349462
0.407263 0.682185 0.35201
0.454246 0.683726 0.332662
0.518883 0.675868 0.273762
0.639323 0.661662 0.216068
0.725139 0.64683 0.20827
0.762707 0.647578 0.24744
0.789303 0.655604 0.283421
0.80322 0.660533 0.303258
0.805066 0.657404 0.304585
0.805249 0.654902 0.304219
0.804395 0.651667 0.301854
0.804288 0.648341 0.300542
0.803815 0.645762 0.298985
0.803525 0.641382 0.297139
0.802029 0.636072 0.294102
0.80145 0.629831 0.291096
0.800275 0.619867 0.286702
0.241062 0.750439 0.541543
0.241123 0.750408 0.539956
0.241352 0.750317 0.537194
0.241688 0.749889 0.5346
0.241901 0.749386 0.532219
0.242115 0.748699 0.52903
0.242405 0.747936 0.526375
0.24329 0.747997 0.523888
0.244739 0.747173 0.518883
0.246647 0.746349 0.512978
0.249149 0.745525 0.504875
0.253437 0.744671 0.493935
0.255726 0.744244 0.479713
0.252995 0.740429 0.468376
0.254566 0.733242 0.454597
0.277119 0.725292 0.433356
0.387381 0.73196 0.416999
0.484871 0.736751 0.421241
0.519646 0.737896 0.397116
0.572702 0.730877 0.341192
0.687694 0.720241 0.290959
0.756954 0.705943 0.290303
0.791119 0.706783 0.3084
0.810681 0.715602 0.335531
0.816052 0.716899 0.342718
0.815808 0.714702 0.340551
0.815885 0.712001 0.338643
0.814908 0.70901 0.335927
0.81384 0.705776 0.33341
0.813794 0.702831 0.331426
0.812451 0.699046 0.327565
0.811566 0.693217 0.323919
0.809964 0.683635 0.31754
0.25832 0.790814 0.597803
0.258244 0.790982 0.596948
0.258396 0.790539 0.594141
0.258686 0.790204 0.59173
0.258808 0.789944 0.589746
0.259312 0.789715 0.587228
0.259754 0.78967 0.585428
0.260761 0.78938 0.582483
0.26183 0.788769 0.578546
0.263325 0.787778 0.573343
0.264561 0.786648 0.566293
0.267872 0.785412 0.557244
0.272892 0.784161 0.543709
0.277073 0.781811 0.531243
0.281773 0.777478 0.520546
0.295903 0.76759 0.492592
0.353582 0.766125 0.480232
0.487465 0.776394 0.486992
0.556329 0.780728 0.491051
0.586465 0.782544 0.468956
0.63154 0.776226 0.417868
0.731472 0.76846 0.37818
0.787869 0.756725 0.379919
0.813596 0.757763 0.389151
0.826139 0.761273 0.39559
0.828122 0.760449 0.394965
0.827298 0.7579 0.390524
0.826093 0.755642 0.386175
0.82565 0.753338 0.382666
0.825269 0.750774 0.377829
0.823621 0.746914 0.371481
0.822843 0.742321 0.366308
0.821149 0.733989 0.357748
0.263157 0.819821 0.645319
0.263645 0.819699 0.644297
0.26453 0.819379 0.641962
0.265629 0.818921 0.639521
0.26656 0.818433 0.637797
0.267216 0.817899 0.636561
0.268605 0.817365 0.633829
0.270054 0.816663 0.631052
0.271061 0.816052 0.627741
0.271931 0.815534 0.622919
0.273259 0.815061 0.617792
0.276051 0.814343 0.610162
0.279194 0.813382 0.599527
0.282567 0.811337 0.587625
0.284962 0.807523 0.577264
0.307912 0.80087 0.554421
0.362417 0.79556 0.533089
0.46154 0.801068 0.542046
0.566949 0.811566 0.552361
0.620691 0.816403 0.555444
0.647715 0.8177 0.533074
0.688869 0.812528 0.490913
0.765957 0.805982 0.460914
0.811337 0.796811 0.462287
0.83241 0.796475 0.468986
0.837476 0.795804 0.468788
0.837156 0.793881 0.463935
0.836469 0.791653 0.458213
0.836072 0.789319 0.453285
0.835309 0.786969 0.447868
0.834684 0.783902 0.440238
0.833127 0.779187 0.430335
0.832227 0.772854 0.416419
0.2645 0.831708 0.669642
0.265278 0.831708 0.668528
0.265965 0.831754 0.667567
0.266911 0.831785 0.666117
0.267704 0.8318 0.664836
0.268727 0.831754 0.663569
0.269871 0.831647 0.662577
0.27158 0.831418 0.661311
0.273152 0.831357 0.659098
0.276081 0.831006 0.655879
0.279759 0.830488 0.652628
0.284489 0.829999 0.647028
0.287938 0.829801 0.640101
0.291402 0.829602 0.631998
0.292241 0.828534 0.625864
0.301839 0.823377 0.607782
0.353384 0.81706 0.577615
0.447089 0.818463 0.578759
0.557031 0.829877 0.6
0.635554 0.8365 0.61088
0.681285 0.842634 0.611399
0.706889 0.843915 0.589319
0.740902 0.838621 0.553735
0.793667 0.834882 0.531563
0.827039 0.829389 0.532982
0.840345 0.827451 0.534951
0.843 0.825605 0.532082
0.842206 0.823301 0.526757
0.842283 0.82092 0.520897
0.842313 0.818479 0.515785
0.841596 0.815213 0.508888
0.841199 0.811719 0.500938
0.840192 0.805661 0.488106
0.26273 0.831891 0.671077
0.26331 0.831891 0.67042
0.263844 0.831968 0.669642
0.264485 0.832029 0.668498
0.265385 0.832029 0.667384
0.266377 0.832013 0.665995
0.267613 0.831937 0.664561
0.269245 0.831754 0.663066
0.27158 0.831418 0.661326
0.273976 0.83125 0.65832
0.277729 0.830747 0.654582
0.282368 0.830259 0.649271
0.287098 0.82977 0.642863
0.290867 0.829679 0.633417
0.292927 0.829496 0.629801
0.295232 0.829862 0.626261
0.328145 0.827436 0.610574
0.431235 0.826307 0.603571
0.535332 0.834546 0.623209
0.620645 0.844068 0.642832
0.691051 0.851164 0.657664
0.729244 0.859083 0.654353
0.751308 0.860975 0.635248
0.781353 0.861982 0.617426
0.815488 0.860014 0.603357
0.839384 0.857435 0.605341
0.844739 0.854994 0.601755
0.844526 0.852659 0.596033
0.844541 0.850523 0.590112
0.844251 0.847791 0.582956
0.844648 0.84538 0.576242
0.843458 0.841138 0.567056
0.843732 0.836347 0.555932
0.260685 0.832105 0.673075
0.261555 0.832135 0.671626
0.262364 0.832135 0.670802
0.263035 0.832181 0.670008
0.263676 0.832212 0.669108
0.264424 0.832212 0.66807
0.26569 0.832105 0.666606
0.267445 0.831968 0.664683
0.269581 0.831708 0.662745
0.272374 0.831403 0.660349
0.275914 0.831052 0.65597
0.280568 0.830442 0.651469
0.286442 0.82974 0.644999
0.28986 0.829694 0.636118
0.292531 0.829587 0.630182
0.294728 0.82977 0.62797
0.318318 0.829267 0.617075
0.407843 0.82707 0.60589
0.51809 0.833341 0.623514
0.601968 0.844907 0.650339
0.679973 0.852949 0.669291
0.733944 0.862913 0.683497
0.762539 0.870649 0.679469
0.779477 0.873564 0.668956
0.805356 0.876432 0.659876
0.832883 0.879957 0.663996
0.846357 0.880415 0.668528
0.847822 0.879316 0.664851
0.847501 0.877821 0.660655
0.846693 0.875547 0.654185
0.846891 0.873549 0.647349
0.846677 0.86981 0.638163
0.846281 0.86453 0.623911
0.259312 0.832273 0.674662
0.260014 0.832288 0.673426
0.260777 0.832364 0.671992
0.261631 0.832364 0.670985
