luts/phantom/VisionTeal V-Log Legacy.cube
TITLE "Generated by Resolve"
LUT_3D_SIZE 33
0.0233616 0.0432593 0.0413519
0.0233768 0.0432441 0.0413519
0.0234226 0.0432288 0.0413214
0.0293584 0.0429541 0.0411688
0.0397192 0.0424811 0.0406043
0.0496834 0.0425727 0.0395972
0.0640269 0.0426032 0.0381323
0.0803082 0.0410773 0.0356603
0.100893 0.0396582 0.0337072
0.123369 0.0382849 0.0322881
0.153567 0.0370184 0.031281
0.194812 0.0335241 0.0298466
0.237766 0.0299229 0.0281376
0.285145 0.027039 0.0269169
0.33019 0.0231479 0.026978
0.37229 0.0191958 0.0270542
0.411948 0.0170138 0.0299992
0.45098 0.0164797 0.0373541
0.492882 0.0152438 0.04654
0.534264 0.0139925 0.0603952
0.5691 0.0199893 0.0801099
0.58555 0.0278325 0.0961776
0.586847 0.0289006 0.0989853
0.587747 0.0298619 0.100603
0.588129 0.0299535 0.101488
0.588281 0.0299535 0.102419
0.58854 0.0301366 0.102937
0.588586 0.0301366 0.103044
0.587976 0.0297398 0.103075
0.587488 0.0296178 0.103761
0.587304 0.029984 0.105226
0.586999 0.030396 0.106905
0.585214 0.0287327 0.106828
0.0236973 0.0431678 0.0411688
0.0234531 0.0432288 0.0413214
0.0234836 0.043183 0.0412451
0.0294804 0.0429999 0.0412299
0.0394141 0.0429999 0.0408789
0.0491798 0.0433356 0.0401007
0.0630198 0.0433814 0.0390631
0.0796063 0.0417639 0.0363012
0.100084 0.0404364 0.0347753
0.123217 0.0389563 0.0328832
0.155322 0.0371557 0.031754
0.197162 0.0332189 0.0297246
0.241382 0.0297704 0.0281834
0.287495 0.0265965 0.0270848
0.333135 0.0229191 0.0269169
0.374777 0.019089 0.0270695
0.414267 0.0170596 0.0302586
0.45362 0.0164034 0.0376745
0.495659 0.0166476 0.0508431
0.5402 0.0170596 0.0669871
0.569604 0.0192721 0.0791943
0.580148 0.0234073 0.0859236
0.579614 0.0225376 0.0863355
0.586496 0.0285954 0.0978866
0.586877 0.0288548 0.099321
0.587518 0.0296025 0.100252
0.587777 0.0298314 0.100679
0.587091 0.0288701 0.100084
0.586816 0.0287938 0.100282
0.586496 0.028809 0.101228
0.586191 0.0292668 0.102846
0.585214 0.028397 0.103593
0.58323 0.0269017 0.103441
0.023682 0.0431678 0.0411841
0.0234379 0.0432288 0.0413062
0.0233921 0.0432441 0.0413367
0.0235294 0.0429999 0.0408484
0.0358129 0.0440681 0.0412757
0.0455024 0.0444648 0.0405127
0.057908 0.0450141 0.0401923
0.0749523 0.0434272 0.0378119
0.0969253 0.0418097 0.0359808
0.120806 0.039704 0.0336156
0.153613 0.0376135 0.032166
0.195377 0.0342107 0.0302434
0.241505 0.0306706 0.0285801
0.289845 0.0265507 0.0271153
0.334936 0.0227665 0.0269169
0.37554 0.0191501 0.0272374
0.415045 0.0171664 0.0305486
0.454597 0.016495 0.0380713
0.497368 0.0166934 0.0515908
0.541344 0.0168612 0.0671855
0.573632 0.0225528 0.0846723
0.580026 0.0228733 0.0869154
0.578302 0.0211185 0.0839094
0.58146 0.0242466 0.0874189
0.585702 0.027985 0.0963607
0.586252 0.0284123 0.0974136
0.586007 0.0281071 0.097261
0.585626 0.0277409 0.096788
0.58558 0.027985 0.0979324
0.585458 0.0281224 0.0993362
0.584695 0.0276188 0.0999161
0.583124 0.0264439 0.100282
0.581842 0.0254215 0.100847
0.0238346 0.0438697 0.0414893
0.0235599 0.0439002 0.041474
0.023621 0.0437781 0.041474
0.0238193 0.0436255 0.0414588
0.0307317 0.0451514 0.0411994
0.0402228 0.046128 0.0412909
0.0528115 0.0467384 0.0404822
0.0700236 0.0450446 0.0386969
0.0932784 0.0433051 0.0370794
0.118029 0.0407568 0.0345617
0.151308 0.0391089 0.0325017
0.194553 0.0350958 0.0306706
0.241688 0.0306859 0.0288548
0.290517 0.0272831 0.0273747
0.33579 0.022797 0.0271458
0.376959 0.0190433 0.0272679
0.415808 0.0171664 0.0306401
0.455589 0.0166629 0.0387121
0.499123 0.0166781 0.0521248
0.542809 0.0176852 0.0692302
0.574426 0.022797 0.0852216
0.579431 0.0222171 0.0859541
0.577279 0.0202487 0.0822614
0.580987 0.0236057 0.0882124
0.579477 0.0223087 0.0861219
0.584161 0.0263828 0.0933394
0.58381 0.0259556 0.0928664
0.583947 0.0261692 0.0930495
0.584161 0.0265354 0.0946517
0.583749 0.0263676 0.0958419
0.582956 0.0258488 0.0969558
0.581796 0.024918 0.0982223
0.581537 0.0250553 0.100603
0.0239567 0.0549325 0.0428321
0.0229496 0.0539101 0.0412299
0.0234531 0.0525368 0.041062
0.0266728 0.0504311 0.0410925
0.0304723 0.0487984 0.0416419
0.0375525 0.050309 0.0430762
0.046067 0.0499428 0.0425574
0.0603189 0.0479286 0.0403296
0.0855879 0.0461128 0.0388342
0.114137 0.0422675 0.0358892
0.148775 0.0402228 0.0337682
0.194141 0.0365148 0.0312352
0.241382 0.0320897 0.0293736
0.290517 0.0272068 0.0276341
0.336507 0.0225223 0.0274052
0.377981 0.0188602 0.0272984
0.417212 0.0171359 0.0309148
0.456657 0.0167544 0.0393225
0.499916 0.016556 0.0522164
0.544198 0.0175174 0.0694743
0.575021 0.0229343 0.0855573
0.582086 0.0242924 0.090013
0.581842 0.0241398 0.089662
0.579782 0.0227054 0.0866407
0.578607 0.0214084 0.0845502
0.576898 0.0200046 0.0817121
0.582864 0.0247501 0.090837
0.583276 0.0252689 0.0918898
0.583154 0.0252995 0.092607
0.58265 0.0249485 0.0935531
0.581933 0.0247044 0.095079
0.581613 0.0247959 0.0982986
0.581415 0.024979 0.100771
0.0242924 0.0640421 0.0455329
0.0227207 0.0629129 0.043061
0.0226139 0.0615549 0.042771
0.0270848 0.0593576 0.0425422
0.0323339 0.0567788 0.0430152
0.0393378 0.0567941 0.0443122
0.0470436 0.0571908 0.0449531
0.0615091 0.0561532 0.0430304
0.0819257 0.0534066 0.0417029
0.109209 0.0487068 0.0390326
0.144228 0.043122 0.0350195
0.19292 0.0374456 0.0317845
0.241581 0.0335546 0.0299687
0.291707 0.0283513 0.0282139
0.337255 0.0230716 0.0278782
0.379507 0.0183108 0.0275578
0.41886 0.0171054 0.0317082
0.458442 0.0167086 0.0396582
0.500755 0.0164492 0.0525063
0.545403 0.01738 0.069749
0.576043 0.023209 0.0863355
0.582086 0.0242924 0.090013
0.581811 0.0241398 0.0896315
0.582086 0.0242924 0.090013
0.581064 0.0236362 0.0883192
0.57966 0.0225986 0.0865034
0.579217 0.0219272 0.0853742
0.582422 0.0244907 0.090425
0.582071 0.0243839 0.0911727
0.582025 0.0245365 0.0927443
0.581903 0.0247044 0.0953536
0.581567 0.0247959 0.0986648
0.581292 0.0249332 0.101045
0.0247196 0.0753185 0.047013
0.0221256 0.0741283 0.0446021
0.0221408 0.0725719 0.0445411
0.0245823 0.0707866 0.0449378
0.0323033 0.067155 0.0455634
0.037644 0.0661631 0.0452277
0.0489815 0.0653086 0.0463264
0.0626841 0.0648356 0.0439918
0.0850385 0.0628367 0.0427863
0.112276 0.0575723 0.0409247
0.14728 0.0518959 0.0364233
0.194919 0.0438239 0.0321965
0.241917 0.0366217 0.0301061
0.293385 0.0301213 0.0281987
0.340291 0.0242161 0.0279698
0.381598 0.0185397 0.0275731
0.420752 0.0169833 0.0319219
0.460975 0.016556 0.0399329
0.502068 0.0163119 0.052903
0.546975 0.017258 0.0700999
0.578088 0.0235447 0.0874037
0.582086 0.0242924 0.090013
0.582086 0.0242924 0.090013
0.582086 0.0242924 0.090013
0.58117 0.0236973 0.0884718
0.582086 0.0242924 0.090013
0.582086 0.0242924 0.090013
0.581476 0.0238956 0.0890516
0.582071 0.0243229 0.0903029
0.582071 0.0244297 0.0916762
0.58201 0.0245518 0.09308
0.581903 0.0247044 0.0953078
0.581643 0.0247654 0.0979782
0.0259709 0.0892042 0.0477302
0.0219425 0.0884871 0.0453346
0.0211795 0.0872511 0.0449531
0.0216068 0.0858778 0.0452888
0.0290074 0.0832837 0.0457771
0.0362707 0.0792859 0.0460212
0.045594 0.0790265 0.0472725
0.0629587 0.0776074 0.0464485
0.0833448 0.077348 0.0427558
0.109697 0.0744488 0.0433356
0.151812 0.0642252 0.0398871
0.198245 0.0567178 0.0347448
0.247425 0.0470588 0.0310521
0.296407 0.0376745 0.02916
0.338827 0.0272068 0.0285039
0.383444 0.0200351 0.0284276
0.422156 0.0171511 0.0325475
0.462394 0.0167544 0.0410468
0.503426 0.0164797 0.0543069
0.547768 0.0172885 0.0708171
0.580255 0.0240024 0.0893263
0.58204 0.0243229 0.0901808
0.582055 0.0243076 0.0901198
0.582055 0.0242924 0.0900435
0.582086 0.0242924 0.090013
0.582086 0.0242924 0.090013
0.582086 0.0242924 0.090013
0.58204 0.0243229 0.0901808
0.58201 0.0243839 0.0906996
0.58201 0.0244602 0.0919051
0.581994 0.024567 0.0932174
0.581888 0.0247044 0.0953231
0.581628 0.0247807 0.0979629
0.0262455 0.106584 0.0503853
0.0221408 0.105379 0.0472725
0.0203555 0.104067 0.0453803
0.0199435 0.102617 0.0451667
0.0234531 0.101091 0.0456855
0.0314946 0.0985733 0.0457618
0.0424659 0.0956741 0.0481727
0.0568093 0.0951705 0.0489662
0.0800031 0.0940566 0.046128
0.107912 0.0917983 0.0425727
0.144366 0.0869459 0.042771
0.20676 0.06981 0.0383612
0.255512 0.061326 0.0337072
0.304799 0.0511482 0.0310369
0.347539 0.0402686 0.0296025
0.383581 0.0267948 0.029221
0.422248 0.0179446 0.0310216
0.463462 0.0169223 0.0417792
0.505241 0.0165866 0.0551614
0.548516 0.0175631 0.072282
0.581872 0.0244602 0.0913405
0.581872 0.0244602 0.091249
0.581872 0.0244602 0.0911727
0.581872 0.0244602 0.0911116
0.581857 0.024445 0.0910201
0.581872 0.024445 0.0909743
0.581872 0.0244297 0.0909133
0.581903 0.0244297 0.0910201
0.581933 0.024445 0.0914015
0.581979 0.0244907 0.0921035
0.581964 0.024567 0.0931716
0.581918 0.0247196 0.0951095
0.581674 0.0247807 0.0976425
0.0261845 0.128542 0.0531777
0.0227359 0.127687 0.0499123
0.0196994 0.126284 0.0465553
0.019501 0.125124 0.0458076
0.0195926 0.123781 0.0457771
0.0248264 0.122026 0.0454719
0.0357671 0.118807 0.0473945
0.0511482 0.116594 0.0502022
0.072694 0.114916 0.0509499
0.101884 0.114458 0.0430152
0.144411 0.109026 0.0416571
0.199268 0.0998856 0.0420539
0.267521 0.0806134 0.0380407
0.318273 0.0719158 0.0346838
0.361593 0.0605631 0.0323491
0.398917 0.0474708 0.0322423
0.43151 0.032166 0.032578
0.464073 0.0183566 0.0371252
0.50486 0.0165255 0.0521706
0.549889 0.0173953 0.0717784
0.582635 0.0239567 0.0903029
0.582055 0.0243534 0.091249
0.581918 0.024445 0.0914168
0.581918 0.0244602 0.0914626
0.581918 0.0244602 0.0914931
0.582132 0.0243687 0.0913863
0.581903 0.0244602 0.0915694
0.581918 0.0244602 0.0916304
0.581949 0.0244755 0.0918441
0.581964 0.024506 0.0923171
0.581979 0.0245975 0.0933547
0.581979 0.0246891 0.0951095
0.583062 0.0241855 0.0959182
0.0210575 0.160327 0.0537881
0.0194095 0.15845 0.0500191
0.0191958 0.156069 0.0475624
0.0191653 0.155032 0.0457465
0.0191958 0.15407 0.0450752
0.0192569 0.152621 0.0452888
0.023209 0.150378 0.0453803
0.0349737 0.146349 0.0462043
0.0595102 0.145068 0.050782
0.0895552 0.143389 0.0521401
0.128511 0.142275 0.0400702
0.198459 0.132906 0.0407263
0.261555 0.123674 0.0451514
0.334844 0.101732 0.0423285
0.382895 0.0923629 0.0403601
0.422156 0.081117 0.0398566
0.453544 0.0639658 0.0385748
0.486122 0.0414435 0.0392157
0.518563 0.0204776 0.042237
0.557717 0.0176547 0.0657054
0.590066 0.0221103 0.0865187
0.584924 0.0230259 0.0885634
0.584024 0.0228275 0.0890516
0.583719 0.0230869 0.0893721
0.583261 0.0235752 0.0898909
0.582956 0.0239414 0.0905165
0.582345 0.0242924 0.0913558
0.583169 0.0242008 0.0907149
0.584085 0.0237583 0.0898299
0.58555 0.023209 0.0894636
0.586877 0.0226444 0.0895705
0.58706 0.0219577 0.0907149
0.588174 0.0213474 0.0918593
0.0187381 0.203296 0.0580301
0.0188144 0.200244 0.0532845
0.0188144 0.198428 0.0496223
0.0188296 0.19736 0.0482338
0.0188296 0.195575 0.0472114
0.0187076 0.194125 0.0468452
0.0186618 0.192798 0.0468299
0.0187839 0.188876 0.043122
0.0334478 0.184894 0.0434882
0.0700542 0.187259 0.0493172
0.109407 0.186999 0.0528115
0.168872 0.183093 0.0373693
0.261387 0.176318 0.043183
0.330892 0.16965 0.0538491
0.407065 0.145663 0.0580148
0.455924 0.133165 0.0577096
0.49247 0.121492 0.0586252
0.52668 0.099321 0.0583047
0.5617 0.0693675 0.0560464
0.591775 0.0274357 0.0508736
0.620676 0.0238804 0.0776684
0.610254 0.0222171 0.081239
0.60499 0.0214237 0.082414
0.598795 0.0218051 0.0845045
0.59292 0.0221408 0.0856336
0.591684 0.0220188 0.0855421
0.591699 0.0218662 0.0854047
0.591943 0.0214237 0.0850843
0.592584 0.0208133 0.0847486
0.596994 0.0209964 0.0847028
0.602518 0.0213626 0.0844434
0.609293 0.0222477 0.0852827
0.613504 0.022797 0.0866102
0.0242924 0.259022 0.0757
0.025391 0.258167 0.073991
0.0246128 0.255528 0.0702068
0.0228428 0.253971 0.0672618
0.0220645 0.253147 0.0644846
0.0219883 0.251423 0.0607614
0.0218509 0.24979 0.0597086
0.0218662 0.247791 0.0592813
0.0240482 0.241642 0.0521553
0.0428321 0.238849 0.0490425
0.0928817 0.242847 0.0572366
0.148074 0.241337 0.0603189
0.221012 0.229938 0.0398108
0.324514 0.228092 0.0467384
0.390311 0.225742 0.0587015
0.462593 0.205859 0.0717632
0.518929 0.187396 0.0756237
0.558572 0.174762 0.0785534
0.605127 0.15108 0.08336
0.650828 0.113588 0.0818036
0.683146 0.070161 0.0825971
0.672633 0.0398413 0.0715953
0.657816 0.0314183 0.0680552
0.648035 0.0296178 0.0723125
0.638285 0.0267796 0.0752728
0.631022 0.0247654 0.0762341
0.626703 0.0236362 0.0773022
0.628824 0.0235752 0.0773022
0.632517 0.024033 0.0775006
0.637415 0.0244297 0.0778058
0.641337 0.0251316 0.0785382
0.648966 0.0295567 0.0781567
0.658167 0.0352026 0.0785077
0.0319829 0.316777 0.0969711
0.0319371 0.315175 0.0934157
0.0316167 0.313146 0.0894942
0.0308385 0.311162 0.0850538
0.0297551 0.310323 0.0834363
0.0292668 0.310307 0.0816052
0.0290837 0.309026 0.0778668
0.029099 0.307195 0.074815
0.0296788 0.305303 0.0746471
0.0308232 0.297673 0.0646983
0.0576944 0.294697 0.0567025
0.121324 0.299138 0.0662394
0.199771 0.294301 0.0663157
0.280476 0.284138 0.0417945
0.383383 0.285008 0.0526894
0.449042 0.289555 0.0682689
0.520363 0.278737 0.0923018
0.582467 0.253697 0.103487
0.624277 0.242023 0.104234
0.677592 0.21976 0.10367
0.728756 0.181552 0.108049
0.741421 0.147799 0.104631
0.735042 0.133318 0.104189
0.729931 0.125612 0.103822
0.724819 0.118944 0.103014
0.719417 0.111986 0.10103
0.714672 0.104189 0.0986191
0.710292 0.0977035 0.0952926
0.707149 0.0919509 0.0926986
0.709087 0.0952316 0.0935073
0.714168 0.101564 0.0952163
0.719844 0.107286 0.0966964
0.725048 0.112612 0.0974594
0.0420386 0.377325 0.12639
0.041825 0.376303 0.122576
0.0412604 0.374411 0.117678
0.0410925 0.372183 0.113313
0.0409552 0.370291 0.109377
0.0404517 0.368948 0.106661
0.0400397 0.368795 0.105211
0.040177 0.368551 0.102174
0.0401617 0.367147 0.0967422
0.0399481 0.364172 0.0958419
0.042359 0.355566 0.0838483
0.0799725 0.350866 0.0686351
0.167056 0.353704 0.0803388
0.254078 0.348684 0.0755322
0.340322 0.339178 0.0493172
0.441962 0.343664 0.0643931
0.508186 0.353887 0.0839246
0.577523 0.352392 0.115373
0.641093 0.330556 0.140932
0.693217 0.31693 0.139361
0.742687 0.296956 0.135424
0.769329 0.273777 0.132189
0.766705 0.259052 0.127184
0.764508 0.247425 0.124422
0.762829 0.237903 0.122438
0.76144 0.231235 0.120821
0.760021 0.225559 0.11989
0.759167 0.220371 0.118685
0.757885 0.215412 0.117678
0.75758 0.209079 0.117067
0.755795 0.200443 0.115434
0.757366 0.207156 0.116426
0.759655 0.21619 0.118807
0.0558022 0.442039 0.17174
0.0581369 0.440711 0.169238
0.0575723 0.438865 0.163439
0.0580301 0.437415 0.157687
0.0588846 0.435035 0.152453
0.0588388 0.4327 0.146365
0.059266 0.431418 0.141955
0.0586557 0.430533 0.138842
0.0587778 0.430564 0.136004
0.0594644 0.428229 0.129107
0.0594339 0.425086 0.127398
0.0636301 0.413687 0.107713
0.114275 0.408408 0.0878309
0.231144 0.40676 0.0982223
0.315099 0.403418 0.0867323
0.401266 0.394781 0.0641184
0.50161 0.402823 0.0850996
0.565179 0.416785 0.106508
0.632013 0.424781 0.141924
0.697261 0.411261 0.176135
0.749432 0.393149 0.188296
0.782727 0.379309 0.183383
0.783383 0.368582 0.177035
0.782452 0.361105 0.172915
0.781521 0.355795 0.168627
0.78143 0.352148 0.166598
0.780224 0.348226 0.164599
0.779858 0.345174 0.16321
0.779934 0.341909 0.161364
0.778286 0.336858 0.157809
0.778042 0.331075 0.155581
0.777478 0.323507 0.152087
0.777096 0.318273 0.149813
0.0701457 0.511696 0.232166
0.068864 0.510826 0.227924
0.0668498 0.508949 0.222568
0.0670787 0.50692 0.216831
0.0748455 0.504936 0.21532
0.0814984 0.502693 0.213001
0.0831617 0.500404 0.20708
0.0847181 0.498146 0.199573
0.0857099 0.495598 0.192523
0.0856489 0.495857 0.190143
0.0864424 0.494072 0.182086
0.0861982 0.490257 0.177844
0.0931868 0.474235 0.141344
0.167971 0.467964 0.116793
0.303883 0.463401 0.128908
0.378103 0.460395 0.106447
0.463249 0.454551 0.0914168
0.557977 0.463996 0.112123
0.620478 0.479774 0.13669
0.683009 0.494194 0.172839
0.745281 0.491112 0.209003
0.787594 0.476158 0.227924
0.796048 0.466819 0.230869
0.795529 0.461234 0.229892
0.794308 0.456825 0.227955
0.793667 0.453376 0.226886
0.793027 0.450141 0.225727
0.792355 0.447181 0.22446
0.792615 0.444694 0.223941
0.792538 0.441596 0.222599
0.79147 0.43566 0.218967
0.790646 0.426856 0.213962
0.789441 0.414145 0.206409
0.103944 0.581842 0.306645
0.101076 0.581109 0.302358
0.0986038 0.580682 0.298161
0.0959793 0.579858 0.293538
0.0947127 0.578561 0.28835
0.0940719 0.576394 0.281758
0.0934615 0.574289 0.27422
0.0931258 0.571466 0.265232
0.105348 0.567926 0.261448
0.112383 0.564645 0.252934
0.112627 0.563958 0.247654
0.113359 0.562203 0.242618
0.113222 0.556741 0.236561
0.126085 0.535958 0.185504
0.253025 0.524483 0.157809
0.377066 0.520928 0.1673
0.444785 0.518914 0.131701
0.52166 0.513939 0.119661
0.61117 0.5252 0.143038
0.671214 0.54049 0.173526
0.72987 0.557839 0.202853
0.778912 0.563638 0.236408
0.805142 0.560372 0.254246
0.806897 0.555947 0.254566
0.805859 0.550546 0.252811
0.806195 0.547478 0.252201
0.805982 0.543938 0.251408
0.80528 0.540352 0.250324
0.805524 0.537606 0.249836
0.805219 0.533303 0.249012
0.805051 0.527718 0.247929
0.80444 0.519356 0.246494
0.803861 0.50695 0.243458
0.139681 0.651469 0.379446
0.136187 0.65124 0.37644
0.133394 0.65098 0.3738
0.131136 0.650446 0.369802
0.129183 0.650172 0.366247
0.127825 0.649363 0.36144
0.126604 0.648112 0.356588
0.125322 0.646448 0.349035
0.12401 0.644953 0.33904
0.123873 0.641199 0.32549
0.128145 0.636652 0.311116
0.142168 0.632975 0.304189
0.141787 0.630076 0.300816
0.145434 0.621134 0.288151
0.181201 0.596597 0.226368
0.345602 0.582101 0.210315
0.444297 0.579767 0.206638
0.506508 0.576425 0.163928
0.575235 0.571756 0.155627
0.659754 0.582971 0.183825
0.717128 0.597345 0.21384
0.763699 0.614725 0.239109
0.799893 0.626749 0.266529
0.807538 0.625971 0.272068
0.808408 0.623133 0.271717
0.808118 0.62031 0.270665
0.808255 0.617548 0.269566
0.808255 0.614969 0.26862
0.80856 0.612482 0.267659
0.808743 0.608988 0.26688
0.808072 0.604318 0.264851
0.808576 0.598169 0.263661
0.808545 0.588983 0.262104
0.175952 0.718242 0.447227
0.173297 0.718456 0.445304
0.170062 0.718898 0.443626
0.167315 0.719417 0.441581
0.166049 0.719509 0.438972
0.164172 0.718822 0.435737
0.162173 0.717922 0.431189
0.160311 0.716838 0.426215
0.159091 0.715511 0.419257
0.15758 0.714916 0.409674
0.155566 0.713787 0.395544
0.152544 0.709346 0.374029
0.158785 0.70396 0.357382
0.16318 0.698146 0.353445
0.188128 0.682979 0.335119
0.26688 0.65449 0.271626
0.434379 0.638605 0.264668
0.503868 0.635904 0.252155
0.560189 0.630808 0.212421
0.624933 0.627771 0.20737
0.703502 0.63856 0.231479
0.751385 0.65127 0.260029
0.785275 0.666712 0.287221
0.80473 0.676509 0.30425
0.807691 0.675319 0.304448
0.807889 0.672831 0.302663
0.80766 0.6701 0.300175
0.807157 0.668223 0.298024
0.807965 0.666438 0.295842
0.80882 0.663417 0.294789
0.80766 0.659358 0.289845
0.808957 0.655512 0.287495
0.808545 0.647532 0.280598
0.21239 0.777966 0.514458
0.210208 0.778683 0.51313
0.207324 0.779507 0.512108
0.204715 0.779828 0.510369
0.202686 0.77998 0.508247
0.200961 0.779797 0.505974
0.199542 0.778943 0.502724
0.198917 0.778775 0.499519
0.197894 0.778042 0.494011
0.195483 0.776776 0.486397
0.193118 0.775845 0.475761
0.190219 0.774365 0.460304
0.184985 0.772717 0.439643
0.183536 0.768063 0.425406
0.185977 0.757107 0.405066
0.242557 0.735348 0.377844
0.379217 0.700511 0.327672
0.505226 0.691493 0.326986
0.557198 0.687892 0.312749
0.608743 0.68307 0.275822
0.67129 0.680766 0.270909
0.738521 0.691112 0.291981
0.778164 0.703441 0.317876
0.801785 0.71667 0.341253
0.808804 0.718944 0.347341
0.808438 0.717281 0.344686
0.80856 0.715496 0.343191
0.808728 0.713268 0.341756
0.808148 0.710536 0.338155
0.807584 0.70808 0.3355
0.80766 0.70573 0.333104
0.806653 0.700664 0.327184
0.807385 0.693996 0.320546
0.2439 0.823606 0.577554
0.242374 0.824338 0.576867
0.239963 0.824567 0.575311
0.238025 0.824811 0.574029
0.235996 0.824781 0.571984
0.234668 0.824338 0.569833
0.233646 0.824277 0.568109
0.23267 0.823545 0.564416
0.231876 0.82269 0.560052
0.231022 0.821912 0.553841
0.228901 0.820493 0.545022
0.225986 0.818799 0.533257
0.224231 0.817609 0.517098
0.220798 0.814359 0.499794
0.221271 0.807797 0.483574
0.234455 0.790356 0.439963
0.327214 0.764416 0.411261
0.477592 0.736996 0.387015
0.56495 0.736507 0.392935
0.607095 0.733089 0.380255
0.657145 0.728786 0.349294
0.717372 0.729778 0.343786
0.77229 0.738521 0.364202
0.799619 0.748867 0.382971
0.812696 0.75491 0.392782
0.81471 0.754711 0.392905
0.814313 0.752667 0.389838
0.81416 0.750942 0.387747
0.813367 0.748653 0.384009
0.812299 0.746273 0.37966
0.812436 0.743709 0.375906
0.810941 0.739269 0.369192
0.811032 0.733013 0.362173
0.259251 0.857237 0.629969
0.258625 0.857404 0.629267
0.257649 0.857557 0.628
0.256519 0.857679 0.626841
0.25565 0.857694 0.625849
0.255421 0.857435 0.62417
0.255573 0.856977 0.6224
0.255848 0.856107 0.620035
0.254963 0.854978 0.615396
0.25388 0.854002 0.610819
0.253117 0.853529 0.605112
0.250477 0.852323 0.595926
0.247883 0.850294 0.582055
0.246479 0.848569 0.568719
0.244541 0.84387 0.555978
0.254994 0.832166 0.521859
0.312474 0.81004 0.476509
0.433265 0.784253 0.457435
0.548623 0.773312 0.45182
0.616251 0.77525 0.459541
0.659098 0.77261 0.446021
0.704311 0.769436 0.421088
0.754482 0.769985 0.419837
0.798856 0.776074 0.437522
0.820829 0.782788 0.452323
0.826078 0.784222 0.45452
0.825544 0.782498 0.45069
0.824308 0.780972 0.446647
0.823728 0.779416 0.442359
0.823041 0.777584 0.438651
0.821408 0.77467 0.432227
0.820401 0.771252 0.424216
0.818952 0.766018 0.414466
0.264851 0.870573 0.653956
0.264393 0.870848 0.653422
0.263508 0.871366 0.652995
0.263096 0.871778 0.652491
0.262898 0.872053 0.651865
0.262791 0.872221 0.651041
0.262959 0.872221 0.650095
0.263386 0.871977 0.648539
0.264363 0.871626 0.646433
0.266239 0.870985 0.643915
0.268864 0.870359 0.639719
0.271748 0.869566 0.63534
0.271611 0.869062 0.628428
0.270817 0.868833 0.619348
0.269169 0.867033 0.611399
0.271107 0.860182 0.590097
0.302571 0.845106 0.540566
0.399878 0.821515 0.510826
0.526772 0.80499 0.508965
0.614786 0.803677 0.516106
0.678706 0.806531 0.523995
0.715282 0.804944 0.510597
0.749447 0.801587 0.488945
0.784756 0.801923 0.48954
0.817533 0.805661 0.503487
0.830549 0.808042 0.510231
0.833082 0.80734 0.508888
0.832532 0.80557 0.504616
0.832227 0.803738 0.500298
0.832074 0.802167 0.496239
0.830777 0.799542 0.489876
0.829862 0.796857 0.483604
0.82829 0.792004 0.472328
0.262867 0.871656 0.655802
0.262699 0.871839 0.655314
0.26244 0.872068 0.654948
0.262089 0.872404 0.654582
0.261845 0.872618 0.654139
0.26183 0.872679 0.65362
0.262074 0.872602 0.652506
0.262516 0.87245 0.650813
0.263416 0.871962 0.648524
0.26479 0.871473 0.645762
0.267292 0.870741 0.642222
0.270604 0.869871 0.637781
0.271794 0.86923 0.63064
0.271061 0.869032 0.621149
0.271015 0.868605 0.614984
0.271611 0.868803 0.611429
0.294865 0.860853 0.588449
0.378576 0.842924 0.553262
0.490379 0.826185 0.548699
0.588983 0.820569 0.554147
0.675959 0.823911 0.570718
0.731441 0.827893 0.576242
0.75967 0.827832 0.566888
0.786892 0.82948 0.561959
0.810513 0.829664 0.563394
0.833188 0.832212 0.57467
0.837736 0.831464 0.57348
0.837674 0.829602 0.568063
0.836973 0.827787 0.562814
0.836286 0.825452 0.556985
0.835782 0.822889 0.550484
0.835401 0.819776 0.542245
0.834714 0.815641 0.53138
0.261936 0.872038 0.657801
0.261662 0.872343 0.65716
0.261006 0.872786 0.656733
0.260471 0.873152 0.656382
0.260288 0.87332 0.655894
0.260517 0.873289 0.655177
0.261112 0.87306 0.654185
0.261921 0.872679 0.652781
0.262669 0.872404 0.650523
0.263737 0.87187 0.647288
0.265965 0.871092 0.64419
0.269474 0.870207 0.638865
0.272068 0.869383 0.632258
0.271138 0.869169 0.623224
0.270832 0.868788 0.615808
0.271351 0.869062 0.614008
0.287709 0.865415 0.598718
0.358938 0.847959 0.564477
0.468406 0.831586 0.554681
0.564645 0.827512 0.568414
0.656001 0.828824 0.583719
0.730297 0.836515 0.605524
0.768673 0.842649 0.613138
0.789029 0.843778 0.61088
0.811749 0.846235 0.613382
0.833341 0.851255 0.630091
0.846296 0.853254 0.639078
0.846204 0.851972 0.636286
0.845502 0.850584 0.631098
0.845121 0.849104 0.626947
0.844266 0.846784 0.620813
0.842786 0.843854 0.611337
0.840543 0.839063 0.597574
0.260334 0.872663 0.660548
0.260075 0.872923 0.65977
0.259632 0.873289 0.659144
