luts/phantom/Vision V-Log Legacy.cube
TITLE "Generated by Resolve"
LUT_3D_SIZE 5
0.0304417 0.0417792 0.0328222
0.0906081 0.042359 0.0298009
0.406226 0.0303349 0.032578
0.595071 0.0386969 0.0952163
0.596796 0.0374304 0.0920119
0.0360723 0.10428 0.0528573
0.0716869 0.09691 0.0384375
0.416999 0.0320745 0.0341039
0.587839 0.0326238 0.0814527
0.590005 0.0319982 0.081117
0.11075 0.505898 0.282063
0.103029 0.493278 0.235233
0.478996 0.476143 0.0819562
0.768139 0.419409 0.221424
0.765118 0.377356 0.198795
0.26273 0.831891 0.671077
0.27158 0.831418 0.661326
0.328145 0.827436 0.610574
0.815488 0.860014 0.603357
0.843732 0.836347 0.555932
0.254871 0.833051 0.678309
0.263386 0.832044 0.669932
0.293675 0.829175 0.629892
0.766842 0.873564 0.69279
0.848753 0.890883 0.696162
0.0295872 0.0455329 0.0810712
0.117617 0.0467536 0.0763561
0.457771 0.0332647 0.0842145
0.614572 0.0460517 0.152117
0.609827 0.0422217 0.133211
0.030808 0.0995804 0.0821698
0.0802777 0.0945449 0.0831159
0.437949 0.0301518 0.0554208
0.599771 0.0404364 0.11812
0.601694 0.0396582 0.11284
0.0939651 0.498329 0.310109
0.0995956 0.489525 0.271168
0.472313 0.46952 0.0793774
0.76701 0.405005 0.214939
0.765194 0.370886 0.194491
0.252583 0.833127 0.681453
0.261387 0.832441 0.671031
0.30576 0.827375 0.615564
0.808911 0.852537 0.581613
0.843503 0.826047 0.53341
0.24622 0.834211 0.687236
0.254719 0.832929 0.678828
0.291691 0.829313 0.633738
0.760815 0.871443 0.693523
0.848753 0.890867 0.696056
0.0383764 0.0808423 0.384741
0.105501 0.0709392 0.395712
0.523308 0.0928817 0.368841
0.72668 0.113558 0.449485
0.71162 0.105974 0.37586
0.037644 0.094316 0.375784
0.0417792 0.0800183 0.386374
0.50367 0.0874189 0.35227
0.719402 0.114351 0.419547
0.699413 0.0919966 0.332525
0.0317845 0.478126 0.472984
0.0294804 0.468269 0.463371
0.510079 0.525139 0.500282
0.836332 0.3991 0.416754
0.814435 0.366979 0.352987
0.197375 0.838361 0.742092
0.202823 0.838605 0.73109
0.246387 0.824475 0.667216
0.812665 0.85568 0.649287
0.855177 0.83447 0.613367
0.198932 0.838849 0.738491
0.208057 0.838697 0.726787
0.248264 0.833707 0.686381
0.770367 0.876829 0.750469
0.863935 0.911742 0.772808
0.0845655 0.256123 0.718868
0.0857557 0.262104 0.727169
0.50869 0.296071 0.775601
0.820508 0.399222 0.796139
0.820264 0.401648 0.796811
0.080827 0.243168 0.702358
0.082826 0.25005 0.713024
0.463416 0.286336 0.773724
0.819715 0.387015 0.789014
0.82002 0.394842 0.793133
0.0399481 0.46685 0.73518
0.0489662 0.454109 0.74139
0.335729 0.467506 0.811124
0.845045 0.475547 0.781979
0.829343 0.413809 0.749432
0.164996 0.832532 0.848554
0.154452 0.824811 0.83798
0.137392 0.798474 0.812848
0.844251 0.873625 0.854841
0.884565 0.847211 0.827985
0.172381 0.841779 0.855436
0.1673 0.842161 0.846174
0.163897 0.841917 0.820615
0.758511 0.907423 0.844678
0.917205 0.948714 0.930968
0.0887617 0.284291 0.744656
0.0929427 0.303181 0.764294
0.489143 0.353872 0.820966
0.820554 0.401755 0.79707
0.820554 0.401755 0.79707
0.0890974 0.288945 0.747738
0.0887617 0.284291 0.744656
0.444587 0.35404 0.819821
0.820554 0.401755 0.79707
0.820554 0.401755 0.79707
0.0746929 0.507851 0.82446
0.0797894 0.495079 0.8215
0.222049 0.485664 0.835157
0.849226 0.511147 0.830427
0.839002 0.477806 0.819471
0.12285 0.824094 0.883879
0.102693 0.811078 0.880247
0.0449378 0.771252 0.871809
0.788708 0.836728 0.914733
0.893599 0.835081 0.900755
0.148791 0.842252 0.89012
0.148791 0.842252 0.89012
0.148791 0.842252 0.89012
0.577493 0.87863 0.891356
0.914076 0.950286 0.932677
