luts/phantom/Vision V-Log Legacy.cube
TITLE "Generated by Resolve"
LUT_3D_SIZE 9
0.0304417 0.0417792 0.0328222
0.0398871 0.0434577 0.0304723
0.0906081 0.042359 0.0298009
0.22385 0.0406348 0.0296178
0.406226 0.0303349 0.032578
0.578927 0.0321813 0.0767529
0.595071 0.0386969 0.0952163
0.595651 0.0388647 0.0964981
0.596796 0.0374304 0.0920119
0.0316625 0.0530098 0.0370642
0.0344854 0.0480812 0.0343938
0.0821851 0.0469062 0.0321355
0.22887 0.0411841 0.029633
0.412192 0.0301518 0.0336461
0.581186 0.0310063 0.0775616
0.583352 0.0296025 0.0758221
0.589609 0.0341039 0.0847791
0.591211 0.0319829 0.081651
0.0360723 0.10428 0.0528573
0.0341497 0.0984512 0.0473945
0.0716869 0.09691 0.0384375
0.240146 0.0621347 0.0341955
0.416999 0.0320745 0.0341039
0.587961 0.0325933 0.0814221
0.587839 0.0326238 0.0814527
0.588006 0.0325933 0.0814221
0.590005 0.0319982 0.081117
0.0412451 0.257191 0.0976577
0.0392615 0.251957 0.0859083
0.0377661 0.240818 0.0720226
0.229923 0.237888 0.0356146
0.500832 0.175418 0.0829328
0.688441 0.0886549 0.0808576
0.64564 0.0369116 0.064271
0.638392 0.0309606 0.0638285
0.655894 0.0392767 0.0660716
0.11075 0.505898 0.282063
0.106859 0.500008 0.260273
0.103029 0.493278 0.235233
0.103243 0.478859 0.196902
0.478996 0.476143 0.0819562
0.724773 0.45713 0.205676
0.768139 0.419409 0.221424
0.767071 0.407355 0.216205
0.765118 0.377356 0.198795
0.241062 0.750439 0.541543
0.241901 0.749386 0.532219
0.244739 0.747173 0.518883
0.255726 0.744244 0.479713
0.387381 0.73196 0.416999
0.687694 0.720241 0.290959
0.816052 0.716899 0.342718
0.81384 0.705776 0.33341
0.809964 0.683635 0.31754
0.26273 0.831891 0.671077
0.265385 0.832029 0.667384
0.27158 0.831418 0.661326
0.287098 0.82977 0.642863
0.328145 0.827436 0.610574
0.691051 0.851164 0.657664
0.815488 0.860014 0.603357
0.844541 0.850523 0.590112
0.843732 0.836347 0.555932
0.256764 0.832731 0.676783
0.26096 0.832273 0.672068
0.266636 0.831662 0.666911
0.283482 0.829816 0.649531
0.300786 0.829297 0.625147
0.638636 0.849073 0.661433
0.788983 0.877684 0.682841
0.848753 0.89099 0.698787
0.848753 0.890898 0.69688
0.254871 0.833051 0.678309
0.257954 0.832853 0.674296
0.263386 0.832044 0.669932
0.276234 0.830762 0.65687
0.293675 0.829175 0.629892
0.541314 0.835691 0.633097
0.766842 0.873564 0.69279
0.843107 0.888869 0.691676
0.848753 0.890883 0.696162
0.0285801 0.0423133 0.037232
0.0464637 0.0440833 0.0416114
0.112734 0.0444038 0.0420539
0.270085 0.0361944 0.0374151
0.444633 0.0299535 0.0485847
0.599176 0.0396582 0.106371
0.599542 0.0400244 0.109545
0.6 0.0397955 0.108476
0.600458 0.0383307 0.100816
0.0307774 0.0498054 0.0390326
0.0314641 0.0429389 0.0342107
0.0901045 0.0425269 0.0320439
0.23154 0.0404517 0.0307317
0.416556 0.0283055 0.0355535
0.593317 0.0376593 0.09514
0.598688 0.0390936 0.102434
0.598825 0.0389563 0.102052
0.598611 0.0374609 0.0943313
0.0353094 0.100847 0.0637064
0.0356756 0.0954604 0.0519265
0.0674601 0.0926375 0.038468
0.239353 0.0558022 0.0323796
0.415595 0.0302281 0.0340429
0.594507 0.0372625 0.0902419
0.595987 0.0382239 0.094255
0.595789 0.0380865 0.09337
0.592676 0.0334936 0.0850385
0.0402533 0.255863 0.113161
0.0403449 0.248219 0.0971542
0.036408 0.239002 0.0763867
0.224994 0.233478 0.0354009
0.497734 0.164996 0.0797742
0.682139 0.0791943 0.0778821
0.637903 0.031754 0.0630655
0.638804 0.0308537 0.0639506
0.657008 0.041825 0.0665446
0.102724 0.502785 0.294697
0.105592 0.498878 0.276997
0.101915 0.490578 0.247288
0.100038 0.479377 0.207584
0.476478 0.473121 0.0805982
0.725292 0.449485 0.204044
0.767407 0.412848 0.219394
0.766842 0.399542 0.212177
0.76495 0.369253 0.193606
0.236545 0.74725 0.544717
0.237171 0.746029 0.535424
0.240223 0.744076 0.524269
0.252094 0.739574 0.484382
0.362707 0.727489 0.413809
0.683528 0.714931 0.283635
0.815351 0.710964 0.336889
0.812528 0.699092 0.327504
0.808194 0.674907 0.312444
0.258427 0.832303 0.675898
0.261738 0.832334 0.670954
0.266987 0.831968 0.665217
0.283879 0.830091 0.647486
0.318349 0.827161 0.613184
0.683024 0.849195 0.65182
0.811917 0.856367 0.592218
0.844327 0.845991 0.579141
0.843656 0.831647 0.544991
0.253178 0.833112 0.680522
0.256916 0.832578 0.67718
0.262852 0.831952 0.670787
0.278737 0.830335 0.654871
0.296269 0.829496 0.627054
0.626169 0.847959 0.658061
0.786191 0.877226 0.684291
0.848753 0.890974 0.698741
0.848753 0.890898 0.696864
0.250813 0.8336 0.682338
0.254429 0.833158 0.678447
0.259464 0.832349 0.674052
0.271794 0.831098 0.662089
0.293385 0.829236 0.630198
0.529107 0.834592 0.628931
0.764126 0.872724 0.692851
0.842298 0.888701 0.691157
0.848737 0.890883 0.696223
0.0295872 0.0455329 0.0810712
0.0620279 0.0438239 0.0692454
0.117617 0.0467536 0.0763561
0.285145 0.0373541 0.0784924
0.457771 0.0332647 0.0842145
0.613275 0.045304 0.146456
0.614572 0.0460517 0.152117
0.61445 0.0457313 0.149905
0.609827 0.0422217 0.133211
0.0277562 0.053254 0.0619669
0.0294804 0.0451057 0.0772564
0.0974594 0.0462348 0.0671092
0.267323 0.0356146 0.0582284
0.448066 0.0306859 0.065095
0.603418 0.0413214 0.126406
0.606989 0.0427253 0.132738
0.606104 0.0421759 0.130892
0.602975 0.0398108 0.120684
0.030808 0.0995804 0.0821698
0.0307927 0.0945449 0.0777905
0.0802777 0.0945449 0.0831159
0.265751 0.057496 0.0485084
0.437949 0.0301518 0.0554208
0.599786 0.0402686 0.114534
0.599771 0.0404364 0.11812
0.599802 0.0403906 0.117952
0.601694 0.0396582 0.11284
0.0348669 0.25272 0.133318
0.0373693 0.246693 0.120119
0.0394751 0.237491 0.0981765
0.227283 0.237171 0.0534676
0.496223 0.155962 0.0819867
0.670008 0.0542611 0.0743877
0.635401 0.0327611 0.0707408
0.635508 0.0315404 0.0666361
0.650141 0.0388495 0.0648508
0.0939651 0.498329 0.310109
0.0953841 0.494453 0.293462
0.0995956 0.489525 0.271168
0.0957656 0.477623 0.212467
0.472313 0.46952 0.0793774
0.724132 0.443809 0.20264
0.76701 0.405005 0.214939
0.765835 0.389334 0.206271
0.765194 0.370886 0.194491
0.231357 0.74342 0.550286
0.231189 0.742123 0.541436
0.232731 0.739574 0.529183
0.244129 0.734188 0.492454
0.327642 0.721614 0.407584
0.677913 0.708568 0.275746
0.813977 0.704173 0.331991
0.811261 0.692058 0.322972
0.806546 0.666377 0.308446
0.252583 0.833127 0.681453
0.255573 0.833021 0.677363
0.261387 0.832441 0.671031
0.277409 0.830716 0.654704
0.30576 0.827375 0.615564
0.672419 0.847211 0.645258
0.808911 0.852537 0.581613
0.843259 0.840757 0.566476
0.843503 0.826047 0.53341
0.247166 0.833951 0.686931
0.25066 0.8336 0.682567
0.256626 0.832624 0.677409
0.272297 0.830976 0.66186
0.294896 0.829343 0.62884
0.610117 0.845655 0.654047
0.783627 0.876936 0.685649
0.848753 0.890974 0.698772
0.848753 0.890898 0.69688
0.24622 0.834211 0.687236
0.24892 0.833997 0.683665
0.254719 0.832929 0.678828
0.266026 0.831724 0.667567
0.291691 0.829313 0.633738
0.513603 0.832578 0.621958
0.760815 0.871443 0.693523
0.841093 0.888395 0.690028
0.848753 0.890867 0.696056
0.0356909 0.056611 0.202655
0.060029 0.0535286 0.205814
0.151019 0.0495613 0.160967
0.298054 0.0446174 0.168338
0.483131 0.0554818 0.203815
0.674617 0.0734417 0.268406
0.667674 0.0689555 0.251484
0.659968 0.0639658 0.232395
0.648554 0.0567636 0.205921
0.0346532 0.0611734 0.187427
0.0356146 0.0564126 0.200671
0.102129 0.049134 0.191501
0.28365 0.0445869 0.158404
0.473365 0.0504463 0.18323
0.662547 0.0655985 0.239567
0.652338 0.0600748 0.218036
0.649409 0.0589609 0.212375
0.635843 0.0517433 0.185061
0.0270848 0.100557 0.193011
0.0324407 0.0903182 0.205447
0.0576028 0.079057 0.22237
0.268208 0.0516518 0.153033
0.461173 0.0451362 0.156344
0.638666 0.0550546 0.195972
0.636805 0.0543526 0.192737
0.631037 0.0521706 0.182773
0.619684 0.0462348 0.156847
0.0195621 0.243641 0.221225
0.0191043 0.236835 0.213962
0.0190433 0.228656 0.206195
0.244877 0.263218 0.238376
0.551064 0.184909 0.174487
0.682994 0.0649271 0.168353
0.650401 0.052369 0.166201
0.640803 0.0504463 0.158236
0.638941 0.0463111 0.132403
0.066453 0.492409 0.35874
0.0691997 0.488518 0.346517
0.0746624 0.48275 0.329625
0.0874037 0.473091 0.272267
0.488243 0.487755 0.179675
0.725521 0.444572 0.26743
0.776745 0.393423 0.254231
0.775982 0.371496 0.235889
0.77377 0.351431 0.205615
0.207034 0.736385 0.568627
0.208881 0.734676 0.560372
0.214343 0.729503 0.548241
0.222461 0.722179 0.51632
0.311559 0.715541 0.439994
0.677211 0.706371 0.3131
0.815229 0.702449 0.374762
0.813275 0.688762 0.364324
0.807477 0.659159 0.338491
0.236454 0.835264 0.699535
0.239307 0.835279 0.694377
0.244999 0.834485 0.688029
0.259846 0.831678 0.670954
0.293202 0.826978 0.624155
0.657374 0.844022 0.637827
0.803708 0.846143 0.567071
0.843809 0.833005 0.551873
0.843259 0.817777 0.515892
0.231098 0.835904 0.705135
0.234607 0.835813 0.700511
0.240742 0.834836 0.694057
0.255665 0.832654 0.67866
0.29012 0.829328 0.638178
0.588479 0.843061 0.648737
0.780301 0.876631 0.690257
0.848646 0.89134 0.700481
0.848768 0.890913 0.697093
0.233677 0.835782 0.701823
0.237293 0.835508 0.696849
0.241337 0.835035 0.692042
0.254032 0.832898 0.680003
0.285512 0.829602 0.647211
0.476768 0.828351 0.608713
0.753857 0.869245 0.693507
0.835248 0.886458 0.685573
0.848753 0.890898 0.696574
0.0383764 0.0808423 0.384741
0.0542 0.0792554 0.394324
0.105501 0.0709392 0.395712
0.335592 0.0559548 0.33373
0.523308 0.0928817 0.368841
0.724636 0.114199 0.435477
0.72668 0.113558 0.449485
0.724727 0.114214 0.436591
0.71162 0.105974 0.37586
0.0376745 0.0826581 0.3823
0.0383459 0.0808576 0.384695
0.0744945 0.0776532 0.398917
0.311315 0.0586252 0.337987
0.515557 0.0906386 0.361761
0.723476 0.114092 0.42797
0.725795 0.113893 0.441047
0.72137 0.113802 0.420996
0.706828 0.0988632 0.354421
0.037644 0.094316 0.375784
0.0376898 0.0869001 0.378744
0.0417792 0.0800183 0.386374
0.259998 0.0546883 0.351202
0.50367 0.0874189 0.35227
0.718288 0.114122 0.416342
0.719402 0.114351 0.419547
0.710903 0.111315 0.390448
0.699413 0.0919966 0.332525
0.0191348 0.227283 0.406332
0.0210422 0.216434 0.411414
0.0269017 0.200534 0.417334
0.165515 0.198444 0.47512
0.538903 0.170932 0.404776
0.695598 0.115511 0.388464
0.7084 0.107103 0.374594
0.70103 0.0986038 0.349538
0.689815 0.0843671 0.305928
0.0317845 0.478126 0.472984
0.03093 0.473869 0.47013
0.0294804 0.468269 0.463371
0.0277104 0.456046 0.452522
0.510079 0.525139 0.500282
0.797391 0.455131 0.442954
0.836332 0.3991 0.416754
0.830365 0.383749 0.397635
0.814435 0.366979 0.352987
0.142855 0.727825 0.624155
0.139528 0.725383 0.61651
0.141375 0.720729 0.607233
0.149691 0.709636 0.581735
0.319173 0.708141 0.536919
0.700099 0.727474 0.499092
0.829389 0.710872 0.528817
0.8262 0.695308 0.513512
0.817914 0.667216 0.476204
0.197375 0.838361 0.742092
0.198672 0.83917 0.737469
0.202823 0.838605 0.73109
0.215824 0.834669 0.712718
0.246387 0.824475 0.667216
0.661875 0.847257 0.694209
0.812665 0.85568 0.649287
0.857633 0.848814 0.644984
0.855177 0.83447 0.613367
0.197482 0.837873 0.748791
0.194934 0.839094 0.742412
0.199191 0.839384 0.735744
0.21474 0.837705 0.721675
0.248173 0.833661 0.686702
0.603479 0.851133 0.695781
0.811673 0.895644 0.779706
0.867353 0.91693 0.791852
0.86566 0.914656 0.78378
0.198932 0.838849 0.738491
0.202594 0.838987 0.73312
0.208057 0.838697 0.726787
0.220874 0.83714 0.715557
0.248264 0.833707 0.686381
0.403754 0.830716 0.638315
0.770367 0.876829 0.750469
0.842481 0.904143 0.756252
0.863935 0.911742 0.772808
0.0524758 0.134066 0.536126
0.0534524 0.135927 0.542458
0.0809339 0.137087 0.55906
0.241962 0.10985 0.566293
0.581094 0.143755 0.548272
0.773281 0.184161 0.61062
0.779446 0.208209 0.639811
0.784115 0.218204 0.657694
0.779202 0.200305 0.629633
0.0525521 0.134218 0.536416
0.0525673 0.134325 0.53669
0.0562905 0.134493 0.546136
0.213687 0.12076 0.571618
0.569986 0.141039 0.545007
0.772473 0.178073 0.604471
0.776745 0.203861 0.629862
0.782177 0.211215 0.646708
0.775723 0.179858 0.609705
0.051133 0.136278 0.528145
0.0519417 0.134035 0.533761
0.0524147 0.133333 0.534951
0.167926 0.135302 0.574578
0.552712 0.136675 0.540459
0.764874 0.171176 0.592813
0.772564 0.188495 0.613519
0.775601 0.202548 0.62771
0.764355 0.148455 0.570138
0.0520943 0.216175 0.552636
0.0528725 0.206806 0.554986
0.0544137 0.194797 0.557549
0.0918898 0.188235 0.583017
0.508141 0.15285 0.547906
0.744472 0.165179 0.570459
0.763821 0.156435 0.578958
0.766049 0.162005 0.586419
0.739483 0.109834 0.504967
0.0200046 0.460243 0.605035
0.0204318 0.454368 0.606439
0.020264 0.446143 0.60737
0.0201877 0.423743 0.61738
0.441657 0.461143 0.73077
0.789685 0.463416 0.667323
0.827436 0.4168 0.648234
0.820279 0.381125 0.618647
0.803342 0.289937 0.54667
0.117113 0.707164 0.712596
0.11371 0.70396 0.709789
0.111833 0.697932 0.703853
0.108217 0.685985 0.691646
0.183322 0.679774 0.682765
0.723629 0.742748 0.724025
0.873335 0.704341 0.689693
0.877485 0.685985 0.670176
0.862669 0.658778 0.628992
0.167926 0.840116 0.804944
0.16733 0.840085 0.799405
0.16762 0.837736 0.792767
0.165972 0.83006 0.776837
0.167788 0.815244 0.738537
0.667231 0.845838 0.761532
0.828397 0.867826 0.77499
0.878264 0.869581 0.770764
0.875334 0.853407 0.744305
0.167239 0.84097 0.813642
0.164675 0.841749 0.807736
0.168383 0.841306 0.800412
0.17702 0.840116 0.78761
0.192294 0.838788 0.759197
0.47393 0.856245 0.75053
0.836194 0.916075 0.851316
0.900221 0.938552 0.88922
0.894408 0.93489 0.873014
0.170855 0.840757 0.79881
0.17409 0.840467 0.79237
0.178149 0.840055 0.785977
0.185657 0.839368 0.774762
0.193545 0.838926 0.750576
0.29395 0.842588 0.722774
0.791882 0.896651 0.817029
0.882734 0.931456 0.868284
0.900099 0.938796 0.886
0.0845655 0.256123 0.718868
0.0847639 0.259373 0.723812
0.0857557 0.262104 0.727169
0.16907 0.283436 0.761593
0.50869 0.296071 0.775601
0.816663 0.363088 0.775982
0.820508 0.399222 0.796139
0.820386 0.401816 0.796979
0.820264 0.401648 0.796811
0.0837415 0.254673 0.717723
0.0835584 0.254322 0.717342
0.0852369 0.259648 0.725139
0.135195 0.280858 0.757977
0.490105 0.292668 0.775662
0.813016 0.35407 0.772
0.820401 0.398062 0.795468
0.820493 0.40177 0.79704
0.820386 0.400275 0.796536
0.080827 0.243168 0.702358
0.0829786 0.250507 0.713603
0.082826 0.25005 0.713024
0.101595 0.272541 0.747753
0.463416 0.286336 0.773724
0.80734 0.341299 0.764767
0.819715 0.387015 0.789014
0.820279 0.401846 0.796887
0.82002 0.394842 0.793133
0.0759747 0.264958 0.685512
0.0777752 0.262882 0.692088
0.0798962 0.262303 0.701503
0.083238 0.259815 0.716655
0.399344 0.262837 0.761898
0.789975 0.313649 0.749279
0.815686 0.340429 0.763104
0.817151 0.352529 0.770153
0.816861 0.345602 0.766506
0.0399481 0.46685 0.73518
0.0430915 0.4607 0.737652
0.0489662 0.454109 0.74139
0.0652476 0.440406 0.758816
0.335729 0.467506 0.811124
0.779965 0.470603 0.792081
0.845045 0.475547 0.781979
0.841031 0.459632 0.776272
0.829343 0.413809 0.749432
0.0382391 0.690394 0.789548
0.03505 0.684871 0.788022
0.0321508 0.677836 0.786389
0.0252995 0.66157 0.782559
0.0419318 0.644114 0.79321
0.680369 0.701335 0.853681
0.879438 0.714015 0.824384
0.88809 0.696941 0.818189
0.884642 0.652659 0.78587
0.164996 0.832532 0.848554
0.158068 0.82919 0.843793
0.154452 0.824811 0.83798
0.145922 0.815183 0.828611
0.137392 0.798474 0.812848
0.59202 0.837171 0.829374
0.844251 0.873625 0.854841
0.88957 0.864515 0.845624
0.884565 0.847211 0.827985
0.175296 0.841016 0.863905
0.172503 0.841779 0.860258
0.170932 0.84213 0.854978
0.167346 0.842161 0.84622
0.16434 0.842054 0.828397
0.284031 0.852201 0.817182
0.829252 0.923095 0.87718
0.909331 0.939696 0.913268
0.910994 0.938811 0.91249
0.172381 0.841779 0.855436
0.169818 0.842084 0.851286
0.1673 0.842161 0.846174
0.164904 0.842405 0.837949
0.163897 0.841917 0.820615
0.196399 0.851606 0.809796
0.758511 0.907423 0.844678
0.906584 0.943984 0.920317
0.917205 0.948714 0.930968
0.0887617 0.284291 0.744656
0.0897231 0.288518 0.749676
0.0931106 0.303548 0.764736
0.135012 0.333303 0.795422
0.492576 0.354162 0.82063
0.818814 0.400687 0.796826
0.820554 0.401755 0.79707
0.820554 0.401755 0.79707
0.820554 0.401755 0.79707
0.0887617 0.284291 0.744656
0.0887617 0.284291 0.744656
0.0917983 0.297215 0.758236
0.110719 0.326268 0.788266
0.475471 0.351934 0.820859
0.814176 0.398917 0.796429
0.820554 0.401755 0.79707
0.820554 0.401755 0.79707
0.820554 0.401755 0.79707
0.0891432 0.290349 0.748501
0.0887617 0.284352 0.744671
0.0887617 0.284291 0.744656
0.0960098 0.318334 0.77847
0.447349 0.351003 0.820172
0.806714 0.395972 0.795361
0.820554 0.401755 0.79707
0.820554 0.401755 0.79707
0.820554 0.401755 0.79707
0.0944228 0.35108 0.775982
0.0932784 0.342031 0.772351
0.0927901 0.327062 0.765942
0.0925002 0.30898 0.76463
0.370245 0.353719 0.813275
0.774548 0.390677 0.790463
0.820554 0.401755 0.79707
0.820554 0.401755 0.79707
0.820554 0.401755 0.79707
0.0680095 0.491722 0.803372
0.0715953 0.489616 0.806699
0.0766155 0.488518 0.812665
0.0853132 0.480827 0.817929
0.240909 0.49456 0.837095
0.698909 0.514443 0.866178
0.852247 0.52018 0.833463
0.848768 0.50869 0.829557
0.842725 0.488106 0.822934
0.0220798 0.687495 0.833829
0.0209354 0.682017 0.832425
0.0210575 0.675059 0.832044
0.0208743 0.661341 0.834287
0.0274205 0.6392 0.850523
0.601694 0.692454 0.910918
0.867628 0.714977 0.883818
0.892607 0.705211 0.877348
0.89189 0.682322 0.871595
0.130236 0.827436 0.880247
0.125689 0.822217 0.876722
0.119112 0.81532 0.871855
0.106737 0.803616 0.866392
0.0700236 0.779721 0.860716
0.505608 0.809186 0.877485
0.816602 0.852506 0.902632
0.895338 0.861204 0.894133
0.893812 0.843946 0.885176
0.148791 0.842252 0.89012
0.148791 0.842252 0.89012
0.149157 0.842298 0.88954
0.151858 0.842466 0.885649
0.165637 0.841779 0.874083
0.235401 0.848432 0.86746
0.796384 0.911528 0.893935
0.904845 0.941131 0.924437
0.910445 0.938918 0.923278
0.148791 0.842252 0.89012
0.148974 0.842268 0.889845
0.149981 0.842344 0.888426
0.152972 0.842359 0.884703
0.171725 0.841276 0.869566
0.182116 0.848753 0.86009
0.681559 0.896162 0.868681
0.90631 0.948425 0.929808
0.914076 0.950286 0.932677
0.0887617 0.284291 0.744656
0.0895399 0.287922 0.749065
0.0929427 0.303181 0.764294
0.130114 0.332036 0.794354
0.489143 0.353872 0.820966
0.818982 0.400763 0.79678
0.820554 0.401755 0.79707
0.820554 0.401755 0.79707
0.820554 0.401755 0.79707
0.0887617 0.284291 0.744656
0.0887617 0.284291 0.744656
0.0915999 0.296468 0.757244
0.108431 0.325231 0.786999
0.470253 0.351003 0.820447
0.813825 0.398703 0.796338
0.820554 0.401755 0.79707
0.820554 0.401755 0.79707
0.820554 0.401755 0.79707
0.0890974 0.288945 0.747738
0.0887617 0.284291 0.744656
0.0887617 0.284291 0.744656
0.0960403 0.317922 0.777905
0.444587 0.35404 0.819821
0.805524 0.395712 0.795239
0.820554 0.401755 0.79707
0.820554 0.401755 0.79707
0.820554 0.401755 0.79707
0.0941482 0.345892 0.774426
0.0929885 0.33373 0.769009
0.092256 0.319158 0.762707
0.0927138 0.305989 0.763287
0.362829 0.353048 0.812848
0.769131 0.389853 0.789975
0.820554 0.401755 0.79707
0.820554 0.401755 0.79707
0.820554 0.401755 0.79707
0.0746929 0.507851 0.82446
0.0768749 0.501305 0.822278
0.0797894 0.495079 0.8215
0.0865949 0.475059 0.816297
0.222049 0.485664 0.835157
0.684138 0.504829 0.864897
0.849226 0.511147 0.830427
0.845579 0.499123 0.826703
0.839002 0.477806 0.819471
0.0212863 0.688502 0.852613
0.0209964 0.682994 0.851057
0.0211337 0.675746 0.850477
0.0208743 0.659571 0.847456
0.0290837 0.6309 0.849515
0.587518 0.682841 0.909606
0.857511 0.707027 0.886
0.890089 0.697108 0.880629
0.88835 0.675196 0.876707
0.12285 0.824094 0.883879
0.115358 0.819409 0.882063
0.102693 0.811078 0.880247
0.0783551 0.79707 0.877516
0.0449378 0.771252 0.871809
0.44921 0.792233 0.88304
0.788708 0.836728 0.914733
0.895033 0.850797 0.904524
0.893599 0.835081 0.900755
0.148791 0.842252 0.89012
0.148791 0.842252 0.89012
0.148791 0.842252 0.89012
0.148791 0.842252 0.89012
0.148791 0.842252 0.89012
0.1729 0.843137 0.891173
0.744701 0.891035 0.904311
0.891966 0.934783 0.925078
0.907012 0.936889 0.926818
0.148791 0.842252 0.89012
0.148791 0.842252 0.89012
0.148791 0.842252 0.89012
0.148791 0.842252 0.89012
0.148791 0.842252 0.89012
0.152026 0.845335 0.892409
0.577493 0.87863 0.891356
0.890837 0.945525 0.927794
0.914076 0.950286 0.932677
