luts/phantom/VisionTeal V-Log Legacy.cube
TITLE "Generated by Resolve"
LUT_3D_SIZE 9
0.0233616 0.0432593 0.0413519
0.0397192 0.0424811 0.0406043
0.100893 0.0396582 0.0337072
0.237766 0.0299229 0.0281376
0.411948 0.0170138 0.0299992
0.5691 0.0199893 0.0801099
0.588129 0.0299535 0.101488
0.587976 0.0297398 0.103075
0.585214 0.0287327 0.106828
0.0239567 0.0549325 0.0428321
0.0304723 0.0487984 0.0416419
0.0855879 0.0461128 0.0388342
0.241382 0.0320897 0.0293736
0.417212 0.0171359 0.0309148
0.575021 0.0229343 0.0855573
0.578607 0.0214084 0.0845502
0.583154 0.0252995 0.092607
0.581415 0.024979 0.100771
0.0262455 0.106584 0.0503853
0.0234531 0.101091 0.0456855
0.0800031 0.0940566 0.046128
0.255512 0.061326 0.0337072
0.422248 0.0179446 0.0310216
0.581872 0.0244602 0.0913405
0.581857 0.024445 0.0910201
0.581933 0.024445 0.0914015
0.581674 0.0247807 0.0976425
0.0242924 0.259022 0.0757
0.0220645 0.253147 0.0644846
0.0240482 0.241642 0.0521553
0.221012 0.229938 0.0398108
0.518929 0.187396 0.0756237
0.683146 0.070161 0.0825971
0.638285 0.0267796 0.0752728
0.632517 0.024033 0.0775006
0.658167 0.0352026 0.0785077
0.0701457 0.511696 0.232166
0.0748455 0.504936 0.21532
0.0857099 0.495598 0.192523
0.0931868 0.474235 0.141344
0.463249 0.454551 0.0914168
0.745281 0.491112 0.209003
0.794308 0.456825 0.227955
0.792615 0.444694 0.223941
0.789441 0.414145 0.206409
0.21239 0.777966 0.514458
0.202686 0.77998 0.508247
0.197894 0.778042 0.494011
0.184985 0.772717 0.439643
0.379217 0.700511 0.327672
0.67129 0.680766 0.270909
0.808804 0.718944 0.347341
0.808148 0.710536 0.338155
0.807385 0.693996 0.320546
0.262867 0.871656 0.655802
0.261845 0.872618 0.654139
0.263416 0.871962 0.648524
0.271794 0.86923 0.63064
0.294865 0.860853 0.588449
0.675959 0.823911 0.570718
0.810513 0.829664 0.563394
0.836973 0.827787 0.562814
0.834714 0.815641 0.53138
0.258122 0.873762 0.662593
0.260487 0.872862 0.658335
0.263661 0.871336 0.652338
0.273838 0.867948 0.635081
0.278889 0.866194 0.606882
0.606897 0.827665 0.575051
0.798367 0.847883 0.62565
0.851026 0.863111 0.668528
0.850919 0.863218 0.668956
0.255039 0.875532 0.666194
0.255772 0.875349 0.662669
0.261799 0.872465 0.655634
0.269963 0.869444 0.642618
0.272984 0.867079 0.613642
0.493904 0.830732 0.560769
0.773098 0.846006 0.627222
0.845762 0.860945 0.661601
0.850858 0.863279 0.669169
0.0221561 0.0440681 0.0487221
0.0435187 0.0433356 0.0568704
0.111482 0.0411231 0.0566262
0.272343 0.0285954 0.0448157
0.440665 0.0236515 0.0583505
0.588174 0.0306554 0.11812
0.589837 0.0306554 0.121004
0.58941 0.0307774 0.12285
0.587915 0.0310979 0.121889
0.0227512 0.051545 0.0473335
0.0242924 0.0443885 0.0423438
0.0910048 0.0416876 0.0393378
0.233677 0.0284123 0.0320134
0.413382 0.0196384 0.0412909
0.579385 0.0289616 0.107866
0.588983 0.0307012 0.117998
0.588785 0.0307622 0.118654
0.587579 0.0309758 0.118654
0.0264134 0.103426 0.0650187
0.0243229 0.0982834 0.0516365
0.0742199 0.0901198 0.0469215
0.250446 0.0541085 0.0335088
0.417304 0.0184482 0.0348669
0.585351 0.0294804 0.103639
0.588113 0.0306096 0.108827
0.588083 0.0305943 0.108644
0.584237 0.0280308 0.10547
0.0201724 0.25948 0.0930648
0.0187991 0.250584 0.0746166
0.0209659 0.240467 0.0572366
0.216052 0.226841 0.0397345
0.51548 0.176333 0.0728466
0.674113 0.057496 0.0776074
0.630442 0.0248417 0.0773327
0.635035 0.0242161 0.078584
0.661189 0.0353399 0.0752575
0.0693675 0.510735 0.251972
0.0615702 0.506325 0.232303
0.0779736 0.494896 0.206195
0.087953 0.477882 0.156115
0.458259 0.451255 0.0902724
0.746777 0.483543 0.209262
0.793637 0.450324 0.226642
0.791943 0.436591 0.220279
0.789044 0.405814 0.202258
0.2121 0.775509 0.519509
0.201724 0.776577 0.513405
0.197055 0.774273 0.499916
0.185306 0.768795 0.448249
0.350057 0.701564 0.327443
0.667445 0.676982 0.264454
0.808438 0.715007 0.342916
0.807645 0.705791 0.333211
0.807172 0.687358 0.315709
0.259632 0.872938 0.661418
0.2589 0.873838 0.658518
0.261891 0.872679 0.653162
0.271443 0.869642 0.636179
0.286854 0.86215 0.592523
0.666606 0.821607 0.563973
0.807126 0.825895 0.552483
0.836088 0.823835 0.552178
0.834287 0.812131 0.522271
0.255436 0.874876 0.667781
0.257115 0.874342 0.663081
0.262364 0.872023 0.655833
0.271717 0.868742 0.639597
0.275227 0.866819 0.609079
0.592065 0.827085 0.572488
0.796292 0.847761 0.626108
0.851011 0.863127 0.668574
0.850919 0.863218 0.669001
0.253437 0.876219 0.669993
0.254582 0.875853 0.666743
0.259403 0.873213 0.660517
0.266758 0.870359 0.647074
0.273182 0.867094 0.614023
0.48043 0.830335 0.556756
0.769787 0.845472 0.625971
0.845045 0.860487 0.660258
0.850874 0.863264 0.669154
0.0212253 0.0529488 0.0893873
0.0551461 0.0434424 0.0905165
0.117311 0.0442054 0.0949416
0.285863 0.0323644 0.092256
0.456245 0.0263218 0.0974441
0.602213 0.0343938 0.165927
0.603052 0.0344701 0.167803
0.602106 0.0344701 0.167498
0.594873 0.0332341 0.157824
0.0211795 0.0553292 0.0701152
0.0214542 0.0520485 0.08542
0.0950179 0.0445411 0.0854963
0.267643 0.0325933 0.0747082
0.450645 0.0247654 0.0810254
0.593332 0.0320592 0.145327
0.595972 0.0327611 0.151659
0.594705 0.0324559 0.150057
0.590555 0.0319829 0.144427
0.0221408 0.102007 0.0847639
0.020325 0.0973526 0.0824903
0.0736095 0.0961624 0.0910658
0.270191 0.0462196 0.0518502
0.434791 0.0245518 0.0651255
0.590265 0.03093 0.127199
0.5906 0.0310979 0.131487
0.590631 0.0311131 0.132525
0.590112 0.0313726 0.1346
0.0209506 0.25832 0.118441
0.0192264 0.25156 0.104967
0.0188907 0.241032 0.0784161
0.21886 0.230167 0.0601205
0.513405 0.165133 0.0767224
0.659815 0.0363622 0.0785687
0.630304 0.0251926 0.0831617
0.633677 0.0242008 0.0789044
0.660319 0.0333562 0.0715038
0.0684367 0.507881 0.273671
0.0612497 0.503944 0.257359
0.0570382 0.497536 0.228397
0.0827649 0.478309 0.165148
0.454444 0.447593 0.0879683
0.745525 0.477791 0.208362
0.792737 0.442451 0.223056
0.790677 0.42623 0.214023
0.790555 0.412177 0.206683
0.210605 0.771313 0.525093
0.200412 0.772763 0.520378
0.196277 0.770397 0.507698
0.184848 0.763058 0.460166
0.312245 0.706447 0.330419
0.662623 0.671031 0.257755
0.807492 0.709087 0.336233
0.806409 0.699596 0.326497
0.80705 0.681376 0.31043
0.255833 0.874479 0.667369
0.254871 0.875822 0.665385
0.258442 0.874067 0.659052
0.267124 0.87071 0.64242
0.276585 0.863615 0.598001
0.653941 0.818692 0.555871
0.802823 0.821271 0.540856
0.835538 0.819455 0.541207
0.833356 0.808087 0.511894
0.253269 0.875853 0.673106
0.252201 0.876982 0.670665
0.258152 0.873686 0.662669
0.268116 0.86981 0.646555
0.274556 0.866758 0.611536
0.574853 0.827604 0.570169
0.7935 0.847578 0.626749
0.851026 0.863142 0.668605
0.850919 0.863233 0.669032
0.250584 0.877302 0.675273
0.25095 0.877577 0.671809
0.255283 0.875212 0.666362
0.263386 0.871427 0.652979
0.273777 0.867201 0.618647
0.464927 0.830289 0.550835
0.764981 0.844877 0.624537
0.843732 0.860182 0.659129
0.850858 0.863264 0.669154
0.0198672 0.0758221 0.200488
0.0303044 0.0680552 0.218372
0.138949 0.0474708 0.20589
0.301915 0.035172 0.197269
0.474678 0.0427405 0.218555
0.661311 0.0600595 0.287816
0.655344 0.0558785 0.270542
0.647196 0.0517739 0.253086
0.633051 0.0459754 0.23183
0.0200046 0.0798657 0.184283
0.0198672 0.0754864 0.198978
0.0757153 0.0486152 0.225254
0.285969 0.0361486 0.190127
0.46656 0.0390173 0.199054
0.651347 0.0538033 0.263096
0.643107 0.0493935 0.244129
0.638498 0.047425 0.235737
0.622889 0.0420539 0.214099
0.0195926 0.111238 0.177188
0.0199283 0.105791 0.192813
0.0254673 0.0955215 0.219608
0.267292 0.044892 0.187121
0.456367 0.0346227 0.172427
0.6327 0.0451209 0.221775
0.628412 0.0431373 0.212192
0.621592 0.0402838 0.200763
0.607355 0.0361181 0.183352
0.0189212 0.253178 0.192203
0.0189517 0.247807 0.190845
0.0189364 0.238834 0.183352
0.246159 0.262608 0.241581
0.543389 0.170367 0.170977
0.671061 0.0552224 0.185962
0.642924 0.0416724 0.178088
0.637827 0.0395819 0.166598
0.659724 0.0464942 0.153628
0.0591135 0.507485 0.327276
0.0555581 0.503883 0.319753
0.0576638 0.497444 0.304417
0.053666 0.482231 0.237232
0.478157 0.467247 0.17789
0.748959 0.467582 0.270756
0.796841 0.421195 0.257389
0.796246 0.403571 0.240909
0.796429 0.396811 0.218952
0.198566 0.765789 0.543984
0.190921 0.766201 0.540948
0.191073 0.760891 0.52932
0.18558 0.751415 0.493462
0.275105 0.717601 0.378195
0.662989 0.670192 0.289525
0.814878 0.708904 0.37293
0.814588 0.697475 0.36054
0.812497 0.674861 0.333532
0.247517 0.877867 0.68423
0.245151 0.879835 0.682826
0.248035 0.878492 0.677531
0.257023 0.87332 0.658854
0.269749 0.864744 0.609186
0.635721 0.815106 0.547265
0.79704 0.814679 0.526085
0.835019 0.813352 0.527977
0.833249 0.801968 0.497688
0.245029 0.878981 0.689296
0.242817 0.880873 0.687205
0.247089 0.878676 0.681239
0.258274 0.873472 0.663508
0.275319 0.866835 0.622538
0.549599 0.82829 0.568261
0.789731 0.847852 0.629648
0.851713 0.863966 0.670298
0.850935 0.863264 0.669139
0.244175 0.879866 0.687221
0.244083 0.880201 0.685267
0.246189 0.879545 0.680323
0.256229 0.874403 0.666514
0.275029 0.867613 0.632715
0.425483 0.833127 0.544396
0.755352 0.843015 0.621592
0.838041 0.857877 0.652873
0.850889 0.863249 0.669062
0.0192874 0.118273 0.364645
0.0192111 0.114229 0.382605
0.0438697 0.100237 0.410697
0.32491 0.049546 0.386069
0.519783 0.0775311 0.409262
0.710536 0.0894789 0.459876
0.714412 0.0898451 0.476631
0.710796 0.089662 0.461784
0.694942 0.0857862 0.401083
0.0194095 0.120333 0.360693
0.0192721 0.118441 0.364843
0.0193027 0.108949 0.395499
0.296635 0.0516213 0.391409
0.51194 0.0751202 0.40296
0.709087 0.0892195 0.451865
0.712169 0.0894484 0.466941
0.707958 0.0888991 0.445579
0.690654 0.084184 0.386892
0.0194095 0.130571 0.347616
0.0193484 0.124529 0.356161
0.0193179 0.116594 0.368643
0.230732 0.0472572 0.402472
0.499168 0.0713359 0.391959
0.704707 0.0898451 0.436027
0.706905 0.089601 0.440452
0.699168 0.0869154 0.413504
0.684916 0.0825513 0.369421
0.0191043 0.255573 0.351446
0.0191653 0.246143 0.359411
0.0191348 0.233005 0.365652
0.0947738 0.232013 0.455161
0.538109 0.158556 0.435737
0.681285 0.0915541 0.401175
0.695659 0.0876936 0.397375
0.689403 0.0857404 0.379507
0.676417 0.0727245 0.335912
0.0459907 0.501472 0.424857
0.0402533 0.497932 0.424933
0.0376287 0.492027 0.419623
0.0345006 0.479286 0.407874
0.527794 0.520668 0.490028
0.786252 0.461143 0.439811
0.812482 0.411566 0.416907
0.807568 0.401877 0.397391
0.800626 0.391287 0.354238
0.158465 0.761303 0.59324
0.150362 0.7608 0.591714
0.147143 0.755581 0.581796
0.150195 0.741863 0.557443
0.293446 0.725322 0.512108
0.69955 0.704326 0.471901
0.850385 0.718227 0.522255
0.849393 0.704402 0.510063
0.84303 0.679469 0.476783
0.229526 0.884565 0.722332
0.224308 0.887434 0.721706
0.224079 0.887098 0.716716
0.231052 0.881056 0.700313
0.245563 0.866148 0.655131
0.623468 0.835447 0.622141
0.813733 0.831159 0.611994
0.855924 0.832898 0.624949
0.852445 0.821118 0.595987
0.230625 0.883803 0.726131
0.223835 0.887495 0.725811
0.223331 0.887999 0.720913
0.231525 0.884657 0.707881
0.254292 0.875319 0.672099
0.556863 0.851804 0.636744
0.816464 0.87602 0.733349
0.882261 0.896284 0.768338
0.880003 0.89337 0.76083
0.227298 0.885939 0.720394
0.225879 0.886809 0.717571
0.22739 0.886503 0.712779
0.234974 0.883452 0.701534
0.254032 0.875547 0.671962
0.375692 0.852537 0.608515
0.761913 0.858518 0.686519
0.854032 0.880552 0.724086
0.876066 0.889418 0.749325
0.0191043 0.191821 0.488975
0.0193027 0.19498 0.495918
0.0193179 0.193271 0.522408
0.169863 0.162173 0.597742
0.564492 0.128145 0.601465
0.769863 0.169635 0.670848
0.775647 0.194919 0.699077
0.774655 0.208896 0.711269
0.777462 0.188098 0.692546
0.0191196 0.192035 0.489342
0.0191196 0.19234 0.489784
0.0191958 0.193332 0.501152
0.121263 0.17435 0.590677
0.553277 0.126894 0.598489
0.767681 0.162692 0.663417
0.77406 0.190372 0.688746
0.777508 0.198093 0.705242
0.773861 0.167697 0.674815
0.0190738 0.193027 0.480003
0.0191348 0.191608 0.486427
0.0191653 0.190906 0.487907
0.0604715 0.186252 0.572366
0.535637 0.125689 0.595087
0.758923 0.155993 0.65095
0.768826 0.174014 0.672236
0.772854 0.188571 0.686061
0.75906 0.138231 0.638361
0.0191653 0.267247 0.49044
0.0191806 0.261295 0.494484
0.0193484 0.252644 0.49929
0.0190738 0.242283 0.535149
0.487449 0.143648 0.600122
0.737316 0.148898 0.624765
0.756497 0.140764 0.636194
0.75964 0.147494 0.645167
0.734936 0.0989395 0.578515
0.020264 0.509163 0.541497
0.0205234 0.50454 0.54287
0.0203861 0.497795 0.543389
0.0201724 0.475349 0.55053
0.401633 0.487114 0.710933
0.783795 0.448585 0.681697
0.815244 0.402472 0.655955
0.804852 0.364767 0.629709
0.784558 0.271107 0.569802
0.149996 0.748486 0.67274
0.144121 0.746563 0.671901
0.140749 0.739696 0.665217
0.135729 0.726818 0.653361
0.199435 0.713329 0.646326
0.737881 0.739116 0.712123
0.881865 0.709102 0.686748
0.884306 0.684627 0.667765
0.874128 0.664683 0.62623
0.219135 0.890684 0.779919
0.211078 0.893339 0.778485
0.208255 0.890867 0.772366
0.201617 0.882048 0.757198
0.194675 0.864561 0.720729
0.654475 0.850446 0.737835
0.84152 0.855787 0.751751
0.888472 0.858213 0.760327
0.883543 0.844663 0.735592
0.221317 0.892027 0.787732
0.212284 0.895491 0.785672
0.211673 0.895064 0.779858
0.214054 0.892989 0.767117
0.221042 0.888777 0.741573
0.482124 0.873915 0.730022
0.834897 0.911421 0.828626
0.916884 0.931563 0.864759
0.913848 0.924956 0.848814
0.215656 0.893233 0.776898
0.214282 0.893217 0.77203
0.21416 0.892943 0.766033
0.215915 0.892088 0.757229
0.222614 0.888121 0.73344
0.306645 0.879377 0.706218
0.777371 0.892821 0.787076
0.897292 0.922972 0.84358
0.918044 0.931273 0.861631
0.0199283 0.328038 0.650156
0.0194705 0.332082 0.654063
0.0196841 0.334493 0.657984
0.0200198 0.353124 0.71104
0.450736 0.299809 0.795087
0.8009 0.348547 0.814145
0.802335 0.383368 0.828595
0.802426 0.386297 0.829709
0.802548 0.385992 0.829419
0.0197757 0.326574 0.64921
0.0197299 0.326162 0.648783
0.0194858 0.332494 0.655894
0.0198825 0.351095 0.698894
0.427207 0.298695 0.792905
0.79707 0.339712 0.810605
0.802426 0.382712 0.828153
0.802625 0.386236 0.829923
0.802579 0.384726 0.829206
0.0195468 0.313588 0.635019
0.0195163 0.322026 0.645136
0.019501 0.321569 0.644968
0.0199435 0.345342 0.68072
0.398199 0.301106 0.788479
0.790951 0.326741 0.804852
0.801938 0.371664 0.822858
0.80206 0.386389 0.829541
0.803281 0.379736 0.828061
0.0197299 0.332372 0.613718
0.0197604 0.331914 0.621088
0.0196536 0.332158 0.630594
0.0194247 0.331579 0.645914
0.32813 0.308553 0.768963
0.77322 0.299245 0.792569
0.799924 0.326467 0.803128
0.801465 0.338354 0.808835
0.801724 0.330999 0.806104
0.0204013 0.52314 0.660655
0.0205539 0.516823 0.663569
0.020264 0.508629 0.666575
0.0203403 0.498054 0.683131
0.241672 0.523095 0.774472
0.764599 0.458717 0.819196
0.835554 0.454841 0.80795
0.830991 0.439353 0.803311
0.817807 0.392004 0.780819
0.0552071 0.755474 0.747372
0.0459754 0.751537 0.745754
0.0400092 0.744839 0.741405
0.0267643 0.730495 0.735332
0.0335393 0.711192 0.742596
0.670085 0.713634 0.845121
0.88719 0.701183 0.832731
0.893156 0.683635 0.82678
0.885786 0.636835 0.796613
0.226932 0.88719 0.822812
0.219348 0.886 0.820783
0.213962 0.880522 0.814679
0.205295 0.870848 0.805982
0.192065 0.852842 0.789532
0.603906 0.850721 0.808804
0.859007 0.869627 0.847974
0.910399 0.858701 0.839002
0.905486 0.838102 0.819944
0.23566 0.896971 0.836194
0.231159 0.898497 0.833997
0.229969 0.898177 0.829084
0.228183 0.897581 0.820935
0.220874 0.896651 0.804868
0.309041 0.895048 0.792142
0.84271 0.920882 0.866407
0.923125 0.935683 0.897917
0.924819 0.934783 0.895781
0.236789 0.894926 0.827436
0.229923 0.897475 0.825544
0.228153 0.897597 0.820935
0.224735 0.897093 0.813519
0.217014 0.896376 0.797559
0.233692 0.903517 0.78764
0.771176 0.909056 0.833265
0.920363 0.940414 0.909331
0.933989 0.944717 0.92256
0.0199588 0.35787 0.672786
0.0197299 0.363577 0.677058
0.0201114 0.379309 0.692332
0.0203708 0.408728 0.731472
0.436744 0.388006 0.825681
0.800793 0.385168 0.830167
0.803037 0.386114 0.830289
0.802976 0.38613 0.830259
0.802747 0.386191 0.830045
0.0199588 0.357885 0.672801
0.0199588 0.357885 0.672801
0.0196994 0.37258 0.685161
0.0199893 0.40322 0.718456
0.414511 0.391028 0.822705
0.796445 0.383856 0.82948
0.803006 0.386114 0.830289
0.803037 0.386114 0.830289
0.802853 0.38616 0.829938
0.0196994 0.364843 0.674876
0.0199741 0.357931 0.672847
0.0199588 0.357885 0.672801
0.0199741 0.395483 0.705745
0.376837 0.396384 0.818082
0.788373 0.381949 0.828611
0.80293 0.386145 0.830198
0.802991 0.38613 0.830259
0.802976 0.38613 0.830243
0.0201572 0.421622 0.70071
0.0201724 0.41413 0.6981
0.0200656 0.398825 0.691295
0.0199893 0.384939 0.692149
0.269215 0.409049 0.798108
0.754116 0.379843 0.825376
0.802884 0.38616 0.830167
0.802899 0.386145 0.830198
0.803037 0.386114 0.830304
0.0208438 0.554055 0.733272
0.0208591 0.552499 0.737362
0.0208896 0.552666 0.742657
0.0205081 0.546059 0.747326
0.121477 0.563455 0.789837
0.6692 0.515084 0.881743
0.838376 0.501457 0.860197
0.834638 0.490517 0.856809
0.827817 0.470283 0.850553
0.0212558 0.76994 0.793759
0.0210727 0.76466 0.79173
0.0213931 0.758556 0.790326
0.0211795 0.746273 0.78967
0.0211795 0.724849 0.801282
0.573343 0.720974 0.886931
0.868132 0.704433 0.903136
0.892683 0.691798 0.896025
0.890318 0.666789 0.892515
0.180377 0.89659 0.857374
0.17406 0.893111 0.854948
0.166217 0.887388 0.852277
0.149157 0.876143 0.845441
0.113191 0.856306 0.838712
0.510216 0.836774 0.85069
0.827237 0.852872 0.888487
0.913863 0.854093 0.890684
0.910918 0.837079 0.884138
0.204868 0.907271 0.861708
0.202014 0.908309 0.862165
0.202899 0.908095 0.861708
0.208347 0.906615 0.858503
0.223651 0.90193 0.847364
0.276875 0.901808 0.839948
0.813062 0.912688 0.87863
0.924102 0.936736 0.916732
0.927901 0.934768 0.913893
0.206302 0.906676 0.861006
0.20267 0.908125 0.861921
0.204715 0.907576 0.860853
0.209766 0.906203 0.857114
0.228809 0.900481 0.843748
0.238376 0.904295 0.832258
0.697383 0.904997 0.845502
0.926238 0.943908 0.92285
0.933806 0.94548 0.927535
0.0199588 0.357885 0.672801
0.0197604 0.362463 0.676127
0.0200961 0.378775 0.691859
0.0203708 0.408011 0.729686
0.432303 0.38819 0.825025
0.801038 0.385245 0.830182
0.803037 0.386114 0.830304
0.803052 0.386099 0.830304
0.802655 0.386221 0.829633
0.0199588 0.357885 0.672801
0.0199588 0.357885 0.672801
0.019913 0.371603 0.684215
0.0201724 0.402411 0.717449
0.408179 0.391897 0.821729
0.796078 0.383688 0.829389
0.803037 0.386114 0.830304
0.803067 0.386099 0.83032
0.802945 0.38613 0.830213
0.0196994 0.363729 0.67422
0.0199588 0.357885 0.672801
0.0199588 0.357885 0.672801
0.0199741 0.394705 0.704967
0.36994 0.397696 0.816724
0.786984 0.381521 0.828458
0.802976 0.38613 0.830259
0.803021 0.386114 0.830289
0.803067 0.386099 0.83032
0.0200809 0.417136 0.699687
0.019852 0.405859 0.69456
0.0203708 0.391302 0.688258
0.0200046 0.381247 0.689403
0.258488 0.409735 0.796643
0.74847 0.3794 0.824643
0.80293 0.386145 0.830213
0.802915 0.386145 0.830198
0.803067 0.386099 0.83032
0.0207218 0.573022 0.756085
0.0209201 0.566812 0.754269
0.0208133 0.560067 0.752758
0.0206302 0.541085 0.746242
0.0982071 0.555306 0.784894
0.653849 0.508232 0.880156
0.83563 0.492653 0.857481
0.831571 0.480491 0.853544
0.824689 0.460151 0.847959
0.0211948 0.776654 0.812802
0.0209354 0.771618 0.811078
0.0209659 0.76376 0.80798
0.02121 0.74847 0.802945
0.0210575 0.716014 0.798749
0.557275 0.713771 0.884535
0.85658 0.697322 0.90573
0.888228 0.683162 0.900206
0.884642 0.659892 0.899046
0.169924 0.89778 0.861448
0.160906 0.893736 0.860945
0.148058 0.887663 0.859907
0.12549 0.876921 0.856703
0.0801251 0.854978 0.849424
0.454398 0.827939 0.853986
0.795254 0.840436 0.897063
0.911971 0.843503 0.903273
0.90959 0.827543 0.902052
0.206363 0.906661 0.861036
0.202014 0.908324 0.862181
0.201999 0.908324 0.862165
0.202014 0.908324 0.862181
0.201999 0.908324 0.862165
0.225254 0.905119 0.861692
0.759106 0.897856 0.881468
0.916045 0.929915 0.917082
0.928328 0.932052 0.918593
0.204776 0.907317 0.861753
0.202106 0.908293 0.862165
0.201999 0.908324 0.862165
0.201999 0.908324 0.862165
0.201999 0.908324 0.862165
0.20708 0.91078 0.863294
0.59382 0.898146 0.858
0.914733 0.941192 0.921798
0.933715 0.94551 0.927764
